( pcb2gcode 1.3.2 )
( Software-independent Gcode )

G94 ( Millimeters per minute feed rate. )
G21 ( Units == Millimeters. )

G90 ( Absolute coordinates. )
S10000 ( RPM spindle speed. )
G64 P0.01000 ( set maximum deviation from commanded toolpath )
F600.00000 ( Feedrate. )

F600.00000 ( Feedrate. )
M3 ( Spindle on clockwise. )
G04 P1.00000
G04 P0 ( dwell for no time -- G64 should not smooth over this point )
G00 Z5.00000 ( retract )

G00 X38.89380 Y142.08780 ( rapid move to begin. )
F300.00000
G01 Z-0.15000
G04 P0 ( dwell for no time -- G64 should not smooth over this point )
F600.00000
G01 X38.89380 Y142.08780
X38.89380 Y143.36060
X38.87653 Y143.55587
X38.81572 Y143.78287
X38.66822 Y144.05882
X38.54236 Y144.20914
X38.26055 Y144.49095
X38.15186 Y144.70088
X37.98085 Y144.91206
X34.29785 Y148.59506
X34.06716 Y148.77692
X33.83917 Y148.89008
X33.67034 Y148.94131
X33.37859 Y148.97580
X14.64681 Y148.97580
X14.43210 Y148.95663
X14.11389 Y148.86008
X13.89303 Y148.73333
X13.72760 Y148.59506
X6.26826 Y141.13302
X6.15632 Y140.99665
X6.02958 Y140.77579
X5.93303 Y140.45763
X5.91380 Y140.24282
X5.91383 Y138.89492
X5.72211 Y138.86833
X5.48088 Y138.78710
X5.26006 Y138.66038
X5.12366 Y138.54844
X3.69458 Y137.12205
X3.51274 Y136.89137
X3.39958 Y136.66338
X3.33304 Y136.41761
X3.31381 Y136.20280
X3.31381 Y126.40587
X3.33304 Y126.19114
X3.37380 Y126.03023
X3.37380 Y40.03546
X3.33304 Y39.87455
X3.31381 Y39.65976
X3.31381 Y31.16283
X3.33304 Y30.94805
X3.39956 Y30.70235
X3.55628 Y30.40911
X3.69453 Y30.24368
X3.89453 Y30.04365
X4.07190 Y29.89720
X4.38767 Y29.73629
X4.61038 Y29.67886
X4.83994 Y29.66461
X5.10923 Y29.69839
X5.30021 Y29.76281
X6.91291 Y29.76281
X7.11974 Y29.72778
X7.30788 Y29.72778
X7.51474 Y29.76283
X8.01380 Y29.76281
X8.16688 Y29.79326
X8.29665 Y29.87998
X8.38337 Y30.00975
X8.40613 Y30.08478
X8.41380 Y30.52730
X8.48540 Y30.75259
X8.51380 Y31.02282
X8.51380 Y33.50280
X8.48540 Y33.77309
X8.41380 Y33.99932
X8.40613 Y34.38086
X8.34639 Y34.52505
X8.23605 Y34.63539
X8.09185 Y34.69513
X7.70265 Y34.70283
X7.57509 Y34.75002
X7.30788 Y34.79787
X7.03661 Y34.78914
X6.81210 Y34.73920
X6.72503 Y34.70283
X5.91380 Y34.70280
X5.91380 Y39.34407
X5.95462 Y39.50510
X5.97380 Y39.71978
X5.97380 Y85.64281
X8.09185 Y85.65050
X8.16688 Y85.67326
X8.29665 Y85.75998
X8.38337 Y85.88975
X8.41380 Y86.04281
X8.41380 Y90.18280
X8.40613 Y90.26086
X8.34639 Y90.40505
X8.29665 Y90.46566
X8.16688 Y90.55237
X8.01380 Y90.58280
X5.97380 Y90.58280
X5.97380 Y126.34585
X5.95462 Y126.56058
X5.91380 Y126.72162
X5.91383 Y135.66435
X6.55231 Y136.30283
X7.17382 Y136.30283
X7.38863 Y136.32206
X7.63440 Y136.38860
X7.75213 Y136.44281
X8.09185 Y136.45050
X8.16688 Y136.47326
X8.29665 Y136.55998
X8.38337 Y136.68975
X8.40613 Y136.76478
X8.41380 Y137.14783
X8.47930 Y137.35111
X8.51189 Y137.60366
X8.51380 Y139.70434
X14.86852 Y146.05907
X15.03921 Y146.18183
X33.03414 Y146.18183
X36.14239 Y143.07360
X36.35357 Y142.90259
X36.49380 Y142.82865
X36.49380 Y141.98780
X36.52855 Y141.70701
X36.60894 Y141.47820
X36.73371 Y141.27028
X36.83914 Y141.14745
X37.02583 Y140.99261
X37.31575 Y140.85039
X37.47244 Y140.80983
X37.71404 Y140.78938
X37.95489 Y140.81798
X38.25771 Y140.93012
X38.39507 Y141.01575
X38.57640 Y141.17683
X38.76088 Y141.44186
X38.84892 Y141.66782
X38.88958 Y141.89779
X38.89380 Y142.08780
G04 P0 ( dwell for no time -- G64 should not smooth over this point )
G00 Z5.00000 ( retract )

G00 X44.70725 Y131.94805 ( rapid move to begin. )
F300.00000
G01 Z-0.15000
G04 P0 ( dwell for no time -- G64 should not smooth over this point )
F600.00000
G01 X44.70725 Y131.94805
X44.65835 Y132.26722
X44.56651 Y132.49171
X44.48088 Y132.62907
X44.31980 Y132.81040
X44.12559 Y132.95556
X43.82881 Y133.08292
X43.59884 Y133.12359
X43.40880 Y133.12780
X40.78882 Y133.12780
X40.59357 Y133.11053
X40.29418 Y133.01970
X40.09065 Y132.90222
X39.96941 Y132.80273
X38.61917 Y131.45524
X38.45514 Y131.40284
X36.13396 Y131.40284
X35.93162 Y131.44523
X35.64770 Y131.44541
X35.41209 Y131.39755
X35.11385 Y131.27195
X34.85591 Y131.07647
X34.69665 Y130.89634
X34.54057 Y130.61287
X34.46833 Y130.38351
X34.44103 Y130.14462
X34.46833 Y129.82214
X34.54057 Y129.59278
X34.69665 Y129.30932
X34.85591 Y129.12918
X35.07872 Y128.95651
X35.33259 Y128.83393
X35.64770 Y128.76025
X35.93162 Y128.76042
X36.13396 Y128.80284
X37.76380 Y128.80282
X37.76380 Y121.62991
X37.19672 Y121.06283
X27.61109 Y121.06283
X27.52379 Y129.23960
X27.50698 Y129.41285
X27.45110 Y129.61785
X27.35684 Y129.80825
X27.20164 Y130.00566
X26.37754 Y130.82702
X26.20629 Y130.95760
X26.01280 Y131.05234
X25.88148 Y131.09217
X25.66797 Y131.12090
X24.59301 Y131.12283
X24.44381 Y131.17792
X24.20660 Y131.21869
X23.32568 Y131.22280
X23.04300 Y131.18808
X22.81420 Y131.10769
X22.67267 Y131.02913
X22.53625 Y130.92283
X21.93424 Y130.92090
X21.66599 Y130.86753
X21.44197 Y130.74782
X21.21961 Y130.54183
X18.00065 Y130.54183
X15.75821 Y132.78424
X15.94005 Y132.97738
X16.11277 Y133.26339
X16.20974 Y133.58307
X16.23380 Y133.83280
X16.19237 Y134.16430
X16.11277 Y134.40225
X16.03382 Y134.54337
X16.03382 Y135.87781
X16.11066 Y136.13631
X16.12803 Y136.47898
X16.10045 Y136.65899
X16.01691 Y136.90808
X15.88495 Y137.13526
X15.64850 Y137.38403
X15.42834 Y137.52729
X15.26100 Y137.59912
X15.00535 Y137.66000
X14.85409 Y137.67229
X14.53294 Y137.63605
X14.35918 Y137.58154
X14.12557 Y137.46125
X13.86520 Y137.23773
X13.75372 Y137.09371
X13.63073 Y136.86155
X13.54472 Y136.52934
X13.53959 Y136.26666
X13.56718 Y136.08665
X13.63380 Y135.88319
X13.63380 Y134.54337
X13.53985 Y134.36313
X13.45788 Y134.08256
X13.43380 Y133.83280
X13.45788 Y133.58307
X13.55486 Y133.26339
X13.67843 Y133.04502
X13.93383 Y132.76301
X13.94538 Y132.29900
X14.01912 Y132.05592
X14.10888 Y131.90428
X14.19743 Y131.79943
X16.99143 Y129.00543
X17.16148 Y128.87333
X17.41419 Y128.76865
X17.62780 Y128.74181
X21.59241 Y128.74181
X21.80607 Y128.76865
X21.97234 Y128.82713
X22.12398 Y128.91689
X22.34623 Y129.12281
X22.48301 Y129.12281
X22.61832 Y128.97043
X22.77089 Y128.86091
X22.98291 Y128.77249
X23.12715 Y128.74745
X23.35657 Y128.75291
X23.58938 Y128.82530
X24.12192 Y128.82283
X24.32532 Y128.84125
X24.59819 Y128.92281
X25.17323 Y128.92283
X25.32870 Y128.76736
X25.41892 Y120.32064
X25.38260 Y120.23367
X25.33698 Y120.02963
X25.32822 Y119.77919
X25.37175 Y119.53245
X25.42382 Y119.39395
X25.42382 Y111.05348
X24.77422 Y110.40384
X24.46335 Y110.46232
X24.17114 Y110.45358
X23.88715 Y110.38429
X23.62375 Y110.25744
X23.45461 Y110.13455
X23.20346 Y109.85561
X23.06487 Y109.59813
X22.98910 Y109.35719
X22.97541 Y109.24004
X22.83262 Y109.07550
X22.72439 Y108.88932
X22.65451 Y108.68553
X22.62380 Y108.43280
X22.62380 Y104.96012
X22.42766 Y104.78379
X22.28580 Y104.58714
X22.18639 Y104.36588
X22.14582 Y104.20919
X22.12538 Y103.96759
X22.17427 Y103.64841
X22.26612 Y103.42392
X22.35174 Y103.28656
X22.57420 Y103.05255
X22.77785 Y102.92075
X22.92662 Y102.85692
X23.24102 Y102.79195
X24.12192 Y102.78783
X24.40462 Y102.82255
X24.59819 Y102.88781
X25.17323 Y102.88783
X25.32870 Y102.73236
X25.41892 Y94.28564
X25.38260 Y94.19867
X25.33698 Y93.99463
X25.32822 Y93.74419
X25.37175 Y93.49745
X25.42382 Y93.35895
X25.42382 Y85.01848
X24.78936 Y84.38398
X24.54333 Y84.42732
X24.33429 Y84.42732
X24.04666 Y84.37512
X23.77615 Y84.26425
X23.53460 Y84.09955
X23.28344 Y83.82061
X23.14486 Y83.56313
X23.06909 Y83.32219
X23.05540 Y83.20507
X22.83262 Y82.96052
X22.72439 Y82.77433
X22.65451 Y82.57055
X22.62380 Y82.31782
X22.62380 Y78.92512
X22.42766 Y78.74879
X22.28580 Y78.55214
X22.18639 Y78.33088
X22.14582 Y78.17419
X22.12538 Y77.93259
X22.17427 Y77.61341
X22.26612 Y77.38892
X22.35174 Y77.25156
X22.57420 Y77.01755
X22.77785 Y76.88575
X22.92662 Y76.82192
X23.24102 Y76.75695
X24.12192 Y76.75283
X24.40462 Y76.78755
X24.59819 Y76.85281
X25.17323 Y76.85283
X25.32382 Y76.70221
X25.32382 Y58.88348
X24.77422 Y58.33384
X24.46335 Y58.39232
X24.17114 Y58.38358
X23.88715 Y58.31429
X23.62375 Y58.18744
X23.45461 Y58.06455
X23.20346 Y57.78561
X23.06487 Y57.52813
X22.98910 Y57.28719
X22.97541 Y57.17004
X22.83262 Y57.00550
X22.72439 Y56.81932
X22.65451 Y56.61553
X22.62380 Y56.36280
X22.62380 Y52.89012
X22.42766 Y52.71379
X22.28580 Y52.51714
X22.18639 Y52.29588
X22.14582 Y52.13919
X22.12538 Y51.89759
X22.15398 Y51.65674
X22.26612 Y51.35392
X22.40130 Y51.15255
X22.51283 Y51.03523
X22.70704 Y50.89007
X22.92662 Y50.78692
X23.24102 Y50.72195
X24.16426 Y50.71986
X24.32532 Y50.73625
X24.55598 Y50.80005
X25.32382 Y50.03221
X25.32382 Y32.84848
X24.77422 Y32.29884
X24.46335 Y32.35732
X24.17114 Y32.34858
X23.88715 Y32.27929
X23.62375 Y32.15244
X23.45461 Y32.02955
X23.20346 Y31.75061
X23.06487 Y31.49313
X22.98910 Y31.25219
X22.97541 Y31.13504
X22.83262 Y30.97050
X22.72439 Y30.78432
X22.65451 Y30.58053
X22.62380 Y30.32780
X22.62380 Y26.85512
X22.42766 Y26.67879
X22.28580 Y26.48214
X22.18639 Y26.26088
X22.14582 Y26.10419
X22.12538 Y25.86259
X22.17427 Y25.54341
X22.26612 Y25.31892
X22.35174 Y25.18156
X22.57420 Y24.94755
X22.77785 Y24.81575
X22.92662 Y24.75192
X23.24102 Y24.68695
X24.12192 Y24.68283
X24.40462 Y24.71755
X24.59819 Y24.78281
X25.32382 Y24.78281
X25.32382 Y16.83281
X25.35451 Y16.58018
X25.42438 Y16.37637
X25.53261 Y16.19019
X25.61966 Y16.08412
X26.75600 Y14.94503
X26.89113 Y14.83162
X27.07739 Y14.72334
X27.35801 Y14.63820
X27.53380 Y14.62281
X30.47461 Y14.62281
X30.62381 Y14.56771
X30.85947 Y14.52695
X34.32289 Y14.52283
X34.45380 Y14.43043
X34.68212 Y14.32636
X34.96612 Y14.25707
X35.25832 Y14.24831
X35.58641 Y14.31135
X35.88890 Y14.45321
X36.05804 Y14.57610
X36.21994 Y14.74282
X36.56802 Y14.74282
X36.78169 Y14.76967
X36.94795 Y14.82814
X37.17536 Y14.98008
X40.87022 Y18.67223
X41.00233 Y18.84231
X41.10698 Y19.09496
X41.13380 Y19.30860
X41.13382 Y35.63656
X41.22742 Y35.75357
X41.30504 Y35.88797
X43.87636 Y38.45931
X44.00225 Y38.60968
X44.11970 Y38.81318
X44.19523 Y39.03566
X44.22780 Y39.30782
X44.22780 Y40.71821
X44.27011 Y40.82979
X44.27778 Y40.90782
X44.27778 Y42.60779
X44.27011 Y42.68584
X44.21037 Y42.83004
X44.10004 Y42.94038
X43.95584 Y43.00012
X42.17781 Y43.00779
X42.02475 Y42.97736
X41.89499 Y42.89064
X41.80827 Y42.76088
X41.77782 Y42.60779
X41.77782 Y40.90782
X41.78551 Y40.82979
X41.82783 Y40.71821
X41.82780 Y39.80490
X39.38529 Y37.36239
X39.21592 Y37.14689
X39.11193 Y36.93610
X39.06642 Y36.78601
X39.03380 Y36.42380
X39.07089 Y36.13394
X39.15659 Y35.89841
X39.24023 Y35.75357
X39.33380 Y35.63658
X39.33380 Y19.68142
X36.20823 Y16.55582
X36.05807 Y16.70954
X35.81651 Y16.87426
X35.54598 Y16.98513
X35.25832 Y17.03733
X34.96612 Y17.02859
X34.72121 Y16.97431
X34.60018 Y16.92280
X30.94380 Y16.92280
X30.66300 Y16.88808
X30.46943 Y16.82283
X27.98948 Y16.82283
X27.52382 Y17.28846
X27.52382 Y25.78280
X27.49319 Y26.03548
X27.42331 Y26.23929
X27.31511 Y26.42542
X27.22806 Y26.53152
X26.96644 Y26.77409
X26.70782 Y26.91234
X26.49956 Y26.96746
X26.32382 Y26.98280
X24.82380 Y26.98280
X24.82380 Y29.64378
X25.02151 Y29.73139
X25.26789 Y29.89999
X25.45026 Y29.96334
X25.57129 Y30.02803
X25.77165 Y30.18501
X27.22806 Y31.64416
X27.31511 Y31.75026
X27.42331 Y31.93639
X27.49319 Y32.14020
X27.52382 Y32.39282
X27.52382 Y40.55781
X31.74377 Y40.55781
X32.02462 Y40.59255
X32.25342 Y40.67295
X32.46135 Y40.79771
X32.58418 Y40.90315
X32.73902 Y41.08984
X32.88124 Y41.37975
X32.93404 Y41.61640
X32.93816 Y41.85890
X32.91365 Y42.01889
X32.83714 Y42.24902
X32.66633 Y42.52308
X32.49343 Y42.69308
X32.28977 Y42.82488
X32.14100 Y42.88871
X31.90527 Y42.94551
X31.34723 Y42.95780
X27.52382 Y42.95780
X27.52382 Y50.48781
X27.49319 Y50.74049
X27.45336 Y50.87181
X27.35864 Y51.06530
X27.22798 Y51.23660
X25.74254 Y52.72202
X25.57129 Y52.85260
X25.37780 Y52.94734
X25.16954 Y53.00246
X24.82380 Y53.01780
X24.82380 Y55.67878
X25.02151 Y55.76639
X25.26789 Y55.93499
X25.45026 Y55.99834
X25.57129 Y56.06303
X25.77165 Y56.22001
X27.22806 Y57.67916
X27.31511 Y57.78526
X27.42331 Y57.97139
X27.49319 Y58.17520
X27.52382 Y58.42782
X27.52382 Y66.59281
X31.74377 Y66.59281
X32.02462 Y66.62755
X32.17905 Y66.67602
X32.39495 Y66.78651
X32.63996 Y66.99684
X32.78182 Y67.19349
X32.88124 Y67.41475
X32.92180 Y67.57144
X32.94225 Y67.81305
X32.89335 Y68.13222
X32.80151 Y68.35671
X32.71588 Y68.49407
X32.55480 Y68.67540
X32.36059 Y68.82056
X32.06381 Y68.94792
X31.82815 Y68.98869
X27.52382 Y68.99280
X27.52382 Y77.15781
X27.49319 Y77.41049
X27.45336 Y77.54181
X27.35864 Y77.73530
X27.22798 Y77.90660
X26.40662 Y78.73065
X26.20629 Y78.88760
X26.01280 Y78.98234
X25.80454 Y79.03746
X25.62880 Y79.05280
X24.82380 Y79.05280
X24.82382 Y81.68899
X25.17391 Y81.84320
X25.39263 Y82.00946
X25.63650 Y82.14159
X25.77165 Y82.25501
X27.32806 Y83.81416
X27.41511 Y83.92026
X27.52331 Y84.10639
X27.59319 Y84.31020
X27.62382 Y84.56282
X27.62382 Y92.62781
X31.74377 Y92.62781
X32.02462 Y92.66255
X32.17905 Y92.71102
X32.39495 Y92.82151
X32.63996 Y93.03184
X32.78182 Y93.22849
X32.88124 Y93.44975
X32.92180 Y93.60644
X32.94225 Y93.84805
X32.89335 Y94.16722
X32.80151 Y94.39171
X32.71588 Y94.52907
X32.55480 Y94.71040
X32.36059 Y94.85556
X32.06381 Y94.98292
X31.82815 Y95.02369
X27.61109 Y95.02780
X27.52379 Y103.20460
X27.49125 Y103.45359
X27.45110 Y103.58285
X27.35684 Y103.77325
X27.22765 Y103.94201
X26.40662 Y104.76565
X26.20629 Y104.92260
X26.01280 Y105.01734
X25.80454 Y105.07246
X25.62880 Y105.08780
X24.82380 Y105.08780
X24.82380 Y107.74878
X25.02151 Y107.83639
X25.26789 Y108.00499
X25.45026 Y108.06834
X25.57129 Y108.13303
X25.77165 Y108.29001
X27.32806 Y109.84916
X27.41511 Y109.95526
X27.52331 Y110.14139
X27.59319 Y110.34520
X27.62382 Y110.59782
X27.62382 Y118.66281
X37.69380 Y118.66281
X37.96599 Y118.69542
X38.18857 Y118.77099
X38.39200 Y118.88844
X38.57884 Y119.05074
X40.52029 Y117.10929
X40.73581 Y116.93990
X40.94657 Y116.83594
X41.09664 Y116.79042
X41.32956 Y116.75976
X43.06491 Y116.75781
X43.30253 Y116.71272
X43.44934 Y116.70990
X43.69960 Y116.74358
X43.93811 Y116.82697
X44.15492 Y116.95669
X44.34116 Y117.12735
X44.48929 Y117.33210
X44.59307 Y117.56230
X44.64847 Y117.80886
X44.65310 Y118.06146
X44.62703 Y118.23146
X44.54705 Y118.47101
X44.42038 Y118.68968
X44.25238 Y118.87833
X43.97903 Y119.06860
X43.74378 Y119.16062
X43.51510 Y119.20291
X43.19719 Y119.18831
X43.07266 Y119.15783
X41.86590 Y119.15780
X40.16382 Y120.85993
X40.16382 Y123.34027
X40.43875 Y123.18754
X40.72278 Y123.11822
X40.97327 Y123.11385
X41.13845 Y123.14001
X41.41360 Y123.23862
X41.65513 Y123.40329
X41.82600 Y123.58650
X41.91711 Y123.72678
X42.03664 Y124.03821
X42.06717 Y124.28685
X42.05407 Y124.49554
X42.00207 Y124.69805
X41.85066 Y124.99520
X41.71736 Y125.15637
X40.16382 Y126.70993
X40.16382 Y129.39228
X40.24277 Y129.53340
X40.31899 Y129.76096
X41.28587 Y130.72781
X43.54926 Y130.72986
X43.78962 Y130.76255
X43.94405 Y130.81102
X44.15995 Y130.92151
X44.34918 Y131.07315
X44.54682 Y131.32849
X44.64624 Y131.54975
X44.68680 Y131.70644
X44.70725 Y131.94805
G04 P0 ( dwell for no time -- G64 should not smooth over this point )
G00 Z5.00000 ( retract )

G00 X44.70880 Y128.48781 ( rapid move to begin. )
F300.00000
G01 Z-0.15000
G04 P0 ( dwell for no time -- G64 should not smooth over this point )
F600.00000
G01 X44.70880 Y128.48781
X44.70880 Y130.28780
X44.67837 Y130.44089
X44.59165 Y130.57066
X44.53105 Y130.62039
X44.38685 Y130.68013
X44.30880 Y130.68780
X42.50880 Y130.68780
X42.35574 Y130.65737
X42.22597 Y130.57066
X42.17624 Y130.51005
X42.13926 Y130.44089
X42.10880 Y130.28780
X42.10880 Y128.48781
X42.13926 Y128.33475
X42.20880 Y128.22588
X42.20880 Y124.60432
X42.16882 Y124.30780
X42.15882 Y119.64782
X42.18927 Y119.49476
X42.27599 Y119.36499
X42.40575 Y119.27827
X42.48079 Y119.25552
X44.33684 Y119.25552
X44.41187 Y119.27827
X44.54164 Y119.36499
X44.62836 Y119.49476
X44.65111 Y119.56979
X44.65878 Y121.34779
X44.62836 Y121.50088
X44.56882 Y121.59752
X44.56884 Y124.05129
X44.60880 Y124.34781
X44.60882 Y128.22588
X44.67837 Y128.33475
X44.70880 Y128.48781
G04 P0 ( dwell for no time -- G64 should not smooth over this point )
G00 Z5.00000 ( retract )

G00 X48.70881 Y110.52716 ( rapid move to begin. )
F300.00000
G01 Z-0.15000
G04 P0 ( dwell for no time -- G64 should not smooth over this point )
F600.00000
G01 X48.70881 Y110.52716
X48.69131 Y110.33979
X48.61372 Y110.07977
X48.52152 Y109.91571
X48.37447 Y109.73936
X48.12157 Y109.55559
X47.94877 Y109.48104
X47.72380 Y109.43321
X47.49386 Y109.43321
X47.26889 Y109.48104
X47.09609 Y109.55559
X46.90536 Y109.68337
X46.74527 Y109.84812
X46.62297 Y110.04243
X46.52635 Y110.33979
X46.50994 Y110.54819
X46.54372 Y110.79627
X46.60394 Y110.97458
X46.70884 Y111.15609
X46.72182 Y136.23204
X45.12066 Y137.83323
X44.97390 Y137.86668
X44.80110 Y137.94123
X44.57781 Y138.09538
X44.40115 Y138.30135
X44.30895 Y138.46541
X44.23135 Y138.72543
X44.21383 Y138.91280
X44.24873 Y139.18192
X44.32798 Y139.39756
X44.40115 Y139.52428
X44.54819 Y139.70064
X44.72876 Y139.84262
X44.97390 Y139.95895
X45.19886 Y140.00678
X45.42881 Y140.00678
X45.65378 Y139.95895
X45.82658 Y139.88441
X46.04987 Y139.73025
X46.17740 Y139.59187
X46.29970 Y139.39756
X46.39554 Y139.10394
X48.28461 Y137.21215
X48.43655 Y136.98474
X48.51031 Y136.74156
X48.52182 Y136.60481
X48.52182 Y122.55183
X48.50882 Y122.41924
X48.50882 Y111.15609
X48.61372 Y110.97458
X48.67394 Y110.79627
X48.70881 Y110.52716
G04 P0 ( dwell for no time -- G64 should not smooth over this point )
G00 Z5.00000 ( retract )

G00 X46.81618 Y54.48059 ( rapid move to begin. )
F300.00000
G01 Z-0.15000
G04 P0 ( dwell for no time -- G64 should not smooth over this point )
F600.00000
G01 X46.81618 Y54.48059
X46.76780 Y54.80182
X46.76780 Y55.47380
X46.74814 Y55.68196
X46.66409 Y55.96192
X46.56142 Y56.14409
X46.46780 Y56.26110
X46.46780 Y97.63783
X46.45629 Y97.77458
X46.38253 Y98.01776
X46.29277 Y98.16940
X46.20422 Y98.27425
X40.62580 Y103.85265
X40.62580 Y115.16380
X40.61429 Y115.30056
X40.57055 Y115.47127
X40.45077 Y115.69538
X40.36222 Y115.80023
X39.02951 Y117.13294
X38.93368 Y117.42656
X38.81137 Y117.62087
X38.68384 Y117.75925
X38.46055 Y117.91341
X38.28775 Y117.98795
X38.06279 Y118.03578
X37.83284 Y118.03578
X37.60787 Y117.98795
X37.43508 Y117.91341
X37.21178 Y117.75925
X37.08425 Y117.62087
X36.92791 Y117.35011
X36.86533 Y117.12921
X36.85001 Y116.89995
X36.88270 Y116.67272
X36.94293 Y116.49441
X37.03513 Y116.33035
X37.18217 Y116.15400
X37.43508 Y115.97023
X37.60787 Y115.89568
X37.75463 Y115.86223
X38.82580 Y114.79103
X38.82580 Y103.47980
X38.83738 Y103.34300
X38.88110 Y103.17239
X38.95732 Y103.01349
X39.08943 Y102.84343
X44.66780 Y97.26506
X44.66780 Y56.26108
X44.57423 Y56.14409
X44.47156 Y55.96192
X44.38751 Y55.68201
X44.36780 Y55.47380
X44.36783 Y54.79263
X44.32815 Y54.60678
X44.31944 Y54.43505
X44.34959 Y54.18417
X44.42958 Y53.94462
X44.55624 Y53.72595
X44.72424 Y53.53731
X44.92681 Y53.38633
X45.15566 Y53.27922
X45.40130 Y53.22039
X45.54751 Y53.20835
X45.77943 Y53.22733
X46.02269 Y53.29504
X46.24748 Y53.41044
X46.44443 Y53.56873
X46.60544 Y53.76334
X46.72401 Y53.98651
X46.79520 Y54.22880
X46.81618 Y54.48059
G04 P0 ( dwell for no time -- G64 should not smooth over this point )
G00 Z5.00000 ( retract )

G00 X48.61781 Y52.86573 ( rapid move to begin. )
F300.00000
G01 Z-0.15000
G04 P0 ( dwell for no time -- G64 should not smooth over this point )
F600.00000
G01 X48.61781 Y52.86573
X48.61781 Y106.52780
X48.60630 Y106.66456
X48.56256 Y106.83527
X48.48634 Y106.99417
X48.38060 Y107.13514
X46.50882 Y109.00964
X46.50882 Y135.69681
X46.49731 Y135.83356
X46.42355 Y136.07674
X46.33379 Y136.22838
X46.24524 Y136.33323
X41.51274 Y141.06571
X41.53380 Y141.18781
X41.53380 Y142.98780
X41.50337 Y143.14089
X41.41665 Y143.27066
X41.28688 Y143.35737
X41.13380 Y143.38780
X39.25577 Y143.38013
X39.18074 Y143.35737
X39.05097 Y143.27066
X38.96426 Y143.14089
X38.94150 Y143.06586
X38.93380 Y141.18781
X38.96426 Y141.03475
X39.00124 Y140.96558
X39.05097 Y140.90498
X39.18074 Y140.81826
X39.25577 Y140.79550
X39.38201 Y140.78781
X39.46532 Y140.60549
X39.59743 Y140.43543
X44.70882 Y135.32404
X44.71078 Y108.59755
X44.76412 Y108.32940
X44.84034 Y108.17050
X44.94608 Y108.02953
X46.81781 Y106.15506
X46.81781 Y53.23853
X46.69711 Y53.11783
X45.91174 Y53.11780
X45.73432 Y53.15524
X45.58812 Y53.16728
X45.35619 Y53.14831
X45.11294 Y53.08059
X44.88815 Y52.96520
X44.63547 Y52.74828
X44.53018 Y52.61229
X44.41162 Y52.38913
X44.34042 Y52.14684
X44.31944 Y51.89505
X44.36986 Y51.56591
X44.46526 Y51.33190
X44.60575 Y51.12197
X44.72424 Y50.99731
X44.99760 Y50.80704
X45.23285 Y50.71501
X45.54751 Y50.66835
X45.77943 Y50.68733
X45.90397 Y50.71781
X46.76991 Y50.71781
X47.05982 Y50.75489
X47.25802 Y50.82157
X47.44019 Y50.92423
X47.68804 Y51.14740
X47.80917 Y51.31783
X47.89619 Y51.50795
X47.96551 Y51.84061
X48.35426 Y52.22939
X48.48634 Y52.39944
X48.59098 Y52.65209
X48.61781 Y52.86573
G04 P0 ( dwell for no time -- G64 should not smooth over this point )
G00 Z5.00000 ( retract )

G00 X49.30343 Y49.29419 ( rapid move to begin. )
F300.00000
G01 Z-0.15000
G04 P0 ( dwell for no time -- G64 should not smooth over this point )
F600.00000
G01 X49.30343 Y49.29419
X49.30124 Y49.50328
X49.25992 Y49.70821
X49.12426 Y50.01291
X48.99959 Y50.18077
X48.84567 Y50.32230
X48.55677 Y50.48911
X48.31595 Y50.55814
X48.10780 Y50.57780
X45.91172 Y50.57783
X45.73432 Y50.61524
X45.58812 Y50.62728
X45.35619 Y50.60831
X45.11294 Y50.54059
X44.88815 Y50.42520
X44.69120 Y50.26691
X44.53018 Y50.07229
X44.41162 Y49.84913
X44.34042 Y49.60684
X44.31944 Y49.35505
X44.34959 Y49.10417
X44.42958 Y48.86462
X44.55624 Y48.64595
X44.72424 Y48.45731
X44.92681 Y48.30633
X45.15566 Y48.19922
X45.40130 Y48.14039
X45.54751 Y48.12835
X45.77943 Y48.14733
X45.90397 Y48.17781
X48.10780 Y48.17781
X48.39772 Y48.21489
X48.59591 Y48.28157
X48.77808 Y48.38423
X48.99959 Y48.57486
X49.14707 Y48.77783
X49.23409 Y48.96795
X49.30343 Y49.29419
G04 P0 ( dwell for no time -- G64 should not smooth over this point )
G00 Z5.00000 ( retract )

G00 X44.27618 Y51.94059 ( rapid move to begin. )
F300.00000
G01 Z-0.15000
G04 P0 ( dwell for no time -- G64 should not smooth over this point )
F600.00000
G01 X44.27618 Y51.94059
X44.24603 Y52.19146
X44.13036 Y52.50373
X43.98988 Y52.71366
X43.87138 Y52.83833
X43.66882 Y52.98930
X43.43997 Y53.09642
X43.19432 Y53.15524
X42.98729 Y53.16573
X42.71185 Y53.12415
X42.47362 Y53.25024
X42.27223 Y53.30647
X42.02265 Y53.32832
X41.89852 Y53.31752
X41.88528 Y53.84180
X41.82056 Y54.06210
X41.69831 Y54.25948
X41.69816 Y55.04688
X41.81856 Y55.24233
X41.86588 Y55.38089
X41.89735 Y55.69730
X41.89633 Y63.85586
X41.88323 Y64.00158
X41.83359 Y64.18273
X41.69623 Y64.41948
X41.69593 Y65.83243
X41.83306 Y66.06893
X41.88269 Y66.25008
X41.89580 Y66.39580
X41.89580 Y90.65890
X42.00070 Y90.84041
X42.06092 Y91.01872
X42.09580 Y91.28780
X42.07830 Y91.47521
X42.00070 Y91.73523
X41.90850 Y91.89928
X41.73184 Y92.10525
X41.50855 Y92.25941
X41.33575 Y92.33395
X41.11079 Y92.38178
X40.88084 Y92.38178
X40.65587 Y92.33395
X40.48308 Y92.25941
X40.23017 Y92.07564
X40.08313 Y91.89928
X39.99093 Y91.73523
X39.91333 Y91.47521
X39.89580 Y91.28780
X39.93070 Y91.01872
X39.99093 Y90.84041
X40.09580 Y90.65890
X40.09580 Y66.39580
X40.10896 Y66.24998
X40.15859 Y66.06893
X40.29595 Y65.83218
X40.29626 Y64.41923
X40.15912 Y64.18273
X40.10949 Y64.00168
X40.09634 Y63.85580
X40.09634 Y55.60835
X40.10949 Y55.46253
X40.15912 Y55.28148
X40.29819 Y55.04284
X40.29834 Y54.25920
X40.17614 Y54.06167
X40.11152 Y53.84137
X40.09847 Y53.69563
X40.10081 Y52.70914
X40.11147 Y52.60642
X40.16006 Y52.42713
X40.24439 Y52.26175
X40.36085 Y52.11727
X40.53903 Y51.97678
X40.90499 Y51.75941
X40.94022 Y51.66175
X41.06166 Y51.44260
X41.19491 Y51.28151
X41.40703 Y51.06937
X41.55734 Y50.94349
X41.83334 Y50.79594
X42.06026 Y50.73516
X42.25559 Y50.71781
X42.68388 Y50.71783
X42.92153 Y50.67272
X43.06834 Y50.66990
X43.31860 Y50.70358
X43.55711 Y50.78697
X43.77392 Y50.91669
X43.90443 Y51.02873
X44.06544 Y51.22334
X44.21207 Y51.52230
X44.25520 Y51.68880
X44.27618 Y51.94059
G04 P0 ( dwell for no time -- G64 should not smooth over this point )
G00 Z5.00000 ( retract )

G00 X44.27618 Y49.40059 ( rapid move to begin. )
F300.00000
G01 Z-0.15000
G04 P0 ( dwell for no time -- G64 should not smooth over this point )
F600.00000
G01 X44.27618 Y49.40059
X44.24603 Y49.65146
X44.16605 Y49.89101
X43.98988 Y50.17366
X43.80997 Y50.35106
X43.59803 Y50.48860
X43.43997 Y50.55642
X43.13410 Y50.62291
X42.81619 Y50.60831
X42.69166 Y50.57783
X41.89857 Y50.57780
X40.10822 Y52.36815
X39.89580 Y52.52273
X39.89580 Y64.27948
X40.05938 Y64.44676
X40.20070 Y64.67841
X40.27830 Y64.93843
X40.29362 Y65.16769
X40.26093 Y65.39492
X40.18168 Y65.61056
X40.10850 Y65.73728
X39.96146 Y65.91364
X39.78089 Y66.05562
X39.53576 Y66.17195
X39.31079 Y66.21978
X39.08084 Y66.21978
X38.85588 Y66.17195
X38.68308 Y66.09741
X38.49235 Y65.96962
X38.28313 Y65.73728
X38.19093 Y65.57323
X38.13071 Y65.39492
X38.09581 Y65.12580
X38.11333 Y64.93843
X38.19093 Y64.67841
X38.33225 Y64.44676
X38.49583 Y64.27948
X38.49580 Y52.00775
X38.51882 Y51.83312
X38.57574 Y51.68600
X38.61866 Y51.44905
X38.71701 Y51.24158
X38.83543 Y51.09535
X40.63017 Y49.30064
X40.69948 Y48.96795
X40.78650 Y48.77783
X40.93398 Y48.57486
X41.15549 Y48.38423
X41.37680 Y48.26655
X41.61757 Y48.19752
X41.78389 Y48.18002
X42.68391 Y48.17781
X42.86130 Y48.14039
X43.00751 Y48.12835
X43.23943 Y48.14733
X43.48269 Y48.21504
X43.77392 Y48.37669
X43.90443 Y48.48873
X44.06544 Y48.68334
X44.21207 Y48.98230
X44.25520 Y49.14880
X44.27618 Y49.40059
G04 P0 ( dwell for no time -- G64 should not smooth over this point )
G00 Z5.00000 ( retract )

G00 X44.27618 Y46.86059 ( rapid move to begin. )
F300.00000
G01 Z-0.15000
G04 P0 ( dwell for no time -- G64 should not smooth over this point )
F600.00000
G01 X44.27618 Y46.86059
X44.24603 Y47.11146
X44.16605 Y47.35101
X43.98988 Y47.63366
X43.80997 Y47.81106
X43.66882 Y47.90930
X43.36278 Y48.04062
X43.04812 Y48.08728
X42.81619 Y48.06831
X42.69166 Y48.03783
X38.59380 Y48.03780
X38.59189 Y51.42700
X38.53855 Y51.69528
X38.46233 Y51.85418
X38.37180 Y51.97658
X38.37180 Y63.49982
X38.34879 Y63.67468
X38.30177 Y63.80315
X38.23048 Y63.92027
X38.08882 Y64.07280
X38.08885 Y65.96756
X38.26352 Y66.07871
X38.42192 Y66.24483
X38.53106 Y66.44696
X38.56334 Y66.54638
X38.59161 Y66.73205
X38.59382 Y72.24390
X38.69870 Y72.42541
X38.75892 Y72.60372
X38.79380 Y72.87280
X38.75892 Y73.14192
X38.69870 Y73.32023
X38.59380 Y73.50173
X38.59380 Y98.11728
X38.73307 Y98.30783
X38.84592 Y98.57745
X38.88943 Y98.82419
X38.88724 Y99.03328
X38.84592 Y99.23821
X38.71026 Y99.54291
X38.58559 Y99.71077
X38.43167 Y99.85230
X38.14277 Y100.01911
X37.90195 Y100.08814
X37.73561 Y100.10562
X30.94380 Y100.10780
X30.66300 Y100.07308
X30.50857 Y100.02462
X30.29267 Y99.91413
X30.04766 Y99.70379
X29.90580 Y99.50714
X29.80639 Y99.28588
X29.76582 Y99.12919
X29.74538 Y98.88759
X29.79427 Y98.56841
X29.88612 Y98.34392
X29.97174 Y98.20656
X30.19420 Y97.97255
X30.39785 Y97.84075
X30.54662 Y97.77692
X30.85947 Y97.71195
X36.79380 Y97.70781
X36.79380 Y73.50173
X36.68893 Y73.32023
X36.62870 Y73.14192
X36.59380 Y72.87280
X36.62870 Y72.60372
X36.68893 Y72.42541
X36.79380 Y72.24390
X36.79380 Y67.21986
X36.71186 Y67.02763
X36.68882 Y66.85283
X36.68882 Y63.78281
X36.71189 Y63.60800
X36.75890 Y63.47953
X36.83020 Y63.36241
X36.97183 Y63.20991
X36.97183 Y51.97544
X36.89083 Y51.85461
X36.81544 Y51.68260
X36.77305 Y51.45692
X36.79380 Y51.21989
X36.79380 Y47.46673
X36.68893 Y47.28523
X36.62870 Y47.10692
X36.59380 Y46.83780
X36.62870 Y46.56872
X36.68893 Y46.39041
X36.79380 Y46.20890
X36.79380 Y45.24970
X36.77749 Y44.97063
X36.80262 Y44.82640
X36.85311 Y44.68902
X36.97183 Y44.49427
X36.97183 Y43.33733
X36.83459 Y43.10073
X36.78496 Y42.91968
X36.77181 Y42.77380
X36.77181 Y21.43173
X36.66693 Y21.25023
X36.60671 Y21.07192
X36.57181 Y20.80280
X36.58933 Y20.61543
X36.65192 Y20.39453
X36.80825 Y20.12376
X36.93579 Y19.98538
X37.08674 Y19.87301
X37.37234 Y19.74583
X37.55684 Y19.70885
X37.82814 Y19.71541
X38.05087 Y19.77169
X38.18455 Y19.83123
X38.37528 Y19.95902
X38.53538 Y20.12376
X38.67670 Y20.35541
X38.75430 Y20.61543
X38.77180 Y20.80280
X38.73693 Y21.07192
X38.67670 Y21.25023
X38.57180 Y21.43173
X38.57180 Y42.77380
X38.55870 Y42.91958
X38.50906 Y43.10073
X38.37180 Y43.33735
X38.37180 Y44.49308
X38.50866 Y44.70225
X38.58232 Y44.94528
X38.59380 Y45.63781
X42.68388 Y45.63783
X42.86130 Y45.60039
X43.00751 Y45.58835
X43.31860 Y45.62358
X43.55711 Y45.70697
X43.70748 Y45.79044
X43.90443 Y45.94873
X44.06544 Y46.14334
X44.21207 Y46.44230
X44.25520 Y46.60880
X44.27618 Y46.86059
G04 P0 ( dwell for no time -- G64 should not smooth over this point )
G00 Z5.00000 ( retract )

G00 X46.81618 Y46.86059 ( rapid move to begin. )
F300.00000
G01 Z-0.15000
G04 P0 ( dwell for no time -- G64 should not smooth over this point )
F600.00000
G01 X46.81618 Y46.86059
X46.78603 Y47.11146
X46.70605 Y47.35101
X46.57938 Y47.56968
X46.41138 Y47.75833
X46.20882 Y47.90930
X45.97997 Y48.01642
X45.73432 Y48.07524
X45.58812 Y48.08728
X45.35619 Y48.06831
X45.11294 Y48.00059
X44.88815 Y47.88520
X44.69120 Y47.72691
X44.53018 Y47.53229
X44.41162 Y47.30913
X44.34042 Y47.06684
X44.31944 Y46.81505
X44.34959 Y46.56417
X44.42958 Y46.32462
X44.55624 Y46.10595
X44.72424 Y45.91731
X44.92681 Y45.76633
X45.15566 Y45.65922
X45.40130 Y45.60039
X45.54751 Y45.58835
X45.77943 Y45.60733
X46.02269 Y45.67504
X46.24748 Y45.79044
X46.44443 Y45.94873
X46.60544 Y46.14334
X46.72401 Y46.36651
X46.79520 Y46.60880
X46.81618 Y46.86059
G04 P0 ( dwell for no time -- G64 should not smooth over this point )
G00 Z5.00000 ( retract )

G00 X44.27618 Y44.32059 ( rapid move to begin. )
F300.00000
G01 Z-0.15000
G04 P0 ( dwell for no time -- G64 should not smooth over this point )
F600.00000
G01 X44.27618 Y44.32059
X44.24603 Y44.57146
X44.16605 Y44.81101
X43.98988 Y45.09366
X43.80997 Y45.27106
X43.66882 Y45.36930
X43.36278 Y45.50062
X43.04812 Y45.54728
X42.81619 Y45.52831
X42.69166 Y45.49780
X39.72580 Y45.49780
X39.43594 Y45.46077
X39.23774 Y45.39409
X39.05557 Y45.29143
X38.83406 Y45.10077
X38.70939 Y44.93291
X38.59956 Y44.70774
X38.53241 Y44.42328
X38.53020 Y44.21419
X38.59956 Y43.88795
X38.68658 Y43.69783
X38.83406 Y43.49486
X39.05557 Y43.30423
X39.23774 Y43.20157
X39.43594 Y43.13489
X39.72580 Y43.09781
X42.68391 Y43.09781
X42.86130 Y43.06039
X43.00751 Y43.04835
X43.23943 Y43.06733
X43.48269 Y43.13504
X43.70748 Y43.25044
X43.90443 Y43.40873
X44.06544 Y43.60334
X44.18401 Y43.82651
X44.25520 Y44.06880
X44.27618 Y44.32059
G04 P0 ( dwell for no time -- G64 should not smooth over this point )
G00 Z5.00000 ( retract )

G00 X46.81618 Y41.78059 ( rapid move to begin. )
F300.00000
G01 Z-0.15000
G04 P0 ( dwell for no time -- G64 should not smooth over this point )
F600.00000
G01 X46.81618 Y41.78059
X46.78603 Y42.03146
X46.70605 Y42.27101
X46.52988 Y42.55366
X46.34997 Y42.73106
X46.20882 Y42.82930
X45.90278 Y42.96062
X45.67410 Y43.00291
X45.52729 Y43.00573
X45.27702 Y42.97205
X45.11294 Y42.92059
X44.82170 Y42.75895
X44.63547 Y42.58828
X44.48733 Y42.38353
X44.41162 Y42.22913
X44.34042 Y41.98684
X44.31944 Y41.73505
X44.36780 Y41.41384
X44.36780 Y39.21780
X44.38751 Y39.00965
X44.47156 Y38.72974
X44.57423 Y38.54757
X44.76486 Y38.32606
X45.00514 Y38.15959
X45.23745 Y38.06574
X45.44237 Y38.02441
X45.69328 Y38.02441
X45.97773 Y38.09157
X46.20290 Y38.20140
X46.37077 Y38.32606
X46.56142 Y38.54757
X46.66409 Y38.72974
X46.73076 Y38.92794
X46.76780 Y39.21780
X46.76780 Y41.42301
X46.80747 Y41.60886
X46.81618 Y41.78059
G04 P0 ( dwell for no time -- G64 should not smooth over this point )
G00 Z5.00000 ( retract )

G00 X48.61781 Y37.55781 ( rapid move to begin. )
F300.00000
G01 Z-0.15000
G04 P0 ( dwell for no time -- G64 should not smooth over this point )
F600.00000
G01 X48.61781 Y37.55781
X48.61781 Y43.34990
X48.59101 Y43.56357
X48.53254 Y43.72984
X48.44278 Y43.88147
X48.35423 Y43.98632
X47.40633 Y44.93423
X47.30148 Y45.02277
X47.14984 Y45.11254
X46.90666 Y45.18630
X46.43087 Y45.19780
X46.34997 Y45.27106
X46.13803 Y45.40860
X45.97997 Y45.47642
X45.73432 Y45.53524
X45.58812 Y45.54728
X45.35619 Y45.52831
X45.03851 Y45.42866
X44.82170 Y45.29895
X44.69120 Y45.18691
X44.53018 Y44.99229
X44.41162 Y44.76913
X44.34042 Y44.52684
X44.31944 Y44.27505
X44.34959 Y44.02417
X44.42958 Y43.78462
X44.55624 Y43.56595
X44.72424 Y43.37731
X44.92681 Y43.22633
X45.15566 Y43.11922
X45.46153 Y43.05272
X45.77943 Y43.06733
X46.02269 Y43.13504
X46.24748 Y43.25044
X46.41311 Y43.38186
X46.81781 Y42.97713
X46.81781 Y37.93061
X41.88343 Y32.99623
X41.75132 Y32.82617
X41.64665 Y32.57347
X41.61980 Y32.35980
X41.61980 Y19.01663
X36.68600 Y14.08280
X34.41710 Y14.08280
X34.30008 Y14.17643
X34.07877 Y14.29411
X33.83795 Y14.36314
X33.62980 Y14.38280
X30.94380 Y14.38280
X30.66300 Y14.34808
X30.43420 Y14.26769
X30.22628 Y14.14292
X30.10344 Y14.03749
X29.90580 Y13.78214
X29.83451 Y13.63680
X29.76582 Y13.40419
X29.74947 Y13.08174
X29.77398 Y12.92174
X29.85048 Y12.69162
X29.97174 Y12.48156
X30.19420 Y12.24755
X30.39785 Y12.11575
X30.54662 Y12.05192
X30.86102 Y11.98695
X33.62980 Y11.98281
X33.83800 Y12.00252
X34.07877 Y12.07155
X34.30008 Y12.18923
X34.41707 Y12.28283
X37.05880 Y12.28281
X37.27246 Y12.30965
X37.43873 Y12.36813
X37.59037 Y12.45789
X37.69522 Y12.54643
X43.15622 Y18.00743
X43.24482 Y18.11236
X43.36453 Y18.33639
X43.40829 Y18.50710
X43.41980 Y18.64380
X43.41982 Y31.98701
X48.35423 Y36.92144
X48.44283 Y37.02637
X48.53254 Y37.17796
X48.59098 Y37.34417
X48.61781 Y37.55781
G04 P0 ( dwell for no time -- G64 should not smooth over this point )
G00 Z5.00000 ( retract )

G00 X34.98380 Y28.42280 ( rapid move to begin. )
F300.00000
G01 Z-0.15000
G04 P0 ( dwell for no time -- G64 should not smooth over this point )
F600.00000
G01 X34.98380 Y28.42280
X34.96630 Y28.23543
X34.90371 Y28.01453
X34.74737 Y27.74376
X34.61984 Y27.60538
X34.39655 Y27.45123
X34.22375 Y27.37668
X34.04014 Y27.33541
X33.72749 Y27.33541
X33.54387 Y27.37668
X33.37108 Y27.45123
X33.11817 Y27.63500
X32.97113 Y27.81135
X32.87893 Y27.97541
X32.80133 Y28.23543
X32.78380 Y28.42280
X32.81870 Y28.69192
X32.87893 Y28.87023
X32.98383 Y29.05173
X32.98380 Y35.47781
X30.78236 Y35.49013
X30.54662 Y35.54692
X30.39785 Y35.61075
X30.13283 Y35.79523
X29.97174 Y35.97656
X29.88612 Y36.11392
X29.79427 Y36.33841
X29.74947 Y36.57674
X29.76582 Y36.89919
X29.83451 Y37.13180
X29.90580 Y37.27714
X30.04766 Y37.47379
X30.22628 Y37.63792
X30.43420 Y37.76269
X30.66300 Y37.84308
X30.94380 Y37.87780
X33.12180 Y37.87780
X33.32995 Y37.85814
X33.57077 Y37.78911
X33.79208 Y37.67143
X34.03996 Y37.44821
X34.18007 Y37.24052
X34.24809 Y37.08774
X34.31740 Y36.75502
X34.54659 Y36.52314
X34.69853 Y36.29574
X34.75700 Y36.12947
X34.78380 Y35.91580
X34.78382 Y29.05173
X34.88870 Y28.87023
X34.94892 Y28.69192
X34.98380 Y28.42280
G04 P0 ( dwell for no time -- G64 should not smooth over this point )
G00 Z5.00000 ( retract )

G00 X32.94225 Y25.90305 ( rapid move to begin. )
F300.00000
G01 Z-0.15000
G04 P0 ( dwell for no time -- G64 should not smooth over this point )
F600.00000
G01 X32.94225 Y25.90305
X32.91365 Y26.14389
X32.80151 Y26.44671
X32.66633 Y26.64808
X32.55480 Y26.76540
X32.36059 Y26.91056
X32.14100 Y27.01371
X31.90527 Y27.07051
X30.94568 Y27.08280
X30.74230 Y27.06439
X30.50857 Y26.99962
X30.29267 Y26.88913
X30.10344 Y26.73749
X29.94860 Y26.55080
X29.83451 Y26.33680
X29.76582 Y26.10419
X29.74538 Y25.86259
X29.77398 Y25.62174
X29.88612 Y25.31892
X30.02130 Y25.11755
X30.13283 Y25.00023
X30.32704 Y24.85507
X30.54662 Y24.75192
X30.78236 Y24.69513
X31.74192 Y24.68283
X31.94532 Y24.70125
X32.17905 Y24.76602
X32.39495 Y24.87651
X32.58418 Y25.02815
X32.73902 Y25.21484
X32.85312 Y25.42883
X32.92180 Y25.66144
X32.94225 Y25.90305
G04 P0 ( dwell for no time -- G64 should not smooth over this point )
G00 Z5.00000 ( retract )

G00 X32.94225 Y23.36305 ( rapid move to begin. )
F300.00000
G01 Z-0.15000
G04 P0 ( dwell for no time -- G64 should not smooth over this point )
F600.00000
G01 X32.94225 Y23.36305
X32.91365 Y23.60389
X32.80151 Y23.90671
X32.71588 Y24.04407
X32.55480 Y24.22540
X32.28977 Y24.40988
X32.06381 Y24.49792
X31.82660 Y24.53869
X29.88173 Y24.54242
X29.83334 Y24.71677
X29.74380 Y24.90054
X29.74380 Y29.61899
X30.02150 Y29.73139
X30.32518 Y29.95204
X30.51421 Y30.17502
X30.63778 Y30.39339
X30.72856 Y30.67345
X30.74225 Y30.79057
X32.12165 Y32.17002
X32.27860 Y32.37037
X32.37334 Y32.56387
X32.41317 Y32.69519
X32.44189 Y32.90865
X32.44382 Y33.16552
X32.58418 Y33.28315
X32.73902 Y33.46984
X32.85312 Y33.68383
X32.92180 Y33.91644
X32.93816 Y34.23890
X32.91365 Y34.39889
X32.83714 Y34.62902
X32.71588 Y34.83907
X32.49343 Y35.07308
X32.28977 Y35.20488
X32.14100 Y35.26871
X31.90527 Y35.32551
X31.34723 Y35.33780
X28.80380 Y35.33780
X28.51394 Y35.30077
X28.31574 Y35.23409
X28.13357 Y35.13143
X27.91206 Y34.94077
X27.78739 Y34.77291
X27.67756 Y34.54774
X27.61041 Y34.26328
X27.61041 Y34.01238
X27.65173 Y33.80745
X27.76458 Y33.53783
X27.91206 Y33.33486
X28.06598 Y33.19336
X28.31574 Y33.04157
X28.51394 Y32.97489
X28.80380 Y32.93781
X29.77817 Y32.93781
X29.19105 Y32.35069
X28.92623 Y32.29430
X28.69615 Y32.19425
X28.45460 Y32.02955
X28.25259 Y31.81825
X28.06486 Y31.49313
X28.00027 Y31.29430
X27.96527 Y31.04492
X27.83964 Y30.91658
X27.70903 Y30.74530
X27.61432 Y30.55181
X27.57449 Y30.42049
X27.54381 Y30.16781
X27.54381 Y24.49276
X27.57449 Y24.24014
X27.61432 Y24.10882
X27.70383 Y23.92510
X27.70383 Y23.81169
X27.65173 Y23.67321
X27.60820 Y23.42645
X27.61041 Y23.21738
X27.67756 Y22.93295
X27.78742 Y22.70768
X27.91206 Y22.53986
X28.06598 Y22.39836
X28.31574 Y22.24657
X28.59565 Y22.16252
X28.80380 Y22.14281
X31.78426 Y22.14486
X31.94532 Y22.16125
X32.17905 Y22.22602
X32.39495 Y22.33651
X32.58418 Y22.48815
X32.73902 Y22.67484
X32.85312 Y22.88883
X32.92180 Y23.12144
X32.94225 Y23.36305
G04 P0 ( dwell for no time -- G64 should not smooth over this point )
G00 Z5.00000 ( retract )

G00 X35.07943 Y20.71919 ( rapid move to begin. )
F300.00000
G01 Z-0.15000
G04 P0 ( dwell for no time -- G64 should not smooth over this point )
F600.00000
G01 X35.07943 Y20.71919
X35.07724 Y20.92828
X35.01009 Y21.21274
X34.90026 Y21.43791
X34.77559 Y21.60577
X34.55408 Y21.79643
X34.37191 Y21.89909
X34.09195 Y21.98314
X33.88380 Y22.00280
X30.94380 Y22.00280
X30.66300 Y21.96808
X30.50857 Y21.91962
X30.29267 Y21.80913
X30.04766 Y21.59879
X29.90580 Y21.40214
X29.80639 Y21.18088
X29.76582 Y21.02419
X29.74538 Y20.78259
X29.77398 Y20.54174
X29.85048 Y20.31162
X30.02130 Y20.03755
X30.19420 Y19.86755
X30.39785 Y19.73575
X30.62381 Y19.64771
X30.86102 Y19.60695
X33.88380 Y19.60281
X34.17372 Y19.63989
X34.37191 Y19.70657
X34.55408 Y19.80923
X34.77559 Y19.99986
X34.92307 Y20.20283
X35.01009 Y20.39295
X35.07943 Y20.71919
G04 P0 ( dwell for no time -- G64 should not smooth over this point )
G00 Z5.00000 ( retract )

G00 X36.55380 Y10.64280 ( rapid move to begin. )
F300.00000
G01 Z-0.15000
G04 P0 ( dwell for no time -- G64 should not smooth over this point )
F600.00000
G01 X36.55380 Y10.64280
X36.51237 Y10.31133
X36.43277 Y10.07339
X36.35380 Y9.93227
X36.35380 Y9.22861
X36.33653 Y9.03336
X36.27572 Y8.80638
X36.17178 Y8.59567
X36.02873 Y8.40920
X35.75865 Y8.13641
X35.63744 Y7.92386
X35.51158 Y7.77354
X34.96333 Y7.22798
X34.77689 Y7.08490
X34.56609 Y6.98094
X34.33917 Y6.92016
X34.14382 Y6.90281
X28.76197 Y6.90502
X28.59565 Y6.92252
X28.35488 Y6.99155
X28.13357 Y7.10923
X27.88572 Y7.33240
X27.76458 Y7.50283
X27.67756 Y7.69295
X27.61041 Y7.97738
X27.61041 Y8.22828
X27.65173 Y8.43321
X27.74559 Y8.66552
X27.91206 Y8.90577
X28.06598 Y9.04730
X28.31574 Y9.19909
X28.51394 Y9.26577
X28.80380 Y9.30280
X33.60874 Y9.30283
X33.68868 Y9.43603
X33.95383 Y9.72566
X33.95383 Y9.93227
X33.87486 Y10.07339
X33.79526 Y10.31133
X33.75601 Y10.60097
X33.77788 Y10.89256
X33.87486 Y11.21225
X34.04758 Y11.49825
X34.24959 Y11.70955
X34.49114 Y11.87425
X34.72121 Y11.97430
X35.04928 Y12.03732
X35.34151 Y12.02858
X35.62550 Y11.95929
X35.88895 Y11.83241
X36.05807 Y11.70953
X36.26005 Y11.49825
X36.41374 Y11.24956
X36.51237 Y10.97430
X36.55380 Y10.64280
G04 P0 ( dwell for no time -- G64 should not smooth over this point )
G00 Z5.00000 ( retract )

G00 X32.94225 Y10.66305 ( rapid move to begin. )
F300.00000
G01 Z-0.15000
G04 P0 ( dwell for no time -- G64 should not smooth over this point )
F600.00000
G01 X32.94225 Y10.66305
X32.91365 Y10.90389
X32.83714 Y11.13402
X32.66633 Y11.40808
X32.49343 Y11.57808
X32.28977 Y11.70988
X32.14100 Y11.77371
X31.90527 Y11.83051
X30.94568 Y11.84280
X30.74230 Y11.82439
X30.43420 Y11.72769
X30.29267 Y11.64913
X30.15625 Y11.54280
X26.89880 Y11.54280
X26.76210 Y11.53130
X26.59138 Y11.48753
X26.43251 Y11.41133
X26.29156 Y11.30564
X25.62743 Y10.64423
X25.49532 Y10.47417
X25.39065 Y10.22147
X25.36380 Y10.00780
X25.36380 Y6.67560
X25.15103 Y6.46283
X19.88888 Y6.46280
X19.86336 Y6.56588
X19.77664 Y6.69564
X19.64687 Y6.78236
X19.57184 Y6.80512
X17.71579 Y6.80512
X17.64075 Y6.78236
X17.51099 Y6.69564
X17.42427 Y6.56588
X17.40151 Y6.49084
X17.39382 Y4.71282
X17.42427 Y4.55976
X17.51099 Y4.42999
X17.64075 Y4.34327
X17.71579 Y4.32052
X19.49379 Y4.31282
X19.64687 Y4.34327
X19.77664 Y4.42999
X19.86336 Y4.55976
X19.88888 Y4.66283
X25.52382 Y4.66281
X25.66068 Y4.67439
X25.83129 Y4.71810
X25.99019 Y4.79433
X26.13116 Y4.90007
X26.90022 Y5.66644
X27.03233 Y5.83652
X27.13698 Y6.08917
X27.16380 Y6.30281
X27.16382 Y9.63501
X27.27162 Y9.74281
X30.15310 Y9.74283
X30.39785 Y9.57575
X30.54662 Y9.51192
X30.78236 Y9.45513
X31.74192 Y9.44283
X31.94532 Y9.46125
X32.17905 Y9.52602
X32.39495 Y9.63651
X32.63996 Y9.84684
X32.78182 Y10.04349
X32.88124 Y10.26475
X32.92180 Y10.42144
X32.94225 Y10.66305
G04 P0 ( dwell for no time -- G64 should not smooth over this point )
G00 Z5.00000 ( retract )

G00 X25.32380 Y7.30281 ( rapid move to begin. )
F300.00000
G01 Z-0.15000
G04 P0 ( dwell for no time -- G64 should not smooth over this point )
F600.00000
G01 X25.32380 Y7.30281
X25.31613 Y8.98086
X25.29337 Y9.05589
X25.20665 Y9.18566
X25.07688 Y9.27237
X25.00185 Y9.29513
X22.44577 Y9.29513
X22.37074 Y9.27237
X22.24097 Y9.18566
X22.19124 Y9.12505
X22.13815 Y9.00283
X19.50687 Y9.00280
X19.28482 Y9.17430
X18.97878 Y9.30562
X18.66412 Y9.35228
X18.43219 Y9.33331
X18.11451 Y9.23366
X17.89770 Y9.10395
X17.71147 Y8.93328
X17.60618 Y8.79729
X17.48762 Y8.57413
X17.40415 Y8.25178
X17.39953 Y7.99917
X17.44586 Y7.75091
X17.54126 Y7.51690
X17.68175 Y7.30697
X17.86166 Y7.12958
X18.07360 Y6.99204
X18.30885 Y6.90001
X18.53753 Y6.85772
X18.85543 Y6.87233
X19.09869 Y6.94004
X19.32348 Y7.05544
X19.50773 Y7.20281
X22.13815 Y7.20281
X22.19124 Y7.08058
X22.24097 Y7.01998
X22.37074 Y6.93326
X22.44577 Y6.91050
X24.92380 Y6.90281
X25.07688 Y6.93326
X25.20665 Y7.01998
X25.29337 Y7.14975
X25.32380 Y7.30281
G04 P0 ( dwell for no time -- G64 should not smooth over this point )
G00 Z5.00000 ( retract )

G00 X17.35218 Y5.58559 ( rapid move to begin. )
F300.00000
G01 Z-0.15000
G04 P0 ( dwell for no time -- G64 should not smooth over this point )
F600.00000
G01 X17.35218 Y5.58559
X17.32203 Y5.83646
X17.24205 Y6.07601
X17.06588 Y6.35866
X16.88597 Y6.53606
X16.67403 Y6.67360
X16.51597 Y6.74142
X16.27032 Y6.80024
X16.12412 Y6.81228
X15.89219 Y6.79331
X15.64894 Y6.72559
X15.42415 Y6.61020
X15.23990 Y6.46280
X12.03165 Y6.46283
X11.92382 Y6.57065
X11.92382 Y7.31157
X12.02235 Y7.43918
X12.13312 Y7.64883
X12.20376 Y7.88939
X12.22159 Y8.17410
X12.18234 Y8.41507
X12.11272 Y8.60547
X12.04869 Y8.72584
X11.96357 Y8.84870
X11.82426 Y8.99610
X11.59083 Y9.16011
X11.29187 Y9.27220
X11.02380 Y9.30280
X7.21380 Y9.30280
X7.01230 Y9.28439
X6.69188 Y9.18205
X6.49628 Y9.06292
X6.37344 Y8.95749
X6.19206 Y8.73199
X6.06379 Y8.44240
X6.02152 Y8.23781
X6.01942 Y7.98817
X6.05536 Y7.79033
X6.14258 Y7.56237
X6.27420 Y7.35676
X6.41327 Y7.20964
X6.61050 Y7.06610
X6.74705 Y6.99780
X6.94593 Y6.93344
X7.19351 Y6.90334
X10.12380 Y6.90281
X10.13538 Y6.06100
X10.17910 Y5.89039
X10.25532 Y5.73149
X10.38743 Y5.56143
X11.05151 Y4.90007
X11.27892 Y4.74813
X11.44519 Y4.68965
X11.65880 Y4.66281
X15.24076 Y4.66283
X15.46281 Y4.49133
X15.76885 Y4.36001
X16.08351 Y4.31335
X16.31543 Y4.33233
X16.63311 Y4.43197
X16.84992 Y4.56169
X17.03616 Y4.73235
X17.14144 Y4.86834
X17.26001 Y5.09151
X17.33120 Y5.33380
X17.35218 Y5.58559
G04 P0 ( dwell for no time -- G64 should not smooth over this point )
G00 Z5.00000 ( retract )

G00 X17.35218 Y8.12559 ( rapid move to begin. )
F300.00000
G01 Z-0.15000
G04 P0 ( dwell for no time -- G64 should not smooth over this point )
F600.00000
G01 X17.35218 Y8.12559
X17.32203 Y8.37646
X17.24205 Y8.61601
X17.06588 Y8.89866
X16.88597 Y9.07606
X16.74482 Y9.17430
X16.43878 Y9.30562
X16.12412 Y9.35228
X15.81302 Y9.31705
X15.57451 Y9.23366
X15.42415 Y9.15020
X15.23990 Y9.00280
X14.50464 Y9.00280
X12.19916 Y11.30559
X12.05819 Y11.41133
X11.86258 Y11.49868
X11.74224 Y11.60371
X11.59083 Y11.70011
X11.29187 Y11.81220
X11.02380 Y11.84280
X7.21380 Y11.84280
X7.01230 Y11.82439
X6.69188 Y11.72205
X6.49628 Y11.60292
X6.37344 Y11.49749
X6.19206 Y11.27199
X6.06379 Y10.98240
X6.02152 Y10.77781
X6.01606 Y10.57128
X6.05536 Y10.33033
X6.12488 Y10.14029
X6.24911 Y9.93018
X6.33984 Y9.82134
X6.49559 Y9.68180
X6.70984 Y9.55406
X6.94593 Y9.47344
X7.21380 Y9.44281
X11.02380 Y9.44281
X11.22532 Y9.46125
X11.44138 Y9.52048
X13.49545 Y7.46643
X13.66550 Y7.33433
X13.91821 Y7.22965
X14.13182 Y7.20281
X15.24076 Y7.20283
X15.46281 Y7.03133
X15.76885 Y6.90001
X16.08351 Y6.85335
X16.39460 Y6.88858
X16.63311 Y6.97197
X16.78348 Y7.05544
X16.98043 Y7.21373
X17.14144 Y7.40834
X17.28807 Y7.70730
X17.33120 Y7.87380
X17.35218 Y8.12559
G04 P0 ( dwell for no time -- G64 should not smooth over this point )
G00 Z5.00000 ( retract )

G00 X17.35218 Y10.66559 ( rapid move to begin. )
F300.00000
G01 Z-0.15000
G04 P0 ( dwell for no time -- G64 should not smooth over this point )
F600.00000
G01 X17.35218 Y10.66559
X17.30177 Y10.99472
X17.24205 Y11.15601
X17.11538 Y11.37468
X16.88597 Y11.61606
X16.67403 Y11.75360
X16.51597 Y11.82142
X16.27032 Y11.88024
X16.12412 Y11.89228
X15.81302 Y11.85705
X15.57451 Y11.77366
X15.42415 Y11.69020
X15.23990 Y11.54280
X15.20662 Y11.54280
X12.93022 Y13.81923
X12.76017 Y13.95133
X12.50746 Y14.05601
X12.29380 Y14.08280
X11.81658 Y14.08280
X11.62700 Y14.21961
X11.49047 Y14.28791
X11.29187 Y14.35220
X11.12504 Y14.37818
X7.17334 Y14.38077
X7.01230 Y14.36439
X6.77857 Y14.29962
X6.47999 Y14.13089
X6.31766 Y13.97879
X6.21860 Y13.85080
X6.10451 Y13.63680
X6.06379 Y13.52240
X6.02152 Y13.31781
X6.01942 Y13.06817
X6.06897 Y12.82365
X6.16801 Y12.59467
X6.31230 Y12.39114
X6.49559 Y12.22180
X6.70984 Y12.09406
X6.94593 Y12.01344
X7.21380 Y11.98281
X11.06566 Y11.98502
X11.23200 Y12.00252
X11.47277 Y12.07155
X11.69408 Y12.18923
X11.81247 Y12.28283
X11.92103 Y12.28281
X14.19743 Y10.00643
X14.30228 Y9.91789
X14.52638 Y9.79810
X14.69700 Y9.75439
X15.24076 Y9.74283
X15.46281 Y9.57133
X15.76885 Y9.44001
X16.08351 Y9.39335
X16.31543 Y9.41233
X16.63311 Y9.51197
X16.84992 Y9.64169
X17.03616 Y9.81235
X17.18429 Y10.01710
X17.26001 Y10.17151
X17.33120 Y10.41380
X17.35218 Y10.66559
G04 P0 ( dwell for no time -- G64 should not smooth over this point )
G00 Z5.00000 ( retract )

G00 X17.35218 Y13.20559 ( rapid move to begin. )
F300.00000
G01 Z-0.15000
G04 P0 ( dwell for no time -- G64 should not smooth over this point )
F600.00000
G01 X17.35218 Y13.20559
X17.32203 Y13.45646
X17.24205 Y13.69601
X17.11538 Y13.91468
X17.00382 Y14.04397
X17.00189 Y15.12700
X16.97700 Y15.30147
X16.91853 Y15.46774
X16.82877 Y15.61938
X16.74022 Y15.72423
X16.10522 Y16.35923
X15.93517 Y16.49133
X15.68246 Y16.59601
X15.46880 Y16.62280
X11.81658 Y16.62280
X11.62700 Y16.75961
X11.49047 Y16.82791
X11.29187 Y16.89220
X11.04412 Y16.92229
X7.17334 Y16.92077
X7.01230 Y16.90439
X6.77857 Y16.83962
X6.49628 Y16.68292
X6.37344 Y16.57749
X6.21860 Y16.39080
X6.10451 Y16.17680
X6.06379 Y16.06240
X6.02152 Y15.85781
X6.02460 Y15.56797
X6.08228 Y15.32540
X6.18891 Y15.09984
X6.33984 Y14.90134
X6.52853 Y14.73838
X6.74705 Y14.61780
X6.87278 Y14.57264
X7.07095 Y14.53175
X11.02380 Y14.52281
X11.23200 Y14.54252
X11.47277 Y14.61155
X11.69408 Y14.72923
X11.81247 Y14.82283
X15.09603 Y14.82281
X15.20380 Y14.71503
X15.20380 Y14.04732
X15.02333 Y13.80853
X14.91955 Y13.57833
X14.86415 Y13.33178
X14.85953 Y13.07917
X14.88559 Y12.90917
X15.00126 Y12.59690
X15.14175 Y12.38697
X15.26024 Y12.26231
X15.53360 Y12.07204
X15.76885 Y11.98001
X16.08351 Y11.93335
X16.31543 Y11.95233
X16.63311 Y12.05197
X16.84992 Y12.18169
X17.03616 Y12.35235
X17.18429 Y12.55710
X17.26001 Y12.71151
X17.33120 Y12.95380
X17.35218 Y13.20559
G04 P0 ( dwell for no time -- G64 should not smooth over this point )
G00 Z5.00000 ( retract )

G00 X25.32225 Y10.66305 ( rapid move to begin. )
F300.00000
G01 Z-0.15000
G04 P0 ( dwell for no time -- G64 should not smooth over this point )
F600.00000
G01 X25.32225 Y10.66305
X25.29365 Y10.90389
X25.21714 Y11.13402
X25.04633 Y11.40808
X24.87343 Y11.57808
X24.66977 Y11.70988
X24.52100 Y11.77371
X24.28527 Y11.83051
X23.32568 Y11.84280
X23.12230 Y11.82439
X22.81420 Y11.72769
X22.67267 Y11.64913
X22.53625 Y11.54280
X19.50687 Y11.54280
X19.28482 Y11.71430
X19.05597 Y11.82142
X18.81032 Y11.88024
X18.66412 Y11.89228
X18.43219 Y11.87331
X18.18894 Y11.80559
X17.96415 Y11.69020
X17.76720 Y11.53191
X17.60618 Y11.33729
X17.48762 Y11.11413
X17.41642 Y10.87184
X17.39544 Y10.62005
X17.42559 Y10.36917
X17.50558 Y10.12962
X17.63224 Y9.91095
X17.80024 Y9.72231
X18.00281 Y9.57133
X18.23166 Y9.46422
X18.47730 Y9.40539
X18.62351 Y9.39335
X18.85543 Y9.41233
X19.09869 Y9.48004
X19.32348 Y9.59544
X19.50773 Y9.74281
X22.53310 Y9.74283
X22.77785 Y9.57575
X22.92662 Y9.51192
X23.16236 Y9.45513
X24.12192 Y9.44283
X24.32532 Y9.46125
X24.55905 Y9.52602
X24.77495 Y9.63651
X25.01996 Y9.84684
X25.16182 Y10.04349
X25.26124 Y10.26475
X25.30180 Y10.42144
X25.32225 Y10.66305
G04 P0 ( dwell for no time -- G64 should not smooth over this point )
G00 Z5.00000 ( retract )

G00 X25.32225 Y13.20305 ( rapid move to begin. )
F300.00000
G01 Z-0.15000
G04 P0 ( dwell for no time -- G64 should not smooth over this point )
F600.00000
G01 X25.32225 Y13.20305
X25.29365 Y13.44389
X25.21714 Y13.67402
X25.04633 Y13.94808
X24.87343 Y14.11808
X24.66977 Y14.24988
X24.52100 Y14.31371
X24.28527 Y14.37051
X23.32568 Y14.38280
X23.12230 Y14.36439
X22.81420 Y14.26769
X22.67267 Y14.18913
X22.53625 Y14.08280
X19.50687 Y14.08280
X19.28482 Y14.25430
X19.05597 Y14.36142
X18.81032 Y14.42024
X18.66412 Y14.43228
X18.43219 Y14.41331
X18.18894 Y14.34559
X17.96415 Y14.23020
X17.76720 Y14.07191
X17.60618 Y13.87729
X17.48762 Y13.65413
X17.41642 Y13.41184
X17.39544 Y13.16005
X17.42559 Y12.90917
X17.50558 Y12.66962
X17.63224 Y12.45095
X17.80024 Y12.26231
X18.00281 Y12.11133
X18.23166 Y12.00422
X18.47730 Y11.94539
X18.62351 Y11.93335
X18.85543 Y11.95233
X19.09869 Y12.02004
X19.32348 Y12.13544
X19.50773 Y12.28281
X22.53310 Y12.28283
X22.77785 Y12.11575
X22.92662 Y12.05192
X23.16236 Y11.99513
X24.12192 Y11.98283
X24.32532 Y12.00125
X24.55905 Y12.06602
X24.77495 Y12.17651
X25.01996 Y12.38684
X25.16182 Y12.58349
X25.26124 Y12.80475
X25.30180 Y12.96144
X25.32225 Y13.20305
G04 P0 ( dwell for no time -- G64 should not smooth over this point )
G00 Z5.00000 ( retract )

G00 X25.32225 Y15.74305 ( rapid move to begin. )
F300.00000
G01 Z-0.15000
G04 P0 ( dwell for no time -- G64 should not smooth over this point )
F600.00000
G01 X25.32225 Y15.74305
X25.29365 Y15.98389
X25.21714 Y16.21402
X25.04633 Y16.48808
X24.87343 Y16.65808
X24.66977 Y16.78988
X24.52100 Y16.85371
X24.28527 Y16.91051
X23.32568 Y16.92280
X23.12230 Y16.90439
X22.81420 Y16.80769
X22.67267 Y16.72913
X22.53625 Y16.62280
X19.70666 Y16.62280
X19.54380 Y16.78567
X19.54382 Y17.01775
X19.64687 Y17.04327
X19.77664 Y17.12999
X19.86336 Y17.25976
X19.89378 Y17.41282
X19.89378 Y19.11279
X19.86336 Y19.26588
X19.77664 Y19.39564
X19.64687 Y19.48236
X19.49379 Y19.51279
X17.79381 Y19.51279
X17.64075 Y19.48236
X17.57159 Y19.44538
X17.51099 Y19.39564
X17.42427 Y19.26588
X17.39382 Y19.11279
X17.40151 Y17.33479
X17.42427 Y17.25976
X17.51099 Y17.12999
X17.64075 Y17.04327
X17.74380 Y17.01775
X17.74576 Y16.37355
X17.79910 Y16.10540
X17.87532 Y15.94650
X18.00743 Y15.77645
X18.69744 Y15.08643
X18.80230 Y14.99789
X18.95393 Y14.90813
X19.12020 Y14.84965
X19.33382 Y14.82281
X22.53310 Y14.82283
X22.77785 Y14.65575
X22.92662 Y14.59192
X23.16236 Y14.53513
X24.12192 Y14.52283
X24.32532 Y14.54125
X24.55905 Y14.60602
X24.77495 Y14.71651
X25.01996 Y14.92684
X25.16182 Y15.12349
X25.26124 Y15.34475
X25.30180 Y15.50144
X25.32225 Y15.74305
G04 P0 ( dwell for no time -- G64 should not smooth over this point )
G00 Z5.00000 ( retract )

G00 X21.82866 Y22.70641 ( rapid move to begin. )
F300.00000
G01 Z-0.15000
G04 P0 ( dwell for no time -- G64 should not smooth over this point )
F600.00000
G01 X21.82866 Y22.70641
X22.70691 Y21.82815
X22.88857 Y21.91962
X23.12230 Y21.98439
X23.32568 Y22.00280
X24.28527 Y21.99051
X24.52100 Y21.93371
X24.74059 Y21.83056
X24.93480 Y21.68540
X25.04633 Y21.56808
X25.18151 Y21.36671
X25.27335 Y21.14222
X25.31816 Y20.90390
X25.30180 Y20.58144
X25.23312 Y20.34883
X25.16182 Y20.20349
X24.96418 Y19.94815
X24.84135 Y19.84271
X24.63342 Y19.71795
X24.32532 Y19.62125
X24.12192 Y19.60283
X23.24102 Y19.60695
X22.92662 Y19.67192
X22.70704 Y19.77507
X22.53310 Y19.90283
X22.24580 Y19.92965
X22.07953 Y19.98813
X21.92789 Y20.07789
X21.82304 Y20.16643
X20.55022 Y21.43923
X22.70330 Y19.28615
X22.88857 Y19.37962
X23.12230 Y19.44439
X23.32568 Y19.46280
X24.20660 Y19.45869
X24.44381 Y19.41792
X24.66977 Y19.32988
X24.93480 Y19.14540
X25.09588 Y18.96407
X25.18151 Y18.82671
X25.27335 Y18.60222
X25.31816 Y18.36390
X25.30180 Y18.04144
X25.23312 Y17.80883
X25.16182 Y17.66349
X25.01996 Y17.46684
X24.84135 Y17.30271
X24.63342 Y17.17795
X24.40462 Y17.09755
X24.16426 Y17.06486
X23.16236 Y17.07513
X22.92662 Y17.13192
X22.77785 Y17.19575
X22.53310 Y17.36283
X22.31700 Y17.37439
X22.07392 Y17.44813
X21.92228 Y17.53789
X21.81743 Y17.62643
X19.54103 Y19.90281
X19.50773 Y19.90281
X19.32348 Y19.75544
X19.09869 Y19.64004
X18.85543 Y19.57233
X18.62351 Y19.55335
X18.47730 Y19.56539
X18.23166 Y19.62422
X18.00281 Y19.73133
X17.80024 Y19.88231
X17.68175 Y20.00697
X17.54126 Y20.21690
X17.44586 Y20.45091
X17.39953 Y20.69917
X17.40415 Y20.95178
X17.48762 Y21.27413
X17.60618 Y21.49729
X17.76720 Y21.69191
X17.96415 Y21.85020
X18.18894 Y21.96559
X18.35302 Y22.01705
X18.60329 Y22.05073
X18.75010 Y22.04791
X18.97878 Y22.00562
X19.28482 Y21.87430
X19.50687 Y21.70280
X19.91380 Y21.70280
X20.12746 Y21.67601
X20.38017 Y21.57133
X20.55022 Y21.43923
X19.54664 Y22.44281
X19.50773 Y22.44281
X19.32348 Y22.29544
X19.09869 Y22.18004
X18.85543 Y22.11233
X18.53753 Y22.09772
X18.23166 Y22.16422
X18.00281 Y22.27133
X17.80024 Y22.42231
X17.63224 Y22.61095
X17.50558 Y22.82962
X17.42559 Y23.06917
X17.39953 Y23.23917
X17.40415 Y23.49178
X17.45955 Y23.73833
X17.60618 Y24.03729
X17.76720 Y24.23191
X17.96415 Y24.39020
X18.18894 Y24.50559
X18.43219 Y24.57331
X18.66412 Y24.59228
X18.81032 Y24.58024
X19.05597 Y24.52142
X19.21403 Y24.45360
X19.42597 Y24.31606
X19.50687 Y24.24280
X20.05617 Y24.23130
X20.29935 Y24.15754
X20.45098 Y24.06777
X20.55584 Y23.97923
X21.82866 Y22.70641
X21.93348 Y22.61789
X22.08512 Y22.52813
X22.25139 Y22.46965
X22.53310 Y22.44283
X22.77785 Y22.27575
X22.92662 Y22.21192
X23.16236 Y22.15513
X24.16426 Y22.14486
X24.40462 Y22.17755
X24.63342 Y22.25795
X24.84135 Y22.38271
X25.01996 Y22.54684
X25.16182 Y22.74349
X25.23312 Y22.88883
X25.30180 Y23.12144
X25.31816 Y23.44390
X25.29365 Y23.60389
X25.21714 Y23.83402
X25.09588 Y24.04407
X24.87343 Y24.27808
X24.66977 Y24.40988
X24.52100 Y24.47371
X24.20660 Y24.53869
X23.32568 Y24.54280
X23.12230 Y24.52439
X22.88857 Y24.45962
X22.71052 Y24.37013
X20.56142 Y26.51923
X20.45657 Y26.60777
X20.30493 Y26.69754
X20.06175 Y26.77130
X19.50687 Y26.78280
X19.28482 Y26.95430
X19.05597 Y27.06142
X18.81032 Y27.12024
X18.66412 Y27.13228
X18.43219 Y27.11331
X18.18894 Y27.04559
X17.96415 Y26.93020
X17.76720 Y26.77191
X17.60618 Y26.57729
X17.48762 Y26.35413
X17.41642 Y26.11184
X17.39544 Y25.86005
X17.42559 Y25.60917
X17.50558 Y25.36962
X17.63224 Y25.15095
X17.80024 Y24.96231
X18.00281 Y24.81133
X18.23166 Y24.70422
X18.47730 Y24.64539
X18.62351 Y24.63335
X18.85543 Y24.65233
X19.09869 Y24.72004
X19.32348 Y24.83544
X19.50773 Y24.98281
X19.55223 Y24.98281
X20.55584 Y23.97923
G04 P0 ( dwell for no time -- G64 should not smooth over this point )
G00 Z5.00000 ( retract )

G00 X17.35218 Y18.28559 ( rapid move to begin. )
F300.00000
G01 Z-0.15000
G04 P0 ( dwell for no time -- G64 should not smooth over this point )
F600.00000
G01 X17.35218 Y18.28559
X17.32203 Y18.53646
X17.24205 Y18.77601
X17.11538 Y18.99468
X16.94738 Y19.18333
X16.74482 Y19.33430
X16.51597 Y19.44142
X16.27032 Y19.50024
X16.12412 Y19.51228
X15.89219 Y19.49331
X15.64894 Y19.42559
X15.42415 Y19.31020
X15.23990 Y19.16280
X11.81658 Y19.16280
X11.62700 Y19.29961
X11.49047 Y19.36791
X11.29187 Y19.43220
X11.04412 Y19.46229
X7.21380 Y19.46280
X7.01230 Y19.44439
X6.77857 Y19.37962
X6.56267 Y19.26913
X6.31766 Y19.05879
X6.17580 Y18.86214
X6.08581 Y18.67202
X6.02638 Y18.43530
X6.01500 Y18.23311
X6.04576 Y17.99108
X6.08228 Y17.86540
X6.16801 Y17.67467
X6.31230 Y17.47114
X6.44471 Y17.34200
X6.64697 Y17.20543
X6.87278 Y17.11264
X7.07095 Y17.07175
X11.02380 Y17.06281
X11.23200 Y17.08252
X11.47277 Y17.15155
X11.69408 Y17.26923
X11.81247 Y17.36283
X15.24076 Y17.36283
X15.46281 Y17.19133
X15.69166 Y17.08422
X15.93730 Y17.02539
X16.08351 Y17.01335
X16.31543 Y17.03233
X16.55869 Y17.10004
X16.78348 Y17.21544
X16.98043 Y17.37373
X17.14144 Y17.56834
X17.26001 Y17.79151
X17.33120 Y18.03380
X17.35218 Y18.28559
G04 P0 ( dwell for no time -- G64 should not smooth over this point )
G00 Z5.00000 ( retract )

G00 X17.35218 Y20.82559 ( rapid move to begin. )
F300.00000
G01 Z-0.15000
G04 P0 ( dwell for no time -- G64 should not smooth over this point )
F600.00000
G01 X17.35218 Y20.82559
X17.32203 Y21.07646
X17.24205 Y21.31601
X17.11538 Y21.53468
X16.94738 Y21.72333
X16.74482 Y21.87430
X16.51597 Y21.98142
X16.27032 Y22.04024
X16.12412 Y22.05228
X15.89219 Y22.03331
X15.64894 Y21.96559
X15.42415 Y21.85020
X15.23990 Y21.70280
X11.81658 Y21.70280
X11.62700 Y21.83961
X11.49047 Y21.90791
X11.29187 Y21.97220
X11.04412 Y22.00229
X7.21380 Y22.00280
X7.01230 Y21.98439
X6.77857 Y21.91962
X6.56267 Y21.80913
X6.31766 Y21.59879
X6.17580 Y21.40214
X6.08581 Y21.21202
X6.02638 Y20.97530
X6.01500 Y20.77311
X6.04576 Y20.53108
X6.08228 Y20.40540
X6.16801 Y20.21467
X6.31230 Y20.01114
X6.44471 Y19.88200
X6.64697 Y19.74543
X6.87278 Y19.65264
X7.07095 Y19.61175
X11.02380 Y19.60281
X11.23200 Y19.62252
X11.47277 Y19.69155
X11.69408 Y19.80923
X11.81247 Y19.90283
X15.24076 Y19.90283
X15.46281 Y19.73133
X15.69166 Y19.62422
X15.93730 Y19.56539
X16.08351 Y19.55335
X16.31543 Y19.57233
X16.55869 Y19.64004
X16.78348 Y19.75544
X16.98043 Y19.91373
X17.14144 Y20.10834
X17.26001 Y20.33151
X17.33120 Y20.57380
X17.35218 Y20.82559
G04 P0 ( dwell for no time -- G64 should not smooth over this point )
G00 Z5.00000 ( retract )

G00 X17.35218 Y23.36559 ( rapid move to begin. )
F300.00000
G01 Z-0.15000
G04 P0 ( dwell for no time -- G64 should not smooth over this point )
F600.00000
G01 X17.35218 Y23.36559
X17.32203 Y23.61646
X17.24205 Y23.85601
X17.11538 Y24.07468
X16.94738 Y24.26333
X16.74482 Y24.41430
X16.51597 Y24.52142
X16.27032 Y24.58024
X16.12412 Y24.59228
X15.89219 Y24.57331
X15.64894 Y24.50559
X15.42415 Y24.39020
X15.23990 Y24.24280
X11.81658 Y24.24280
X11.62700 Y24.37961
X11.49047 Y24.44791
X11.29187 Y24.51220
X11.04412 Y24.54229
X7.21380 Y24.54280
X7.01230 Y24.52439
X6.77857 Y24.45962
X6.56267 Y24.34913
X6.31766 Y24.13879
X6.17580 Y23.94214
X6.08581 Y23.75202
X6.02638 Y23.51530
X6.01500 Y23.31311
X6.04576 Y23.07108
X6.08228 Y22.94540
X6.16801 Y22.75467
X6.31230 Y22.55114
X6.44471 Y22.42200
X6.64697 Y22.28543
X6.87278 Y22.19264
X7.07095 Y22.15175
X11.02380 Y22.14281
X11.23200 Y22.16252
X11.47277 Y22.23155
X11.69408 Y22.34923
X11.81247 Y22.44283
X15.24076 Y22.44283
X15.46281 Y22.27133
X15.69166 Y22.16422
X15.93730 Y22.10539
X16.08351 Y22.09335
X16.31543 Y22.11233
X16.55869 Y22.18004
X16.78348 Y22.29544
X16.98043 Y22.45373
X17.14144 Y22.64834
X17.26001 Y22.87151
X17.33120 Y23.11380
X17.35218 Y23.36559
G04 P0 ( dwell for no time -- G64 should not smooth over this point )
G00 Z5.00000 ( retract )

G00 X17.35218 Y25.90559 ( rapid move to begin. )
F300.00000
G01 Z-0.15000
G04 P0 ( dwell for no time -- G64 should not smooth over this point )
F600.00000
G01 X17.35218 Y25.90559
X17.32203 Y26.15646
X17.24205 Y26.39601
X17.11538 Y26.61468
X16.94738 Y26.80333
X16.74482 Y26.95430
X16.51597 Y27.06142
X16.27032 Y27.12024
X16.12412 Y27.13228
X15.89219 Y27.11331
X15.64894 Y27.04559
X15.42415 Y26.93020
X15.23990 Y26.78280
X11.81658 Y26.78280
X11.62700 Y26.91961
X11.49047 Y26.98791
X11.29187 Y27.05220
X11.04412 Y27.08229
X7.21380 Y27.08280
X7.01230 Y27.06439
X6.77857 Y26.99962
X6.56267 Y26.88913
X6.31766 Y26.67879
X6.17580 Y26.48214
X6.08581 Y26.29202
X6.02638 Y26.05530
X6.01500 Y25.85311
X6.04576 Y25.61108
X6.08228 Y25.48540
X6.16801 Y25.29467
X6.31230 Y25.09114
X6.44471 Y24.96200
X6.64697 Y24.82543
X6.87278 Y24.73264
X7.07095 Y24.69175
X11.02380 Y24.68281
X11.23200 Y24.70252
X11.47277 Y24.77155
X11.69408 Y24.88923
X11.81247 Y24.98283
X15.24076 Y24.98283
X15.46281 Y24.81133
X15.69166 Y24.70422
X15.93730 Y24.64539
X16.08351 Y24.63335
X16.31543 Y24.65233
X16.55869 Y24.72004
X16.78348 Y24.83544
X16.98043 Y24.99373
X17.14144 Y25.18834
X17.26001 Y25.41151
X17.33120 Y25.65380
X17.35218 Y25.90559
G04 P0 ( dwell for no time -- G64 should not smooth over this point )
G00 Z5.00000 ( retract )

G00 X22.28382 Y28.29580 ( rapid move to begin. )
F300.00000
G01 Z-0.15000
G04 P0 ( dwell for no time -- G64 should not smooth over this point )
F600.00000
G01 X22.28382 Y28.29580
X22.26632 Y28.10843
X22.20374 Y27.88753
X22.04740 Y27.61676
X21.91987 Y27.47838
X21.76891 Y27.36601
X21.48332 Y27.23883
X21.29881 Y27.20185
X21.02751 Y27.20841
X20.80478 Y27.26469
X20.67110 Y27.32423
X20.55772 Y27.39583
X19.46082 Y27.39581
X19.32401 Y27.40739
X19.15340 Y27.45110
X18.92930 Y27.57089
X18.82444 Y27.65943
X18.00743 Y28.47645
X17.87532 Y28.64650
X17.79910 Y28.80540
X17.74576 Y29.07355
X17.74380 Y29.71775
X17.64075 Y29.74327
X17.51099 Y29.82999
X17.42427 Y29.95976
X17.40151 Y30.03479
X17.39382 Y31.81279
X17.42427 Y31.96588
X17.46125 Y32.03504
X17.51099 Y32.09564
X17.64075 Y32.18236
X17.79381 Y32.21279
X19.49379 Y32.21279
X19.57184 Y32.20512
X19.71604 Y32.14538
X19.77664 Y32.09564
X19.86336 Y31.96588
X19.89378 Y31.81279
X19.89378 Y30.11282
X19.86336 Y29.95976
X19.77664 Y29.82999
X19.64687 Y29.74327
X19.54382 Y29.71775
X19.54382 Y29.48567
X19.83366 Y29.19583
X20.55772 Y29.19580
X20.67110 Y29.26741
X20.84390 Y29.34195
X21.06886 Y29.38978
X21.29881 Y29.38978
X21.56289 Y29.32694
X21.69658 Y29.26741
X21.88730 Y29.13962
X22.09652 Y28.90728
X22.18873 Y28.74323
X22.24895 Y28.56492
X22.28382 Y28.29580
G04 P0 ( dwell for no time -- G64 should not smooth over this point )
G00 Z5.00000 ( retract )

G00 X17.35218 Y30.98559 ( rapid move to begin. )
F300.00000
G01 Z-0.15000
G04 P0 ( dwell for no time -- G64 should not smooth over this point )
F600.00000
G01 X17.35218 Y30.98559
X17.32203 Y31.23646
X17.24205 Y31.47601
X17.06588 Y31.75866
X16.88597 Y31.93606
X16.67403 Y32.07360
X16.43878 Y32.16562
X16.12412 Y32.21228
X15.81302 Y32.17705
X15.57451 Y32.09366
X15.42415 Y32.01020
X15.22720 Y31.85191
X15.02333 Y31.58853
X14.94762 Y31.43413
X14.87642 Y31.19184
X14.85953 Y30.85917
X14.90586 Y30.61091
X15.00126 Y30.37690
X15.09224 Y30.23095
X15.20380 Y30.10167
X15.20380 Y29.43063
X15.09600 Y29.32283
X11.95974 Y29.32280
X11.75283 Y29.49733
X11.55258 Y29.61043
X11.29408 Y29.69440
X11.02380 Y29.72280
X7.21380 Y29.72280
X6.98492 Y29.70096
X6.68507 Y29.61043
X6.48482 Y29.49733
X6.24776 Y29.29270
X6.11080 Y29.10794
X5.97745 Y28.82456
X5.92752 Y28.60005
X5.91876 Y28.32875
X5.96663 Y28.06157
X6.11080 Y27.73772
X6.24776 Y27.55296
X6.41721 Y27.39746
X6.72416 Y27.22022
X6.98487 Y27.14470
X7.21380 Y27.12281
X11.02380 Y27.12281
X11.33454 Y27.16208
X11.55258 Y27.23523
X11.75283 Y27.34833
X11.95971 Y27.52283
X15.46880 Y27.52281
X15.68246 Y27.54965
X15.93517 Y27.65433
X16.10522 Y27.78643
X16.74022 Y28.42143
X16.82882 Y28.52636
X16.91853 Y28.67795
X16.97698 Y28.84417
X17.00189 Y29.01864
X17.00382 Y30.09832
X17.14144 Y30.26834
X17.26001 Y30.49151
X17.33120 Y30.73380
X17.35218 Y30.98559
G04 P0 ( dwell for no time -- G64 should not smooth over this point )
G00 Z5.00000 ( retract )

G00 X14.85887 Y32.13875 ( rapid move to begin. )
F300.00000
G01 Z-0.15000
G04 P0 ( dwell for no time -- G64 should not smooth over this point )
F600.00000
G01 X14.85887 Y32.13875
X14.85013 Y32.41005
X14.80020 Y32.63456
X14.70865 Y32.84553
X14.53151 Y33.10072
X14.29283 Y33.30733
X14.06126 Y33.43245
X12.97129 Y34.51936
X12.80741 Y34.64923
X12.62212 Y34.74608
X12.34158 Y34.82808
X12.13289 Y34.84118
X11.88422 Y34.81065
X11.59306 Y34.70280
X11.51265 Y34.70280
X11.42555 Y34.73920
X11.20104 Y34.78914
X10.92974 Y34.79787
X10.66256 Y34.75002
X10.53503 Y34.70283
X10.22380 Y34.70280
X10.07074 Y34.67237
X9.94097 Y34.58566
X9.85426 Y34.45589
X9.82380 Y34.30280
X9.82380 Y33.99925
X9.74570 Y33.73179
X9.72380 Y33.50280
X9.72380 Y31.02282
X9.74570 Y30.79389
X9.82380 Y30.52643
X9.83150 Y30.08478
X9.85426 Y30.00975
X9.94097 Y29.87998
X10.07074 Y29.79326
X10.22380 Y29.76281
X10.72291 Y29.76281
X10.92974 Y29.72778
X11.11788 Y29.72778
X11.32474 Y29.76281
X11.82380 Y29.76281
X11.90185 Y29.77050
X11.99268 Y29.80172
X12.18936 Y29.76885
X12.43985 Y29.77322
X12.76207 Y29.85956
X12.98123 Y29.98099
X13.11122 Y30.08625
X14.06215 Y31.03408
X14.29283 Y31.15833
X14.52989 Y31.36296
X14.66685 Y31.54772
X14.78518 Y31.79201
X14.85887 Y32.13875
G04 P0 ( dwell for no time -- G64 should not smooth over this point )
G00 Z5.00000 ( retract )

G00 X14.77452 Y35.40626 ( rapid move to begin. )
F300.00000
G01 Z-0.15000
G04 P0 ( dwell for no time -- G64 should not smooth over this point )
F600.00000
G01 X14.77452 Y35.40626
X15.55689 Y34.62388
X15.81302 Y34.71705
X16.06329 Y34.75073
X16.21010 Y34.74791
X16.43878 Y34.70562
X16.74482 Y34.57430
X16.94738 Y34.42333
X17.11538 Y34.23468
X17.24205 Y34.01601
X17.32203 Y33.77646
X17.34810 Y33.60646
X17.34347 Y33.35386
X17.28807 Y33.10730
X17.18429 Y32.87710
X17.03616 Y32.67235
X16.84992 Y32.50169
X16.63311 Y32.37197
X16.39460 Y32.28858
X16.14434 Y32.25490
X15.99753 Y32.25772
X15.76885 Y32.30001
X15.53360 Y32.39204
X15.32166 Y32.52958
X15.22057 Y32.62407
X15.09768 Y32.65810
X14.93878 Y32.73433
X14.76873 Y32.86643
X12.49233 Y35.14281
X11.81247 Y35.14283
X11.69408 Y35.04923
X11.51191 Y34.94657
X11.31372 Y34.87989
X11.06566 Y34.84502
X7.11258 Y34.84746
X6.83295 Y34.90534
X6.64697 Y34.98543
X6.52853 Y35.05838
X6.31230 Y35.25114
X6.14258 Y35.50237
X6.05536 Y35.73033
X6.01606 Y35.97128
X6.02638 Y36.21530
X6.08581 Y36.45202
X6.21860 Y36.71080
X6.37037 Y36.89482
X6.54598 Y37.03780
X6.77857 Y37.15962
X7.01230 Y37.22439
X7.21380 Y37.24280
X11.04412 Y37.24229
X11.29187 Y37.21220
X11.49047 Y37.14791
X11.62700 Y37.07961
X11.81658 Y36.94280
X12.90429 Y36.94090
X13.07876 Y36.91601
X13.24503 Y36.85754
X13.39667 Y36.76777
X13.50152 Y36.67923
X14.77431 Y35.40643
X14.87916 Y35.31789
X15.03080 Y35.22813
X15.21937 Y35.16531
X15.32166 Y35.06958
X15.46281 Y34.97133
X15.69166 Y34.86422
X15.99753 Y34.79772
X16.31543 Y34.81233
X16.63311 Y34.91197
X16.84992 Y35.04169
X17.03616 Y35.21235
X17.18429 Y35.41710
X17.28807 Y35.64730
X17.34347 Y35.89386
X17.34810 Y36.14646
X17.30177 Y36.39472
X17.20636 Y36.62873
X17.06588 Y36.83866
X16.88597 Y37.01606
X16.74482 Y37.11430
X16.43878 Y37.24562
X16.21010 Y37.28791
X16.06329 Y37.29073
X15.81302 Y37.25705
X15.56049 Y37.16587
X13.50711 Y39.21923
X13.33705 Y39.35133
X13.17815 Y39.42756
X12.90988 Y39.48090
X11.95974 Y39.48280
X11.75283 Y39.65733
X11.55258 Y39.77043
X11.29408 Y39.85440
X11.06561 Y39.88062
X7.21380 Y39.88280
X6.94357 Y39.85440
X6.72416 Y39.78544
X6.41721 Y39.60820
X6.24776 Y39.45270
X6.11080 Y39.26794
X5.97745 Y38.98456
X5.92752 Y38.76005
X5.91876 Y38.48875
X5.97745 Y38.18110
X6.06900 Y37.97013
X6.24776 Y37.71296
X6.41721 Y37.55746
X6.68507 Y37.39523
X6.90311 Y37.32208
X7.21380 Y37.28281
X11.06566 Y37.28502
X11.33454 Y37.32208
X11.55258 Y37.39523
X11.75283 Y37.50833
X11.95971 Y37.68283
X12.49791 Y37.68281
X13.50152 Y36.67923
G04 P0 ( dwell for no time -- G64 should not smooth over this point )
G00 Z5.00000 ( retract )

G00 X17.35218 Y38.60559 ( rapid move to begin. )
F300.00000
G01 Z-0.15000
G04 P0 ( dwell for no time -- G64 should not smooth over this point )
F600.00000
G01 X17.35218 Y38.60559
X17.32203 Y38.85646
X17.24205 Y39.09601
X17.11538 Y39.31468
X17.00382 Y39.44397
X17.00189 Y40.52700
X16.97700 Y40.70147
X16.91853 Y40.86774
X16.82877 Y41.01938
X16.74022 Y41.12423
X16.10522 Y41.75923
X15.93517 Y41.89133
X15.68246 Y41.99601
X15.46880 Y42.02280
X11.81658 Y42.02280
X11.62700 Y42.15961
X11.49047 Y42.22791
X11.29187 Y42.29220
X11.04412 Y42.32229
X7.17334 Y42.32077
X7.01230 Y42.30439
X6.77857 Y42.23962
X6.49628 Y42.08292
X6.37344 Y41.97749
X6.21860 Y41.79080
X6.10451 Y41.57680
X6.06379 Y41.46240
X6.02152 Y41.25781
X6.02460 Y40.96797
X6.08228 Y40.72540
X6.18891 Y40.49984
X6.33984 Y40.30134
X6.52853 Y40.13838
X6.74705 Y40.01780
X6.87278 Y39.97264
X7.07095 Y39.93175
X11.02380 Y39.92281
X11.23200 Y39.94252
X11.47277 Y40.01155
X11.69408 Y40.12923
X11.81247 Y40.22283
X15.09603 Y40.22281
X15.20380 Y40.11503
X15.20380 Y39.44732
X15.02333 Y39.20853
X14.91955 Y38.97833
X14.86415 Y38.73178
X14.85953 Y38.47917
X14.88559 Y38.30917
X15.00126 Y37.99690
X15.14175 Y37.78697
X15.26024 Y37.66231
X15.53360 Y37.47204
X15.76885 Y37.38001
X16.08351 Y37.33335
X16.31543 Y37.35233
X16.63311 Y37.45197
X16.84992 Y37.58169
X17.03616 Y37.75235
X17.18429 Y37.95710
X17.26001 Y38.11151
X17.33120 Y38.35380
X17.35218 Y38.60559
G04 P0 ( dwell for no time -- G64 should not smooth over this point )
G00 Z5.00000 ( retract )

G00 X17.35218 Y43.68559 ( rapid move to begin. )
F300.00000
G01 Z-0.15000
G04 P0 ( dwell for no time -- G64 should not smooth over this point )
F600.00000
G01 X17.35218 Y43.68559
X17.32203 Y43.93646
X17.24205 Y44.17601
X17.11538 Y44.39468
X16.94738 Y44.58333
X16.74482 Y44.73430
X16.51597 Y44.84142
X16.27032 Y44.90024
X16.12412 Y44.91228
X15.89219 Y44.89331
X15.64894 Y44.82559
X15.42415 Y44.71020
X15.23990 Y44.56280
X11.81658 Y44.56280
X11.62700 Y44.69961
X11.49047 Y44.76791
X11.29187 Y44.83220
X11.04412 Y44.86229
X7.21380 Y44.86280
X7.01230 Y44.84439
X6.77857 Y44.77962
X6.56267 Y44.66913
X6.31766 Y44.45879
X6.17580 Y44.26214
X6.08581 Y44.07202
X6.02638 Y43.83530
X6.01500 Y43.63311
X6.04576 Y43.39108
X6.08228 Y43.26540
X6.16801 Y43.07467
X6.31230 Y42.87114
X6.44471 Y42.74200
X6.64697 Y42.60543
X6.87278 Y42.51264
X7.07095 Y42.47175
X11.02380 Y42.46281
X11.23200 Y42.48252
X11.47277 Y42.55155
X11.69408 Y42.66923
X11.81247 Y42.76283
X15.24076 Y42.76283
X15.46281 Y42.59133
X15.69166 Y42.48422
X15.93730 Y42.42539
X16.08351 Y42.41335
X16.31543 Y42.43233
X16.55869 Y42.50004
X16.78348 Y42.61544
X16.98043 Y42.77373
X17.14144 Y42.96834
X17.26001 Y43.19151
X17.33120 Y43.43380
X17.35218 Y43.68559
G04 P0 ( dwell for no time -- G64 should not smooth over this point )
G00 Z5.00000 ( retract )

G00 X17.35218 Y46.22559 ( rapid move to begin. )
F300.00000
G01 Z-0.15000
G04 P0 ( dwell for no time -- G64 should not smooth over this point )
F600.00000
G01 X17.35218 Y46.22559
X17.32203 Y46.47646
X17.24205 Y46.71601
X17.11538 Y46.93468
X16.94738 Y47.12333
X16.74482 Y47.27430
X16.51597 Y47.38142
X16.27032 Y47.44024
X16.12412 Y47.45228
X15.89219 Y47.43331
X15.64894 Y47.36559
X15.42415 Y47.25020
X15.23990 Y47.10280
X11.81658 Y47.10280
X11.62700 Y47.23961
X11.49047 Y47.30791
X11.29187 Y47.37220
X11.04412 Y47.40229
X7.21380 Y47.40280
X7.01230 Y47.38439
X6.77857 Y47.31962
X6.56267 Y47.20913
X6.31766 Y46.99879
X6.17580 Y46.80214
X6.08581 Y46.61202
X6.02638 Y46.37530
X6.01500 Y46.17311
X6.04576 Y45.93108
X6.08228 Y45.80540
X6.16801 Y45.61467
X6.31230 Y45.41114
X6.44471 Y45.28200
X6.64697 Y45.14543
X6.87278 Y45.05264
X7.07095 Y45.01175
X11.02380 Y45.00281
X11.23200 Y45.02252
X11.47277 Y45.09155
X11.69408 Y45.20923
X11.81247 Y45.30283
X15.24076 Y45.30283
X15.46281 Y45.13133
X15.69166 Y45.02422
X15.93730 Y44.96539
X16.08351 Y44.95335
X16.31543 Y44.97233
X16.55869 Y45.04004
X16.78348 Y45.15544
X16.98043 Y45.31373
X17.14144 Y45.50834
X17.26001 Y45.73151
X17.33120 Y45.97380
X17.35218 Y46.22559
G04 P0 ( dwell for no time -- G64 should not smooth over this point )
G00 Z5.00000 ( retract )

G00 X17.35218 Y48.76561 ( rapid move to begin. )
F300.00000
G01 Z-0.15000
G04 P0 ( dwell for no time -- G64 should not smooth over this point )
F600.00000
G01 X17.35218 Y48.76561
X17.32203 Y49.01649
X17.24205 Y49.25604
X17.11538 Y49.47471
X16.94738 Y49.66335
X16.74482 Y49.81433
X16.51597 Y49.92144
X16.27032 Y49.98027
X16.12412 Y49.99231
X15.89219 Y49.97333
X15.64894 Y49.90562
X15.42415 Y49.79022
X15.23990 Y49.64283
X11.81658 Y49.64283
X11.62700 Y49.77963
X11.49047 Y49.84793
X11.29187 Y49.91222
X11.04412 Y49.94232
X7.21380 Y49.94283
X7.01230 Y49.92441
X6.77857 Y49.85964
X6.56267 Y49.74915
X6.31766 Y49.53882
X6.17580 Y49.34217
X6.08581 Y49.15205
X6.02638 Y48.91532
X6.01500 Y48.71314
X6.04576 Y48.47110
X6.08228 Y48.34542
X6.16801 Y48.15469
X6.31230 Y47.95116
X6.44471 Y47.82203
X6.64697 Y47.68545
X6.87278 Y47.59267
X7.07095 Y47.55177
X11.02380 Y47.54283
X11.23200 Y47.56254
X11.47277 Y47.63158
X11.69408 Y47.74926
X11.81247 Y47.84286
X15.24076 Y47.84286
X15.46281 Y47.67136
X15.69166 Y47.56424
X15.93730 Y47.50542
X16.08351 Y47.49338
X16.31543 Y47.51235
X16.55869 Y47.58007
X16.78348 Y47.69546
X16.98043 Y47.85375
X17.14144 Y48.04837
X17.26001 Y48.27153
X17.33120 Y48.51382
X17.35218 Y48.76561
G04 P0 ( dwell for no time -- G64 should not smooth over this point )
G00 Z5.00000 ( retract )

G00 X17.35218 Y51.30559 ( rapid move to begin. )
F300.00000
G01 Z-0.15000
G04 P0 ( dwell for no time -- G64 should not smooth over this point )
F600.00000
G01 X17.35218 Y51.30559
X17.32203 Y51.55646
X17.24205 Y51.79601
X17.11538 Y52.01468
X16.94738 Y52.20333
X16.74482 Y52.35430
X16.51597 Y52.46142
X16.27032 Y52.52024
X16.12412 Y52.53228
X15.89219 Y52.51331
X15.64894 Y52.44559
X15.42415 Y52.33020
X15.23990 Y52.18280
X11.81658 Y52.18280
X11.62700 Y52.31961
X11.49047 Y52.38791
X11.29187 Y52.45220
X11.04412 Y52.48229
X7.21380 Y52.48280
X7.01230 Y52.46439
X6.77857 Y52.39962
X6.56267 Y52.28913
X6.31766 Y52.07879
X6.17580 Y51.88214
X6.08581 Y51.69202
X6.02638 Y51.45530
X6.01500 Y51.25311
X6.04576 Y51.01108
X6.08228 Y50.88540
X6.16801 Y50.69467
X6.31230 Y50.49114
X6.44471 Y50.36200
X6.64697 Y50.22543
X6.87278 Y50.13264
X7.07095 Y50.09175
X11.02380 Y50.08281
X11.23200 Y50.10252
X11.47277 Y50.17155
X11.69408 Y50.28923
X11.81247 Y50.38283
X15.24076 Y50.38283
X15.46281 Y50.21133
X15.69166 Y50.10422
X15.93730 Y50.04539
X16.08351 Y50.03335
X16.31543 Y50.05233
X16.55869 Y50.12004
X16.78348 Y50.23544
X16.98043 Y50.39373
X17.14144 Y50.58834
X17.26001 Y50.81151
X17.33120 Y51.05380
X17.35218 Y51.30559
G04 P0 ( dwell for no time -- G64 should not smooth over this point )
G00 Z5.00000 ( retract )

G00 X22.25771 Y48.74131 ( rapid move to begin. )
F300.00000
G01 Z-0.15000
G04 P0 ( dwell for no time -- G64 should not smooth over this point )
F600.00000
G01 X22.25771 Y48.74131
X23.00719 Y47.99185
X23.12230 Y48.01939
X23.32568 Y48.03780
X24.28527 Y48.02551
X24.52100 Y47.96871
X24.66977 Y47.90488
X24.93480 Y47.72040
X25.09588 Y47.53907
X25.21714 Y47.32902
X25.29365 Y47.09889
X25.32225 Y46.85805
X25.30180 Y46.61644
X25.23312 Y46.38383
X25.11902 Y46.16984
X24.96418 Y45.98315
X24.84135 Y45.87771
X24.63342 Y45.75295
X24.32532 Y45.65625
X24.12192 Y45.63783
X23.24102 Y45.64195
X22.92662 Y45.70692
X22.70704 Y45.81007
X22.51283 Y45.95523
X20.61055 Y47.84283
X19.50773 Y47.84283
X19.32348 Y47.69546
X19.17311 Y47.61200
X18.93460 Y47.52861
X18.62351 Y47.49338
X18.30885 Y47.54004
X18.00281 Y47.67136
X17.86166 Y47.76960
X17.68175 Y47.94700
X17.50558 Y48.22965
X17.42559 Y48.46920
X17.39544 Y48.72007
X17.41642 Y48.97186
X17.48762 Y49.21415
X17.60618 Y49.43732
X17.76720 Y49.63193
X17.96415 Y49.79022
X18.18894 Y49.90562
X18.43219 Y49.97333
X18.75010 Y49.98794
X18.97878 Y49.94565
X19.21403 Y49.85362
X19.42597 Y49.71608
X19.50687 Y49.64283
X20.98334 Y49.64283
X21.19701 Y49.61603
X21.36328 Y49.55756
X21.51491 Y49.46780
X21.61977 Y49.37925
X22.57420 Y48.44255
X22.77785 Y48.31075
X22.92662 Y48.24692
X23.24102 Y48.18195
X24.12192 Y48.17783
X24.40462 Y48.21255
X24.63342 Y48.29295
X24.84135 Y48.41771
X24.96418 Y48.52315
X25.16182 Y48.77849
X25.23312 Y48.92383
X25.30180 Y49.15644
X25.31816 Y49.47890
X25.29365 Y49.63889
X25.21714 Y49.86902
X25.09588 Y50.07907
X24.87343 Y50.31308
X24.66977 Y50.44488
X24.52100 Y50.50871
X24.28527 Y50.56551
X23.32568 Y50.57780
X23.12230 Y50.55939
X23.01146 Y50.53317
X21.59630 Y51.94559
X21.36889 Y52.09754
X21.20262 Y52.15601
X20.98896 Y52.18280
X19.50687 Y52.18280
X19.28482 Y52.35430
X19.05597 Y52.46142
X18.81032 Y52.52024
X18.60329 Y52.53073
X18.35302 Y52.49705
X18.11451 Y52.41366
X17.89770 Y52.28395
X17.76720 Y52.17191
X17.60618 Y51.97729
X17.48762 Y51.75413
X17.41642 Y51.51184
X17.39544 Y51.26005
X17.42559 Y51.00917
X17.50558 Y50.76962
X17.63224 Y50.55095
X17.80024 Y50.36231
X18.00281 Y50.21133
X18.30885 Y50.08001
X18.53753 Y50.03772
X18.68434 Y50.03490
X18.93460 Y50.06858
X19.09869 Y50.12004
X19.32348 Y50.23544
X19.50773 Y50.38281
X20.61619 Y50.38281
X21.61977 Y49.37925
G04 P0 ( dwell for no time -- G64 should not smooth over this point )
G00 Z5.00000 ( retract )

G00 X25.32225 Y44.31805 ( rapid move to begin. )
F300.00000
G01 Z-0.15000
G04 P0 ( dwell for no time -- G64 should not smooth over this point )
F600.00000
G01 X25.32225 Y44.31805
X25.27335 Y44.63722
X25.18151 Y44.86171
X25.09588 Y44.99907
X24.93480 Y45.18040
X24.74059 Y45.32556
X24.44381 Y45.45292
X24.20660 Y45.49369
X23.32568 Y45.49780
X23.12230 Y45.47939
X22.81420 Y45.38269
X22.67267 Y45.30413
X22.53625 Y45.19780
X22.42167 Y45.19780
X20.78024 Y46.83923
X20.61019 Y46.97133
X20.35749 Y47.07601
X20.14382 Y47.10280
X19.50687 Y47.10280
X19.28482 Y47.27430
X18.97878 Y47.40562
X18.66412 Y47.45228
X18.43219 Y47.43331
X18.11451 Y47.33366
X17.89770 Y47.20395
X17.76720 Y47.09191
X17.60618 Y46.89729
X17.45955 Y46.59833
X17.41642 Y46.43184
X17.39544 Y46.18005
X17.44586 Y45.85091
X17.50558 Y45.68962
X17.63224 Y45.47095
X17.86166 Y45.22958
X18.07360 Y45.09204
X18.23166 Y45.02422
X18.47730 Y44.96539
X18.68434 Y44.95490
X18.93460 Y44.98858
X19.09869 Y45.04004
X19.32348 Y45.15544
X19.50773 Y45.30281
X19.77105 Y45.30281
X21.41245 Y43.66143
X21.58250 Y43.52933
X21.83521 Y43.42465
X22.04882 Y43.39781
X22.53310 Y43.39783
X22.77785 Y43.23075
X22.92662 Y43.16692
X23.16236 Y43.11013
X24.12192 Y43.09783
X24.40462 Y43.13255
X24.55905 Y43.18102
X24.77495 Y43.29151
X25.01996 Y43.50184
X25.16182 Y43.69849
X25.26124 Y43.91975
X25.30180 Y44.07644
X25.32225 Y44.31805
G04 P0 ( dwell for no time -- G64 should not smooth over this point )
G00 Z5.00000 ( retract )

G00 X25.32225 Y41.77805 ( rapid move to begin. )
F300.00000
G01 Z-0.15000
G04 P0 ( dwell for no time -- G64 should not smooth over this point )
F600.00000
G01 X25.32225 Y41.77805
X25.29365 Y42.01889
X25.21714 Y42.24902
X25.04633 Y42.52308
X24.87343 Y42.69308
X24.66977 Y42.82488
X24.52100 Y42.88871
X24.28527 Y42.94551
X23.32568 Y42.95780
X23.12230 Y42.93939
X22.81420 Y42.84269
X22.67267 Y42.76413
X22.53625 Y42.65780
X20.28665 Y42.65780
X19.89378 Y43.05066
X19.88611 Y44.59084
X19.86336 Y44.66588
X19.77664 Y44.79564
X19.64687 Y44.88236
X19.49379 Y44.91279
X17.79381 Y44.91279
X17.64075 Y44.88236
X17.57159 Y44.84538
X17.51099 Y44.79564
X17.42427 Y44.66588
X17.39382 Y44.51279
X17.39382 Y42.81282
X17.42427 Y42.65976
X17.46125 Y42.59059
X17.51099 Y42.52999
X17.64075 Y42.44327
X17.79381 Y42.41282
X17.98802 Y42.41285
X19.27743 Y41.12143
X19.44748 Y40.98933
X19.60638 Y40.91310
X19.77700 Y40.86939
X19.91380 Y40.85781
X22.53310 Y40.85783
X22.77785 Y40.69075
X22.92662 Y40.62692
X23.16236 Y40.57013
X24.12192 Y40.55783
X24.32532 Y40.57625
X24.55905 Y40.64102
X24.77495 Y40.75151
X25.01996 Y40.96184
X25.16182 Y41.15849
X25.26124 Y41.37975
X25.30180 Y41.53644
X25.32225 Y41.77805
G04 P0 ( dwell for no time -- G64 should not smooth over this point )
G00 Z5.00000 ( retract )

G00 X25.32225 Y39.23805 ( rapid move to begin. )
F300.00000
G01 Z-0.15000
G04 P0 ( dwell for no time -- G64 should not smooth over this point )
F600.00000
G01 X25.32225 Y39.23805
X25.29365 Y39.47889
X25.21714 Y39.70902
X25.04633 Y39.98308
X24.87343 Y40.15308
X24.66977 Y40.28488
X24.52100 Y40.34871
X24.28527 Y40.40551
X23.32568 Y40.41780
X23.12230 Y40.39939
X22.81420 Y40.30269
X22.67267 Y40.22413
X22.53625 Y40.11780
X19.23963 Y40.11590
X19.06516 Y40.09098
X18.89894 Y40.03254
X18.74736 Y39.94282
X18.61937 Y39.83116
X18.35302 Y39.79705
X18.11451 Y39.71366
X17.96415 Y39.63020
X17.76720 Y39.47191
X17.60618 Y39.27729
X17.48762 Y39.05413
X17.40415 Y38.73178
X17.39953 Y38.47917
X17.42559 Y38.30917
X17.50558 Y38.06962
X17.63224 Y37.85095
X17.80024 Y37.66231
X18.00281 Y37.51133
X18.23166 Y37.40422
X18.47730 Y37.34539
X18.68434 Y37.33490
X18.93460 Y37.36858
X19.09869 Y37.42004
X19.38992 Y37.58169
X19.52043 Y37.69373
X19.68144 Y37.88834
X19.80001 Y38.11151
X19.86188 Y38.31781
X22.53310 Y38.31783
X22.77785 Y38.15075
X22.92662 Y38.08692
X23.16236 Y38.03013
X24.12192 Y38.01783
X24.40462 Y38.05255
X24.55905 Y38.10102
X24.77495 Y38.21151
X25.01996 Y38.42184
X25.16182 Y38.61849
X25.26124 Y38.83975
X25.30180 Y38.99644
X25.32225 Y39.23805
G04 P0 ( dwell for no time -- G64 should not smooth over this point )
G00 Z5.00000 ( retract )

G00 X25.32225 Y36.69805 ( rapid move to begin. )
F300.00000
G01 Z-0.15000
G04 P0 ( dwell for no time -- G64 should not smooth over this point )
F600.00000
G01 X25.32225 Y36.69805
X25.29365 Y36.93889
X25.18151 Y37.24171
X25.04633 Y37.44308
X24.93480 Y37.56040
X24.74059 Y37.70556
X24.52100 Y37.80871
X24.28527 Y37.86551
X23.28334 Y37.87577
X23.12230 Y37.85939
X22.88857 Y37.79462
X22.67267 Y37.68413
X22.53625 Y37.57780
X21.52380 Y37.57780
X21.38710 Y37.56630
X21.21639 Y37.52253
X21.05751 Y37.44633
X20.91657 Y37.34064
X20.51601 Y36.94280
X19.50687 Y36.94280
X19.42597 Y37.01606
X19.21403 Y37.15360
X18.97878 Y37.24562
X18.75010 Y37.28791
X18.43219 Y37.27331
X18.18894 Y37.20559
X17.89770 Y37.04395
X17.76720 Y36.93191
X17.60618 Y36.73729
X17.48762 Y36.51413
X17.41642 Y36.27184
X17.39953 Y35.93917
X17.42559 Y35.76917
X17.50558 Y35.52962
X17.63224 Y35.31095
X17.80024 Y35.12231
X18.00281 Y34.97133
X18.23166 Y34.86422
X18.47730 Y34.80539
X18.68434 Y34.79490
X18.93460 Y34.82858
X19.09869 Y34.88004
X19.32348 Y34.99544
X19.50773 Y35.14281
X20.88880 Y35.14281
X21.02566 Y35.15439
X21.19627 Y35.19810
X21.35517 Y35.27433
X21.49614 Y35.38007
X21.89663 Y35.77783
X22.53310 Y35.77783
X22.77785 Y35.61075
X22.92662 Y35.54692
X23.16236 Y35.49013
X24.12192 Y35.47783
X24.40462 Y35.51255
X24.55905 Y35.56102
X24.77495 Y35.67151
X25.01996 Y35.88184
X25.16182 Y36.07849
X25.26124 Y36.29975
X25.30180 Y36.45644
X25.32225 Y36.69805
G04 P0 ( dwell for no time -- G64 should not smooth over this point )
G00 Z5.00000 ( retract )

G00 X25.32380 Y33.33781 ( rapid move to begin. )
F300.00000
G01 Z-0.15000
G04 P0 ( dwell for no time -- G64 should not smooth over this point )
F600.00000
G01 X25.32380 Y33.33781
X25.31600 Y35.01629
X25.25639 Y35.16005
X25.14605 Y35.27039
X25.00185 Y35.33013
X24.92380 Y35.33780
X22.52380 Y35.33780
X22.37074 Y35.30737
X22.24097 Y35.22066
X22.15426 Y35.09089
X22.13150 Y35.01586
X22.12380 Y34.40280
X19.50687 Y34.40280
X19.28482 Y34.57430
X18.97878 Y34.70562
X18.66412 Y34.75228
X18.35302 Y34.71705
X18.11451 Y34.63366
X17.96415 Y34.55020
X17.76720 Y34.39191
X17.60618 Y34.19729
X17.45955 Y33.89833
X17.41642 Y33.73184
X17.39544 Y33.48005
X17.42559 Y33.22917
X17.50558 Y32.98962
X17.63224 Y32.77095
X17.80024 Y32.58231
X18.00281 Y32.43133
X18.23166 Y32.32422
X18.47730 Y32.26539
X18.62351 Y32.25335
X18.85543 Y32.27233
X19.09869 Y32.34004
X19.32348 Y32.45544
X19.50773 Y32.60281
X23.08880 Y32.60281
X23.22566 Y32.61439
X23.39627 Y32.65810
X23.55517 Y32.73433
X23.79662 Y32.93783
X24.92380 Y32.93781
X25.07688 Y32.96826
X25.20665 Y33.05498
X25.25639 Y33.11558
X25.29337 Y33.18475
X25.32380 Y33.33781
G04 P0 ( dwell for no time -- G64 should not smooth over this point )
G00 Z5.00000 ( retract )

G00 X34.98380 Y39.21780 ( rapid move to begin. )
F300.00000
G01 Z-0.15000
G04 P0 ( dwell for no time -- G64 should not smooth over this point )
F600.00000
G01 X34.98380 Y39.21780
X34.96630 Y39.03043
X34.88870 Y38.77041
X34.79650 Y38.60635
X34.61984 Y38.40038
X34.46889 Y38.28801
X34.17692 Y38.12157
X33.89701 Y38.03752
X33.68880 Y38.01781
X30.86102 Y38.02195
X30.62381 Y38.06271
X30.32704 Y38.19007
X30.13283 Y38.33523
X29.97174 Y38.51656
X29.88612 Y38.65392
X29.79427 Y38.87841
X29.74538 Y39.19759
X29.76582 Y39.43919
X29.83451 Y39.67180
X29.94860 Y39.88580
X30.10344 Y40.07249
X30.29267 Y40.22413
X30.50857 Y40.33462
X30.74230 Y40.39939
X30.94380 Y40.41780
X33.68880 Y40.41780
X33.97872 Y40.38077
X34.17692 Y40.31409
X34.43376 Y40.17046
X34.61984 Y40.03525
X34.74737 Y39.89687
X34.90371 Y39.62611
X34.96630 Y39.40521
X34.98380 Y39.21780
G04 P0 ( dwell for no time -- G64 should not smooth over this point )
G00 Z5.00000 ( retract )

G00 X36.88880 Y44.29780 ( rapid move to begin. )
F300.00000
G01 Z-0.15000
G04 P0 ( dwell for no time -- G64 should not smooth over this point )
F600.00000
G01 X36.88880 Y44.29780
X36.85392 Y44.02872
X36.79370 Y43.85041
X36.68882 Y43.66890
X36.68661 Y39.93802
X36.65834 Y39.75235
X36.62606 Y39.65293
X36.48880 Y39.41631
X36.48880 Y38.76535
X36.62606 Y38.52873
X36.67569 Y38.34758
X36.68880 Y38.20180
X36.68880 Y29.05780
X36.67569 Y28.91208
X36.62606 Y28.73093
X36.48880 Y28.49431
X36.48880 Y28.09735
X36.62606 Y27.86073
X36.67569 Y27.67958
X36.68880 Y27.53380
X36.68880 Y21.94580
X36.67569 Y21.80008
X36.62606 Y21.61893
X36.48880 Y21.38231
X36.48882 Y20.22203
X36.59070 Y20.06849
X36.65817 Y19.89275
X36.68758 Y19.66511
X36.66904 Y19.47812
X36.61204 Y19.29910
X36.56459 Y19.20596
X36.45326 Y19.05457
X35.58740 Y18.18561
X35.51809 Y17.85295
X35.43107 Y17.66283
X35.30993 Y17.49240
X35.12967 Y17.31836
X34.87991 Y17.16657
X34.60000 Y17.08252
X34.39180 Y17.06281
X30.85947 Y17.06695
X30.62381 Y17.10771
X30.32704 Y17.23507
X30.13283 Y17.38023
X30.02130 Y17.49755
X29.88612 Y17.69892
X29.77398 Y18.00174
X29.74947 Y18.16174
X29.75358 Y18.40423
X29.83451 Y18.71680
X29.90580 Y18.86214
X30.04766 Y19.05879
X30.22628 Y19.22292
X30.50857 Y19.37962
X30.74230 Y19.44439
X30.90334 Y19.46077
X34.31903 Y19.46283
X35.08883 Y20.23260
X35.08883 Y21.38233
X34.95159 Y21.61893
X34.90196 Y21.79998
X34.88880 Y21.94580
X34.88880 Y27.53380
X34.90196 Y27.67968
X34.95159 Y27.86073
X35.08883 Y28.09733
X35.08883 Y28.49433
X34.95159 Y28.73093
X34.90196 Y28.91198
X34.88880 Y29.05780
X34.88880 Y38.20180
X34.90196 Y38.34768
X34.95159 Y38.52873
X35.08883 Y38.76533
X35.08883 Y39.41633
X34.95159 Y39.65293
X34.90196 Y39.83398
X34.88880 Y39.97980
X34.88880 Y43.09781
X30.85947 Y43.10195
X30.62381 Y43.14271
X30.32704 Y43.27007
X30.13283 Y43.41523
X29.97174 Y43.59656
X29.88612 Y43.73392
X29.79427 Y43.95841
X29.74538 Y44.27759
X29.76582 Y44.51919
X29.80639 Y44.67588
X29.90580 Y44.89714
X30.04766 Y45.09379
X30.29267 Y45.30413
X30.50857 Y45.41462
X30.66300 Y45.46308
X30.94380 Y45.49780
X34.88880 Y45.49780
X34.88883 Y45.87471
X34.87054 Y45.97662
X34.86945 Y46.16460
X34.90745 Y46.34860
X34.94491 Y46.44619
X35.06383 Y46.64144
X35.06383 Y47.79833
X34.92660 Y48.03493
X34.87697 Y48.21598
X34.86381 Y48.36180
X34.86381 Y53.69580
X34.87697 Y53.84168
X34.92660 Y54.02273
X35.06383 Y54.25933
X35.06383 Y54.91033
X34.92660 Y55.14693
X34.87697 Y55.32798
X34.86381 Y55.47380
X34.86381 Y63.09380
X34.87697 Y63.23968
X34.92660 Y63.42073
X35.06383 Y63.65733
X35.06383 Y66.34198
X34.99355 Y66.44043
X34.91778 Y66.60007
X34.86559 Y66.86918
X34.87537 Y69.13283
X30.85947 Y69.13695
X30.62381 Y69.17771
X30.32704 Y69.30507
X30.13283 Y69.45023
X29.97174 Y69.63156
X29.88612 Y69.76892
X29.79427 Y69.99341
X29.74538 Y70.31259
X29.76582 Y70.55419
X29.80639 Y70.71088
X29.94860 Y71.00080
X30.10344 Y71.18749
X30.22628 Y71.29292
X30.50857 Y71.44962
X30.74230 Y71.51439
X30.94380 Y71.53280
X34.88781 Y71.53283
X34.88885 Y71.73445
X34.90948 Y71.92147
X34.98771 Y72.13730
X35.08883 Y72.29358
X35.08883 Y73.45233
X34.95159 Y73.68893
X34.90196 Y73.86998
X34.88880 Y74.01580
X34.88880 Y79.09580
X34.90196 Y79.24168
X34.95159 Y79.42273
X35.08883 Y79.65933
X35.08883 Y91.99433
X34.95159 Y92.23093
X34.91931 Y92.33035
X34.89101 Y92.51592
X34.88880 Y94.09003
X33.81103 Y95.16783
X31.34380 Y95.16781
X30.78236 Y95.18013
X30.54662 Y95.23692
X30.39785 Y95.30075
X30.19420 Y95.43255
X30.02130 Y95.60255
X29.88612 Y95.80392
X29.77398 Y96.10674
X29.74538 Y96.34759
X29.76582 Y96.58919
X29.80639 Y96.74588
X29.90580 Y96.96714
X30.10344 Y97.22249
X30.22628 Y97.32792
X30.43420 Y97.45269
X30.74230 Y97.54939
X30.94380 Y97.56780
X33.88380 Y97.56780
X34.09195 Y97.54814
X34.37191 Y97.46409
X34.62167 Y97.31230
X34.80196 Y97.13821
X34.94207 Y96.93052
X35.01009 Y96.77774
X35.07940 Y96.44502
X36.45159 Y95.07014
X36.59586 Y94.85937
X36.67729 Y94.59956
X36.68880 Y94.46280
X36.68661 Y92.51602
X36.65834 Y92.33035
X36.62606 Y92.23093
X36.48880 Y91.99431
X36.48880 Y79.65935
X36.62606 Y79.42273
X36.67569 Y79.24158
X36.68880 Y79.09580
X36.68880 Y74.01580
X36.67569 Y73.87008
X36.62606 Y73.68893
X36.48880 Y73.45231
X36.48880 Y72.29297
X36.59406 Y72.12907
X36.67645 Y71.87103
X36.68880 Y71.72518
X36.68415 Y70.82219
X36.73472 Y70.70479
X36.78070 Y70.49963
X36.78943 Y70.24919
X36.74592 Y70.00245
X36.67902 Y69.83397
X36.66756 Y67.62245
X36.68880 Y67.43682
X36.68689 Y66.88973
X36.63360 Y66.62159
X36.55745 Y66.46276
X36.46380 Y66.33642
X36.46380 Y63.65735
X36.60107 Y63.42073
X36.65070 Y63.23958
X36.66380 Y63.09380
X36.66380 Y55.47380
X36.65070 Y55.32808
X36.60107 Y55.14693
X36.46380 Y54.91031
X36.46380 Y54.25935
X36.60107 Y54.02273
X36.65070 Y53.84158
X36.66380 Y53.69580
X36.66380 Y48.36180
X36.65070 Y48.21608
X36.60107 Y48.03493
X36.46380 Y47.79831
X36.46380 Y46.64324
X36.60353 Y46.43074
X36.67729 Y46.18756
X36.68880 Y46.05081
X36.68882 Y44.92673
X36.79370 Y44.74523
X36.85392 Y44.56692
X36.88880 Y44.29780
G04 P0 ( dwell for no time -- G64 should not smooth over this point )
G00 Z5.00000 ( retract )

G00 X34.98380 Y46.83780 ( rapid move to begin. )
F300.00000
G01 Z-0.15000
G04 P0 ( dwell for no time -- G64 should not smooth over this point )
F600.00000
G01 X34.98380 Y46.83780
X34.96630 Y46.65043
X34.88870 Y46.39041
X34.79650 Y46.22635
X34.61984 Y46.02038
X34.46889 Y45.90801
X34.15190 Y45.74157
X33.87199 Y45.65752
X33.66379 Y45.63781
X30.86102 Y45.64195
X30.62381 Y45.68271
X30.32704 Y45.81007
X30.13283 Y45.95523
X29.97174 Y46.13656
X29.88612 Y46.27392
X29.79427 Y46.49841
X29.74538 Y46.81759
X29.76582 Y47.05919
X29.83451 Y47.29180
X29.94860 Y47.50580
X30.10344 Y47.69249
X30.29267 Y47.84413
X30.50857 Y47.95462
X30.74230 Y48.01939
X30.94380 Y48.03780
X33.66379 Y48.03780
X33.95370 Y48.00077
X34.15190 Y47.93409
X34.46889 Y47.76762
X34.61984 Y47.65525
X34.74737 Y47.51687
X34.90371 Y47.24611
X34.96630 Y47.02521
X34.98380 Y46.83780
G04 P0 ( dwell for no time -- G64 should not smooth over this point )
G00 Z5.00000 ( retract )

G00 X32.94225 Y49.39805 ( rapid move to begin. )
F300.00000
G01 Z-0.15000
G04 P0 ( dwell for no time -- G64 should not smooth over this point )
F600.00000
G01 X32.94225 Y49.39805
X32.91365 Y49.63889
X32.80151 Y49.94171
X32.71588 Y50.07907
X32.55480 Y50.26040
X32.28977 Y50.44488
X32.06381 Y50.53292
X31.82660 Y50.57369
X29.88173 Y50.57742
X29.83334 Y50.75177
X29.74380 Y50.93554
X29.74380 Y55.65399
X30.02150 Y55.76639
X30.32518 Y55.98704
X30.51421 Y56.21002
X30.63778 Y56.42839
X30.72856 Y56.70845
X30.74225 Y56.82557
X32.12165 Y58.20502
X32.27860 Y58.40537
X32.37334 Y58.59887
X32.41317 Y58.73019
X32.44189 Y58.94365
X32.44382 Y59.20052
X32.58418 Y59.31815
X32.73902 Y59.50484
X32.85312 Y59.71883
X32.92180 Y59.95144
X32.93816 Y60.27390
X32.91365 Y60.43389
X32.83714 Y60.66402
X32.71588 Y60.87407
X32.49343 Y61.10808
X32.28977 Y61.23988
X32.14100 Y61.30371
X31.90527 Y61.36051
X31.34723 Y61.37280
X28.80380 Y61.37280
X28.51394 Y61.33577
X28.31574 Y61.26909
X28.13357 Y61.16643
X27.91206 Y60.97577
X27.78739 Y60.80791
X27.67756 Y60.58274
X27.61041 Y60.29828
X27.61041 Y60.04738
X27.65173 Y59.84245
X27.76458 Y59.57283
X27.91206 Y59.36986
X28.06598 Y59.22836
X28.31574 Y59.07657
X28.51394 Y59.00989
X28.80380 Y58.97281
X29.77817 Y58.97281
X29.19105 Y58.38569
X28.92623 Y58.32930
X28.69615 Y58.22925
X28.45460 Y58.06455
X28.25259 Y57.85325
X28.06486 Y57.52813
X28.00027 Y57.32930
X27.96527 Y57.07992
X27.83964 Y56.95158
X27.70903 Y56.78030
X27.61432 Y56.58681
X27.57449 Y56.45549
X27.54381 Y56.20281
X27.54381 Y50.52776
X27.57449 Y50.27514
X27.61432 Y50.14382
X27.70383 Y49.96010
X27.70383 Y49.84669
X27.65173 Y49.70821
X27.60820 Y49.46145
X27.61041 Y49.25238
X27.67756 Y48.96795
X27.78742 Y48.74268
X27.91206 Y48.57486
X28.06598 Y48.43336
X28.31574 Y48.28157
X28.59565 Y48.19752
X28.80380 Y48.17781
X31.78426 Y48.17986
X31.94532 Y48.19625
X32.17905 Y48.26102
X32.39495 Y48.37151
X32.58418 Y48.52315
X32.73902 Y48.70984
X32.85312 Y48.92383
X32.92180 Y49.15644
X32.94225 Y49.39805
G04 P0 ( dwell for no time -- G64 should not smooth over this point )
G00 Z5.00000 ( retract )

G00 X32.94225 Y51.93805 ( rapid move to begin. )
F300.00000
G01 Z-0.15000
G04 P0 ( dwell for no time -- G64 should not smooth over this point )
F600.00000
G01 X32.94225 Y51.93805
X32.91365 Y52.17889
X32.80151 Y52.48171
X32.66633 Y52.68308
X32.55480 Y52.80040
X32.36059 Y52.94556
X32.14100 Y53.04871
X31.90527 Y53.10551
X30.94568 Y53.11780
X30.74230 Y53.09939
X30.50857 Y53.03462
X30.29267 Y52.92413
X30.10344 Y52.77249
X29.94860 Y52.58580
X29.83451 Y52.37180
X29.76582 Y52.13919
X29.74538 Y51.89759
X29.77398 Y51.65674
X29.88612 Y51.35392
X30.02130 Y51.15255
X30.13283 Y51.03523
X30.32704 Y50.89007
X30.54662 Y50.78692
X30.78236 Y50.73013
X31.74192 Y50.71783
X31.94532 Y50.73625
X32.17905 Y50.80102
X32.39495 Y50.91151
X32.58418 Y51.06315
X32.73902 Y51.24984
X32.85312 Y51.46383
X32.92180 Y51.69644
X32.94225 Y51.93805
G04 P0 ( dwell for no time -- G64 should not smooth over this point )
G00 Z5.00000 ( retract )

G00 X34.98380 Y54.45783 ( rapid move to begin. )
F300.00000
G01 Z-0.15000
G04 P0 ( dwell for no time -- G64 should not smooth over this point )
F600.00000
G01 X34.98380 Y54.45783
X34.96630 Y54.27045
X34.90371 Y54.04955
X34.74737 Y53.77879
X34.61984 Y53.64041
X34.39655 Y53.48625
X34.22375 Y53.41171
X34.04014 Y53.37043
X33.72749 Y53.37043
X33.54387 Y53.41171
X33.37108 Y53.48625
X33.11817 Y53.67002
X32.97113 Y53.84638
X32.87893 Y54.01043
X32.80133 Y54.27045
X32.78380 Y54.45783
X32.81870 Y54.72694
X32.87893 Y54.90525
X32.98383 Y55.08676
X32.98380 Y61.51281
X30.78236 Y61.52513
X30.54662 Y61.58192
X30.39785 Y61.64575
X30.13283 Y61.83023
X29.97174 Y62.01156
X29.88612 Y62.14892
X29.79427 Y62.37341
X29.74947 Y62.61174
X29.76582 Y62.93419
X29.83451 Y63.16680
X29.90580 Y63.31214
X30.04766 Y63.50879
X30.22628 Y63.67292
X30.43420 Y63.79769
X30.66300 Y63.87808
X30.94380 Y63.91280
X33.14382 Y63.91280
X33.35197 Y63.89314
X33.59279 Y63.82411
X33.81410 Y63.70643
X34.06198 Y63.48321
X34.20209 Y63.27552
X34.27011 Y63.12274
X34.33943 Y62.79002
X34.54659 Y62.58017
X34.69853 Y62.35276
X34.75700 Y62.18649
X34.78380 Y61.97283
X34.78382 Y55.08676
X34.88870 Y54.90525
X34.94892 Y54.72694
X34.98380 Y54.45783
G04 P0 ( dwell for no time -- G64 should not smooth over this point )
G00 Z5.00000 ( retract )

G00 X35.05941 Y65.16919 ( rapid move to begin. )
F300.00000
G01 Z-0.15000
G04 P0 ( dwell for no time -- G64 should not smooth over this point )
F600.00000
G01 X35.05941 Y65.16919
X35.05723 Y65.37828
X34.99007 Y65.66274
X34.88024 Y65.88791
X34.75558 Y66.05577
X34.53407 Y66.24643
X34.35190 Y66.34909
X34.07194 Y66.43314
X33.86378 Y66.45280
X30.94380 Y66.45280
X30.66300 Y66.41808
X30.50857 Y66.36962
X30.29267 Y66.25913
X30.04766 Y66.04879
X29.90580 Y65.85214
X29.80639 Y65.63088
X29.76582 Y65.47419
X29.74538 Y65.23259
X29.77398 Y64.99174
X29.85048 Y64.76162
X30.02130 Y64.48755
X30.19420 Y64.31755
X30.39785 Y64.18575
X30.62381 Y64.09771
X30.86102 Y64.05695
X33.86378 Y64.05281
X34.15370 Y64.08989
X34.35190 Y64.15657
X34.53407 Y64.25923
X34.75558 Y64.44986
X34.90305 Y64.65283
X34.99007 Y64.84295
X35.05941 Y65.16919
G04 P0 ( dwell for no time -- G64 should not smooth over this point )
G00 Z5.00000 ( retract )

G00 X35.07943 Y72.78919 ( rapid move to begin. )
F300.00000
G01 Z-0.15000
G04 P0 ( dwell for no time -- G64 should not smooth over this point )
F600.00000
G01 X35.07943 Y72.78919
X35.07724 Y72.99828
X35.01009 Y73.28274
X34.90026 Y73.50791
X34.77559 Y73.67577
X34.55408 Y73.86643
X34.37191 Y73.96909
X34.09195 Y74.05314
X33.88380 Y74.07280
X30.94380 Y74.07280
X30.66300 Y74.03808
X30.50857 Y73.98962
X30.29267 Y73.87913
X30.04766 Y73.66879
X29.90580 Y73.47214
X29.80639 Y73.25088
X29.76582 Y73.09419
X29.74538 Y72.85259
X29.77398 Y72.61174
X29.85048 Y72.38162
X30.02130 Y72.10755
X30.19420 Y71.93755
X30.39785 Y71.80575
X30.62381 Y71.71771
X30.86102 Y71.67695
X33.88380 Y71.67281
X34.17372 Y71.70989
X34.37191 Y71.77657
X34.55408 Y71.87923
X34.77559 Y72.06986
X34.92307 Y72.27283
X35.01009 Y72.46295
X35.07943 Y72.78919
G04 P0 ( dwell for no time -- G64 should not smooth over this point )
G00 Z5.00000 ( retract )

G00 X32.94225 Y75.43305 ( rapid move to begin. )
F300.00000
G01 Z-0.15000
G04 P0 ( dwell for no time -- G64 should not smooth over this point )
F600.00000
G01 X32.94225 Y75.43305
X32.91365 Y75.67389
X32.80151 Y75.97671
X32.71588 Y76.11407
X32.55480 Y76.29540
X32.28977 Y76.47988
X32.06381 Y76.56792
X31.82660 Y76.60869
X29.88173 Y76.61242
X29.83334 Y76.78677
X29.74380 Y76.97054
X29.74380 Y81.67197
X29.87141 Y81.70134
X30.10149 Y81.80139
X30.40517 Y82.02204
X30.59420 Y82.24502
X30.71777 Y82.46339
X30.80855 Y82.74345
X30.82224 Y82.86057
X32.12165 Y84.16001
X32.27860 Y84.36036
X32.37334 Y84.55386
X32.42846 Y84.76209
X32.44382 Y85.23552
X32.58418 Y85.35315
X32.73902 Y85.53984
X32.85312 Y85.75383
X32.92180 Y85.98644
X32.93816 Y86.30890
X32.91365 Y86.46889
X32.83714 Y86.69902
X32.71588 Y86.90907
X32.49343 Y87.14308
X32.28977 Y87.27488
X32.14100 Y87.33871
X31.90527 Y87.39551
X31.34723 Y87.40780
X28.82384 Y87.40780
X28.53398 Y87.37077
X28.33578 Y87.30409
X28.15361 Y87.20143
X27.93210 Y87.01077
X27.76563 Y86.77052
X27.67177 Y86.53821
X27.63045 Y86.33328
X27.63045 Y86.08238
X27.69760 Y85.79795
X27.80746 Y85.57268
X27.93210 Y85.40486
X28.15361 Y85.21423
X28.33578 Y85.11157
X28.53398 Y85.04489
X28.82384 Y85.00781
X29.85815 Y85.00781
X29.27103 Y84.42069
X29.00621 Y84.36430
X28.77614 Y84.26425
X28.47246 Y84.04360
X28.28343 Y83.82061
X28.15986 Y83.60225
X28.06908 Y83.32219
X28.05539 Y83.20507
X27.75260 Y82.88051
X27.64434 Y82.69427
X27.57449 Y82.49049
X27.54381 Y82.23781
X27.54381 Y76.56276
X27.57449 Y76.31014
X27.61432 Y76.17882
X27.70383 Y75.99510
X27.70383 Y75.88169
X27.65173 Y75.74321
X27.60820 Y75.49645
X27.61041 Y75.28738
X27.67756 Y75.00295
X27.78742 Y74.77768
X27.91206 Y74.60986
X28.06598 Y74.46836
X28.31574 Y74.31657
X28.59565 Y74.23252
X28.80380 Y74.21281
X31.78426 Y74.21486
X31.94532 Y74.23125
X32.17905 Y74.29602
X32.39495 Y74.40651
X32.58418 Y74.55815
X32.73902 Y74.74484
X32.85312 Y74.95883
X32.92180 Y75.19144
X32.94225 Y75.43305
G04 P0 ( dwell for no time -- G64 should not smooth over this point )
G00 Z5.00000 ( retract )

G00 X32.94225 Y77.97305 ( rapid move to begin. )
F300.00000
G01 Z-0.15000
G04 P0 ( dwell for no time -- G64 should not smooth over this point )
F600.00000
G01 X32.94225 Y77.97305
X32.91365 Y78.21389
X32.80151 Y78.51671
X32.66633 Y78.71808
X32.55480 Y78.83540
X32.36059 Y78.98056
X32.14100 Y79.08371
X31.90527 Y79.14051
X30.94568 Y79.15280
X30.74230 Y79.13439
X30.50857 Y79.06962
X30.29267 Y78.95913
X30.10344 Y78.80749
X29.94860 Y78.62080
X29.83451 Y78.40680
X29.76582 Y78.17419
X29.74538 Y77.93259
X29.77398 Y77.69174
X29.88612 Y77.38892
X30.02130 Y77.18755
X30.13283 Y77.07023
X30.32704 Y76.92507
X30.54662 Y76.82192
X30.78236 Y76.76513
X31.74192 Y76.75283
X31.94532 Y76.77125
X32.17905 Y76.83602
X32.39495 Y76.94651
X32.58418 Y77.09815
X32.73902 Y77.28484
X32.85312 Y77.49883
X32.92180 Y77.73144
X32.94225 Y77.97305
G04 P0 ( dwell for no time -- G64 should not smooth over this point )
G00 Z5.00000 ( retract )

G00 X34.98380 Y80.49280 ( rapid move to begin. )
F300.00000
G01 Z-0.15000
G04 P0 ( dwell for no time -- G64 should not smooth over this point )
F600.00000
G01 X34.98380 Y80.49280
X34.96630 Y80.30543
X34.90371 Y80.08453
X34.74737 Y79.81376
X34.61984 Y79.67538
X34.39655 Y79.52123
X34.22375 Y79.44668
