( pcb2gcode 1.3.2 )
( Software-independent Gcode )

G94 ( Millimeters per minute feed rate. )
G21 ( Units == Millimeters. )

G90 ( Absolute coordinates. )
S10000 ( RPM spindle speed. )
G64 P0.01000 ( set maximum deviation from commanded toolpath )
F600.00000 ( Feedrate. )

F600.00000 ( Feedrate. )
M3 ( Spindle on clockwise. )
G04 P1.00000
G04 P0 ( dwell for no time -- G64 should not smooth over this point )
G00 Z5.00000 ( retract )

G00 X35.23513 Y137.42580 ( rapid move to begin. )
F300.00000
G01 Z-0.10000
G04 P0 ( dwell for no time -- G64 should not smooth over this point )
F600.00000
G01 X35.23513 Y137.42580
X35.23513 Y138.69859
X35.21786 Y138.89386
X35.15705 Y139.12086
X35.00956 Y139.39681
X34.88370 Y139.54713
X34.60189 Y139.82894
X34.49320 Y140.03887
X34.32218 Y140.25005
X30.63918 Y143.93305
X30.40850 Y144.11491
X30.18051 Y144.22807
X30.01167 Y144.27930
X29.71993 Y144.31379
X10.98814 Y144.31379
X10.77343 Y144.29462
X10.45522 Y144.19807
X10.23437 Y144.07132
X10.06894 Y143.93305
X2.60960 Y136.47101
X2.49766 Y136.33464
X2.37091 Y136.11378
X2.27437 Y135.79562
X2.25514 Y135.58082
X2.25516 Y134.23291
X2.06344 Y134.20632
X1.82222 Y134.12509
X1.60139 Y133.99837
X1.46500 Y133.88643
X0.03592 Y132.46004
X-0.14592 Y132.22936
X-0.25908 Y132.00137
X-0.32563 Y131.75560
X-0.34486 Y131.54079
X-0.34486 Y121.74386
X-0.32563 Y121.52913
X-0.28486 Y121.36822
X-0.28486 Y35.37345
X-0.32563 Y35.21254
X-0.34486 Y34.99776
X-0.34486 Y26.50082
X-0.32563 Y26.28604
X-0.25911 Y26.04034
X-0.10239 Y25.74710
X0.03586 Y25.58167
X0.23586 Y25.38165
X0.41323 Y25.23519
X0.72900 Y25.07428
X0.95171 Y25.01685
X1.18128 Y25.00260
X1.45057 Y25.03638
X1.64155 Y25.10080
X3.25425 Y25.10080
X3.46108 Y25.06577
X3.64922 Y25.06577
X3.85608 Y25.10082
X4.35513 Y25.10080
X4.50822 Y25.13125
X4.63799 Y25.21797
X4.72470 Y25.34774
X4.74746 Y25.42277
X4.75513 Y25.86529
X4.82674 Y26.09059
X4.85513 Y26.36082
X4.85513 Y28.84080
X4.82674 Y29.11108
X4.75513 Y29.33731
X4.74746 Y29.71885
X4.68772 Y29.86304
X4.57738 Y29.97338
X4.43319 Y30.03312
X4.04398 Y30.04082
X3.91643 Y30.08801
X3.64922 Y30.13587
X3.37795 Y30.12713
X3.15343 Y30.07719
X3.06636 Y30.04082
X2.25514 Y30.04079
X2.25514 Y34.68206
X2.29596 Y34.84309
X2.31513 Y35.05778
X2.31513 Y80.98080
X4.43319 Y80.98849
X4.50822 Y81.01125
X4.63799 Y81.09797
X4.72470 Y81.22774
X4.75513 Y81.38080
X4.75513 Y85.52079
X4.74746 Y85.59885
X4.68772 Y85.74304
X4.63799 Y85.80365
X4.50822 Y85.89036
X4.35513 Y85.92079
X2.31513 Y85.92079
X2.31513 Y121.68384
X2.29596 Y121.89857
X2.25514 Y122.05961
X2.25516 Y131.00234
X2.89364 Y131.64082
X3.51516 Y131.64082
X3.72996 Y131.66005
X3.97573 Y131.72659
X4.09346 Y131.78080
X4.43319 Y131.78849
X4.50822 Y131.81125
X4.63799 Y131.89797
X4.72470 Y132.02774
X4.74746 Y132.10277
X4.75513 Y132.48583
X4.82064 Y132.68910
X4.85323 Y132.94165
X4.85513 Y135.04234
X11.20986 Y141.39706
X11.38055 Y141.51982
X29.37548 Y141.51982
X32.48373 Y138.41159
X32.69490 Y138.24058
X32.83514 Y138.16664
X32.83514 Y137.32580
X32.86989 Y137.04500
X32.95028 Y136.81620
X33.07504 Y136.60827
X33.18048 Y136.48544
X33.36717 Y136.33060
X33.65708 Y136.18838
X33.81377 Y136.14782
X34.05538 Y136.12737
X34.29622 Y136.15597
X34.59904 Y136.26811
X34.73640 Y136.35374
X34.91774 Y136.51482
X35.10222 Y136.77985
X35.19025 Y137.00581
X35.23092 Y137.23578
X35.23513 Y137.42580
G04 P0 ( dwell for no time -- G64 should not smooth over this point )
G00 Z5.00000 ( retract )

G00 X41.04858 Y127.28604 ( rapid move to begin. )
F300.00000
G01 Z-0.10000
G04 P0 ( dwell for no time -- G64 should not smooth over this point )
F600.00000
G01 X41.04858 Y127.28604
X40.99969 Y127.60522
X40.90784 Y127.82970
X40.82222 Y127.96706
X40.66113 Y128.14839
X40.46692 Y128.29356
X40.17015 Y128.42091
X39.94018 Y128.46158
X39.75014 Y128.46579
X37.13015 Y128.46579
X36.93490 Y128.44852
X36.63551 Y128.35769
X36.43198 Y128.24022
X36.31075 Y128.14072
X34.96051 Y126.79323
X34.79648 Y126.74083
X32.47530 Y126.74083
X32.27296 Y126.78322
X31.98904 Y126.78340
X31.75343 Y126.73555
X31.45518 Y126.60994
X31.19724 Y126.41446
X31.03799 Y126.23433
X30.88190 Y125.95086
X30.80967 Y125.72150
X30.78236 Y125.48261
X30.80967 Y125.16014
X30.88190 Y124.93077
X31.03799 Y124.64731
X31.19724 Y124.46717
X31.42005 Y124.29450
X31.67393 Y124.17192
X31.98904 Y124.09824
X32.27296 Y124.09842
X32.47530 Y124.14083
X34.10514 Y124.14081
X34.10514 Y116.96790
X33.53806 Y116.40082
X23.95243 Y116.40082
X23.86513 Y124.57759
X23.84831 Y124.75084
X23.79243 Y124.95584
X23.69817 Y125.14624
X23.54298 Y125.34365
X22.71888 Y126.16501
X22.54763 Y126.29559
X22.35413 Y126.39033
X22.22282 Y126.43016
X22.00930 Y126.45889
X20.93435 Y126.46082
X20.78515 Y126.51591
X20.54794 Y126.55668
X19.66702 Y126.56079
X19.38434 Y126.52607
X19.15554 Y126.44568
X19.01401 Y126.36712
X18.87758 Y126.26082
X18.27558 Y126.25889
X18.00733 Y126.20552
X17.78330 Y126.08581
X17.56095 Y125.87982
X14.34198 Y125.87982
X12.09954 Y128.12223
X12.28138 Y128.31537
X12.45410 Y128.60138
X12.55108 Y128.92106
X12.57513 Y129.17080
X12.53371 Y129.50229
X12.45410 Y129.74024
X12.37516 Y129.88136
X12.37516 Y131.21580
X12.45199 Y131.47430
X12.46937 Y131.81697
X12.44178 Y131.99698
X12.35824 Y132.24608
X12.22629 Y132.47325
X11.98984 Y132.72202
X11.76967 Y132.86528
X11.60234 Y132.93711
X11.34669 Y132.99799
X11.19543 Y133.01028
X10.87427 Y132.97404
X10.70051 Y132.91953
X10.46691 Y132.79924
X10.20653 Y132.57572
X10.09505 Y132.43170
X9.97206 Y132.19954
X9.88606 Y131.86734
X9.88093 Y131.60465
X9.90851 Y131.42464
X9.97514 Y131.22119
X9.97514 Y129.88136
X9.88118 Y129.70112
X9.79922 Y129.42055
X9.77514 Y129.17080
X9.79922 Y128.92106
X9.89620 Y128.60138
X10.01977 Y128.38301
X10.27516 Y128.10100
X10.28672 Y127.63699
X10.36046 Y127.39391
X10.45022 Y127.24228
X10.53876 Y127.13742
X13.33276 Y124.34342
X13.50282 Y124.21132
X13.75552 Y124.10665
X13.96914 Y124.07980
X17.93375 Y124.07980
X18.14741 Y124.10665
X18.31368 Y124.16512
X18.46532 Y124.25488
X18.68757 Y124.46080
X18.82435 Y124.46080
X18.95965 Y124.30842
X19.11223 Y124.19890
X19.32424 Y124.11048
X19.46849 Y124.08544
X19.69790 Y124.09090
X19.93072 Y124.16329
X20.46326 Y124.16082
X20.66666 Y124.17924
X20.93953 Y124.26080
X21.51456 Y124.26082
X21.67003 Y124.10535
X21.76026 Y115.65863
X21.72393 Y115.57166
X21.67832 Y115.36762
X21.66955 Y115.11718
X21.71309 Y114.87044
X21.76516 Y114.73194
X21.76516 Y106.39147
X21.11555 Y105.74184
X20.80466 Y105.80031
X20.51246 Y105.79157
X20.22846 Y105.72228
X19.96506 Y105.59543
X19.79592 Y105.47254
X19.54477 Y105.19360
X19.40618 Y104.93612
X19.33042 Y104.69518
X19.31672 Y104.57803
X19.17393 Y104.41349
X19.06567 Y104.22726
X18.99582 Y104.02347
X18.96514 Y103.77080
X18.96514 Y100.29811
X18.76900 Y100.12178
X18.62714 Y99.92513
X18.52772 Y99.70387
X18.48716 Y99.54718
X18.46671 Y99.30558
X18.51561 Y98.98640
X18.60746 Y98.76192
X18.69308 Y98.62455
X18.91553 Y98.39054
X19.11919 Y98.25874
X19.26796 Y98.19491
X19.58236 Y98.12994
X20.46326 Y98.12582
X20.74596 Y98.16055
X20.93953 Y98.22580
X21.51456 Y98.22582
X21.67003 Y98.07035
X21.76026 Y89.62363
X21.72393 Y89.53666
X21.67832 Y89.33262
X21.66955 Y89.08218
X21.71309 Y88.83544
X21.76516 Y88.69694
X21.76516 Y80.35647
X21.13069 Y79.72197
X20.88467 Y79.76531
X20.67562 Y79.76531
X20.38800 Y79.71311
X20.11749 Y79.60224
X19.87593 Y79.43754
X19.62478 Y79.15860
X19.48619 Y78.90112
X19.41043 Y78.66018
X19.39673 Y78.54306
X19.17395 Y78.29851
X19.06572 Y78.11233
X18.99585 Y77.90854
X18.96514 Y77.65581
X18.96514 Y74.26311
X18.76900 Y74.08678
X18.62714 Y73.89013
X18.52772 Y73.66887
X18.48716 Y73.51218
X18.46671 Y73.27058
X18.51561 Y72.95140
X18.60746 Y72.72692
X18.69308 Y72.58955
X18.91553 Y72.35554
X19.11919 Y72.22374
X19.26796 Y72.15991
X19.58236 Y72.09494
X20.46326 Y72.09082
X20.74596 Y72.12555
X20.93953 Y72.19080
X21.51456 Y72.19082
X21.66516 Y72.04020
X21.66516 Y54.22147
X21.11555 Y53.67184
X20.80466 Y53.73031
X20.51246 Y53.72157
X20.22846 Y53.65228
X19.96506 Y53.52543
X19.79592 Y53.40254
X19.54477 Y53.12360
X19.40618 Y52.86612
X19.33042 Y52.62518
X19.31672 Y52.50803
X19.17393 Y52.34349
X19.06567 Y52.15726
X18.99582 Y51.95347
X18.96514 Y51.70080
X18.96514 Y48.22811
X18.76900 Y48.05178
X18.62714 Y47.85513
X18.52772 Y47.63387
X18.48716 Y47.47718
X18.46671 Y47.23558
X18.49531 Y46.99473
X18.60746 Y46.69192
X18.74263 Y46.49054
X18.85417 Y46.37322
X19.04837 Y46.22806
X19.26796 Y46.12491
X19.58236 Y46.05994
X20.50560 Y46.05786
X20.66666 Y46.07424
X20.89732 Y46.13804
X21.66516 Y45.37020
X21.66516 Y28.18647
X21.11555 Y27.63684
X20.80466 Y27.69531
X20.51246 Y27.68657
X20.22846 Y27.61728
X19.96506 Y27.49043
X19.79592 Y27.36754
X19.54477 Y27.08860
X19.40618 Y26.83112
X19.33042 Y26.59018
X19.31672 Y26.47303
X19.17393 Y26.30849
X19.06567 Y26.12226
X18.99582 Y25.91847
X18.96514 Y25.66580
X18.96514 Y22.19311
X18.76900 Y22.01678
X18.62714 Y21.82013
X18.52772 Y21.59887
X18.48716 Y21.44218
X18.46671 Y21.20058
X18.51561 Y20.88140
X18.60746 Y20.65692
X18.69308 Y20.51955
X18.91553 Y20.28554
X19.11919 Y20.15374
X19.26796 Y20.08991
X19.58236 Y20.02494
X20.46326 Y20.02082
X20.74596 Y20.05555
X20.93953 Y20.12080
X21.66516 Y20.12080
X21.66516 Y12.17080
X21.69584 Y11.91817
X21.76572 Y11.71436
X21.87395 Y11.52818
X21.96099 Y11.42211
X23.09734 Y10.28302
X23.23247 Y10.16961
X23.41872 Y10.06133
X23.69934 Y9.97619
X23.87514 Y9.96080
X26.81595 Y9.96080
X26.96515 Y9.90571
X27.20081 Y9.86494
X30.66423 Y9.86082
X30.79514 Y9.76842
X31.02346 Y9.66435
X31.30746 Y9.59506
X31.59966 Y9.58630
X31.92775 Y9.64934
X32.23024 Y9.79120
X32.39938 Y9.91409
X32.56128 Y10.08081
X32.90936 Y10.08081
X33.12302 Y10.10766
X33.28929 Y10.16613
X33.51670 Y10.31807
X37.21156 Y14.01022
X37.34366 Y14.18030
X37.44831 Y14.43295
X37.47513 Y14.64659
X37.47516 Y30.97455
X37.56876 Y31.09157
X37.64638 Y31.22596
X40.21770 Y33.79730
X40.34358 Y33.94767
X40.46103 Y34.15117
X40.53657 Y34.37365
X40.56913 Y34.64581
X40.56913 Y36.05620
X40.61145 Y36.16778
X40.61912 Y36.24581
X40.61912 Y37.94578
X40.61145 Y38.02384
X40.55171 Y38.16803
X40.44137 Y38.27837
X40.29718 Y38.33811
X38.51915 Y38.34578
X38.36609 Y38.31535
X38.23632 Y38.22864
X38.14961 Y38.09887
X38.11915 Y37.94578
X38.11915 Y36.24581
X38.12685 Y36.16778
X38.16916 Y36.05620
X38.16914 Y35.14289
X35.72662 Y32.70038
X35.55726 Y32.48488
X35.45327 Y32.27409
X35.40775 Y32.12400
X35.37514 Y31.76180
X35.41222 Y31.47193
X35.49792 Y31.23640
X35.58156 Y31.09157
X35.67514 Y30.97457
X35.67514 Y15.01941
X32.54957 Y11.89381
X32.39940 Y12.04753
X32.15785 Y12.21225
X31.88731 Y12.32312
X31.59966 Y12.37532
X31.30746 Y12.36658
X31.06255 Y12.31230
X30.94152 Y12.26079
X27.28514 Y12.26079
X27.00434 Y12.22607
X26.81077 Y12.16082
X24.33081 Y12.16082
X23.86515 Y12.62645
X23.86515 Y21.12080
X23.83452 Y21.37347
X23.76465 Y21.57728
X23.65644 Y21.76342
X23.56940 Y21.86951
X23.30778 Y22.11208
X23.04915 Y22.25033
X22.84090 Y22.30545
X22.66516 Y22.32079
X21.16513 Y22.32079
X21.16513 Y24.98177
X21.36282 Y25.06938
X21.60920 Y25.23798
X21.79160 Y25.30133
X21.91263 Y25.36602
X22.11299 Y25.52300
X23.56940 Y26.98215
X23.65644 Y27.08825
X23.76465 Y27.27438
X23.83452 Y27.47819
X23.86515 Y27.73082
X23.86515 Y35.89580
X28.08511 Y35.89580
X28.36596 Y35.93055
X28.59476 Y36.01094
X28.80269 Y36.13570
X28.92552 Y36.24114
X29.08036 Y36.42783
X29.22257 Y36.71774
X29.27538 Y36.95439
X29.27949 Y37.19689
X29.25498 Y37.35688
X29.17848 Y37.58701
X29.00766 Y37.86107
X28.83477 Y38.03107
X28.63111 Y38.16287
X28.48234 Y38.22671
X28.24660 Y38.28350
X27.68856 Y38.29579
X23.86515 Y38.29579
X23.86515 Y45.82580
X23.83452 Y46.07848
X23.79469 Y46.20980
X23.69998 Y46.40330
X23.56932 Y46.57459
X22.08388 Y48.06001
X21.91263 Y48.19059
X21.71913 Y48.28533
X21.51088 Y48.34045
X21.16513 Y48.35579
X21.16513 Y51.01677
X21.36282 Y51.10438
X21.60920 Y51.27298
X21.79160 Y51.33633
X21.91263 Y51.40102
X22.11299 Y51.55800
X23.56940 Y53.01715
X23.65644 Y53.12325
X23.76465 Y53.30938
X23.83452 Y53.51319
X23.86515 Y53.76582
X23.86515 Y61.93080
X28.08511 Y61.93080
X28.36596 Y61.96555
X28.52039 Y62.01401
X28.73629 Y62.12450
X28.98130 Y62.33484
X29.12316 Y62.53148
X29.22257 Y62.75274
X29.26314 Y62.90943
X29.28358 Y63.15104
X29.23469 Y63.47022
X29.14284 Y63.69470
X29.05722 Y63.83206
X28.89613 Y64.01339
X28.70192 Y64.15856
X28.40515 Y64.28591
X28.16949 Y64.32668
X23.86515 Y64.33079
X23.86515 Y72.49580
X23.83452 Y72.74848
X23.79469 Y72.87980
X23.69998 Y73.07330
X23.56932 Y73.24459
X22.74796 Y74.06865
X22.54763 Y74.22559
X22.35413 Y74.32033
X22.14588 Y74.37545
X21.97014 Y74.39079
X21.16513 Y74.39079
X21.16516 Y77.02698
X21.51525 Y77.18119
X21.73397 Y77.34745
X21.97783 Y77.47959
X22.11299 Y77.59300
X23.66940 Y79.15215
X23.75644 Y79.25825
X23.86465 Y79.44438
X23.93452 Y79.64819
X23.96515 Y79.90082
X23.96515 Y87.96580
X28.08511 Y87.96580
X28.36596 Y88.00055
X28.52039 Y88.04901
X28.73629 Y88.15950
X28.98130 Y88.36984
X29.12316 Y88.56648
X29.22257 Y88.78774
X29.26314 Y88.94443
X29.28358 Y89.18604
X29.23469 Y89.50522
X29.14284 Y89.72970
X29.05722 Y89.86706
X28.89613 Y90.04839
X28.70192 Y90.19356
X28.40515 Y90.32091
X28.16949 Y90.36168
X23.95243 Y90.36579
X23.86513 Y98.54259
X23.83259 Y98.79158
X23.79243 Y98.92084
X23.69817 Y99.11124
X23.56899 Y99.28000
X22.74796 Y100.10365
X22.54763 Y100.26059
X22.35413 Y100.35533
X22.14588 Y100.41045
X21.97014 Y100.42579
X21.16513 Y100.42579
X21.16513 Y103.08677
X21.36282 Y103.17438
X21.60920 Y103.34298
X21.79160 Y103.40633
X21.91263 Y103.47102
X22.11299 Y103.62800
X23.66940 Y105.18715
X23.75644 Y105.29325
X23.86465 Y105.47938
X23.93452 Y105.68319
X23.96515 Y105.93582
X23.96515 Y114.00080
X34.03514 Y114.00080
X34.30732 Y114.03341
X34.52990 Y114.10898
X34.73333 Y114.22643
X34.92017 Y114.38873
X36.86162 Y112.44728
X37.07714 Y112.27789
X37.28791 Y112.17393
X37.43797 Y112.12841
X37.67089 Y112.09775
X39.40625 Y112.09580
X39.64386 Y112.05071
X39.79067 Y112.04789
X40.04094 Y112.08157
X40.27945 Y112.16496
X40.49626 Y112.29468
X40.68249 Y112.46534
X40.83063 Y112.67009
X40.93441 Y112.90029
X40.98981 Y113.14685
X40.99443 Y113.39945
X40.96837 Y113.56946
X40.88839 Y113.80900
X40.76172 Y114.02767
X40.59372 Y114.21632
X40.32037 Y114.40659
X40.08511 Y114.49861
X39.85643 Y114.54090
X39.53853 Y114.52630
X39.41399 Y114.49582
X38.20724 Y114.49579
X36.50516 Y116.19792
X36.50516 Y118.67826
X36.78009 Y118.52553
X37.06411 Y118.45621
X37.31461 Y118.45184
X37.47978 Y118.47801
X37.75494 Y118.57661
X37.99647 Y118.74128
X38.16733 Y118.92449
X38.25844 Y119.06477
X38.37798 Y119.37620
X38.40851 Y119.62484
X38.39540 Y119.83353
X38.34341 Y120.03604
X38.19200 Y120.33320
X38.05870 Y120.49436
X36.50516 Y122.04792
X36.50516 Y124.73027
X36.58410 Y124.87139
X36.66033 Y125.09895
X37.62720 Y126.06580
X39.89060 Y126.06786
X40.13096 Y126.10055
X40.28539 Y126.14901
X40.50129 Y126.25950
X40.69052 Y126.41114
X40.88816 Y126.66648
X40.98757 Y126.88774
X41.02814 Y127.04443
X41.04858 Y127.28604
G04 P0 ( dwell for no time -- G64 should not smooth over this point )
G00 Z5.00000 ( retract )

G00 X41.05013 Y123.82580 ( rapid move to begin. )
F300.00000
G01 Z-0.10000
G04 P0 ( dwell for no time -- G64 should not smooth over this point )
F600.00000
G01 X41.05013 Y123.82580
X41.05013 Y125.62579
X41.01970 Y125.77888
X40.93299 Y125.90865
X40.87238 Y125.95838
X40.72819 Y126.01812
X40.65013 Y126.02579
X38.85014 Y126.02579
X38.69708 Y125.99536
X38.56731 Y125.90865
X38.51758 Y125.84804
X38.48059 Y125.77888
X38.45014 Y125.62579
X38.45014 Y123.82580
X38.48059 Y123.67274
X38.55014 Y123.56387
X38.55014 Y119.94232
X38.51016 Y119.64580
X38.50015 Y114.98581
X38.53061 Y114.83275
X38.61732 Y114.70298
X38.74709 Y114.61627
X38.82212 Y114.59351
X40.67818 Y114.59351
X40.75321 Y114.61627
X40.88298 Y114.70298
X40.96969 Y114.83275
X40.99245 Y114.90778
X41.00012 Y116.68578
X40.96969 Y116.83887
X40.91015 Y116.93551
X40.91018 Y119.38928
X40.95013 Y119.68580
X40.95016 Y123.56387
X41.01970 Y123.67274
X41.05013 Y123.82580
G04 P0 ( dwell for no time -- G64 should not smooth over this point )
G00 Z5.00000 ( retract )

G00 X45.05015 Y105.86515 ( rapid move to begin. )
F300.00000
G01 Z-0.10000
G04 P0 ( dwell for no time -- G64 should not smooth over this point )
F600.00000
G01 X45.05015 Y105.86515
X45.03265 Y105.67778
X44.95505 Y105.41776
X44.86285 Y105.25370
X44.71581 Y105.07735
X44.46290 Y104.89358
X44.29011 Y104.81903
X44.06514 Y104.77120
X43.83519 Y104.77120
X43.61022 Y104.81903
X43.43743 Y104.89358
X43.24670 Y105.02136
X43.08660 Y105.18611
X42.96430 Y105.38042
X42.86768 Y105.67778
X42.85127 Y105.88618
X42.88505 Y106.13427
X42.94528 Y106.31257
X43.05018 Y106.49408
X43.06316 Y131.57003
X41.46199 Y133.17122
X41.31523 Y133.20467
X41.14244 Y133.27922
X40.91915 Y133.43337
X40.74249 Y133.63934
X40.65029 Y133.80340
X40.57269 Y134.06342
X40.55516 Y134.25080
X40.59006 Y134.51991
X40.66931 Y134.73555
X40.74249 Y134.86228
X40.88953 Y135.03863
X41.07010 Y135.18061
X41.31523 Y135.29695
X41.54020 Y135.34477
X41.77015 Y135.34477
X41.99511 Y135.29695
X42.16791 Y135.22240
X42.39120 Y135.06824
X42.51874 Y134.92986
X42.64104 Y134.73555
X42.73687 Y134.44193
X44.62595 Y132.55014
X44.77789 Y132.32273
X44.85165 Y132.07955
X44.86316 Y131.94280
X44.86316 Y117.88982
X44.85015 Y117.75723
X44.85015 Y106.49408
X44.95505 Y106.31257
X45.01528 Y106.13427
X45.05015 Y105.86515
G04 P0 ( dwell for no time -- G64 should not smooth over this point )
G00 Z5.00000 ( retract )

G00 X43.15752 Y49.81858 ( rapid move to begin. )
F300.00000
G01 Z-0.10000
G04 P0 ( dwell for no time -- G64 should not smooth over this point )
F600.00000
G01 X43.15752 Y49.81858
X43.10913 Y50.13981
X43.10913 Y50.81180
X43.08947 Y51.01995
X43.00543 Y51.29991
X42.90276 Y51.48208
X42.80913 Y51.59909
X42.80913 Y92.97580
X42.79763 Y93.11255
X42.72387 Y93.35573
X42.63410 Y93.50737
X42.54556 Y93.61222
X36.96716 Y99.19064
X36.96713 Y110.50180
X36.95563 Y110.63855
X36.91189 Y110.80926
X36.79210 Y111.03337
X36.70356 Y111.13822
X35.37085 Y112.47093
X35.27501 Y112.76455
X35.15271 Y112.95886
X35.02518 Y113.09724
X34.80189 Y113.25140
X34.62909 Y113.32595
X34.40412 Y113.37377
X34.17418 Y113.37377
X33.94921 Y113.32595
X33.77641 Y113.25140
X33.55312 Y113.09724
X33.42559 Y112.95886
X33.26925 Y112.68810
X33.20666 Y112.46720
X33.19135 Y112.23794
X33.22404 Y112.01071
X33.28426 Y111.83240
X33.37646 Y111.66834
X33.52350 Y111.49199
X33.77641 Y111.30822
X33.94921 Y111.23367
X34.09597 Y111.20022
X35.16714 Y110.12903
X35.16714 Y98.81780
X35.17872 Y98.68099
X35.22243 Y98.51038
X35.29866 Y98.35148
X35.43076 Y98.18142
X41.00914 Y92.60303
X41.00914 Y51.59907
X40.91556 Y51.48208
X40.81290 Y51.29991
X40.72885 Y51.02000
X40.70914 Y50.81180
X40.70916 Y50.13062
X40.66949 Y49.94477
X40.66078 Y49.77304
X40.69093 Y49.52216
X40.77091 Y49.28261
X40.89758 Y49.06395
X41.06558 Y48.87530
X41.26814 Y48.72432
X41.49700 Y48.61721
X41.74264 Y48.55838
X41.88884 Y48.54634
X42.12077 Y48.56532
X42.36402 Y48.63303
X42.58881 Y48.74843
X42.78577 Y48.90672
X42.94678 Y49.10133
X43.06534 Y49.32450
X43.13654 Y49.56679
X43.15752 Y49.81858
G04 P0 ( dwell for no time -- G64 should not smooth over this point )
G00 Z5.00000 ( retract )

G00 X44.95914 Y48.20372 ( rapid move to begin. )
F300.00000
G01 Z-0.10000
G04 P0 ( dwell for no time -- G64 should not smooth over this point )
F600.00000
G01 X44.95914 Y48.20372
X44.95914 Y101.86580
X44.94764 Y102.00255
X44.90390 Y102.17326
X44.82767 Y102.33216
X44.72193 Y102.47313
X42.85016 Y104.34763
X42.85016 Y131.03480
X42.83865 Y131.17155
X42.76489 Y131.41473
X42.67512 Y131.56637
X42.58658 Y131.67122
X37.85408 Y136.40370
X37.87513 Y136.52580
X37.87513 Y138.32579
X37.84470 Y138.47888
X37.75799 Y138.60865
X37.62822 Y138.69536
X37.47513 Y138.72579
X35.59711 Y138.71812
X35.52208 Y138.69536
X35.39231 Y138.60865
X35.30559 Y138.47888
X35.28283 Y138.40385
X35.27514 Y136.52580
X35.30559 Y136.37274
X35.34258 Y136.30357
X35.39231 Y136.24297
X35.52208 Y136.15625
X35.59711 Y136.13349
X35.72335 Y136.12580
X35.80666 Y135.94348
X35.93876 Y135.77342
X41.05016 Y130.66203
X41.05211 Y103.93554
X41.10545 Y103.66739
X41.18168 Y103.50849
X41.28742 Y103.36752
X43.15915 Y101.49305
X43.15915 Y48.57652
X43.03845 Y48.45582
X42.25308 Y48.45579
X42.07566 Y48.49323
X41.92946 Y48.50527
X41.69753 Y48.48630
X41.45427 Y48.41858
X41.22948 Y48.30319
X40.97680 Y48.08627
X40.87152 Y47.95028
X40.75295 Y47.72712
X40.68176 Y47.48483
X40.66078 Y47.23304
X40.71120 Y46.90390
X40.80660 Y46.66989
X40.94709 Y46.45996
X41.06558 Y46.33530
X41.33893 Y46.14503
X41.57419 Y46.05300
X41.88884 Y46.00634
X42.12077 Y46.02532
X42.24530 Y46.05580
X43.11124 Y46.05580
X43.40116 Y46.09288
X43.59935 Y46.15956
X43.78152 Y46.26222
X44.02938 Y46.48539
X44.15051 Y46.65582
X44.23753 Y46.84594
X44.30685 Y47.17860
X44.69559 Y47.56738
X44.82767 Y47.73743
X44.93232 Y47.99008
X44.95914 Y48.20372
G04 P0 ( dwell for no time -- G64 should not smooth over this point )
G00 Z5.00000 ( retract )

G00 X45.64476 Y44.63218 ( rapid move to begin. )
F300.00000
G01 Z-0.10000
G04 P0 ( dwell for no time -- G64 should not smooth over this point )
F600.00000
G01 X45.64476 Y44.63218
X45.64258 Y44.84127
X45.60125 Y45.04620
X45.46559 Y45.35090
X45.34093 Y45.51877
X45.18701 Y45.66029
X44.89811 Y45.82710
X44.65729 Y45.89613
X44.44914 Y45.91579
X42.25305 Y45.91582
X42.07566 Y45.95323
X41.92946 Y45.96527
X41.69753 Y45.94630
X41.45427 Y45.87858
X41.22948 Y45.76319
X41.03253 Y45.60490
X40.87152 Y45.41028
X40.75295 Y45.18712
X40.68176 Y44.94483
X40.66078 Y44.69304
X40.69093 Y44.44216
X40.77091 Y44.20261
X40.89758 Y43.98395
X41.06558 Y43.79530
X41.26814 Y43.64432
X41.49700 Y43.53721
X41.74264 Y43.47838
X41.88884 Y43.46634
X42.12077 Y43.48532
X42.24530 Y43.51580
X44.44914 Y43.51580
X44.73905 Y43.55288
X44.93725 Y43.61956
X45.11942 Y43.72222
X45.34093 Y43.91285
X45.48840 Y44.11582
X45.57542 Y44.30594
X45.64476 Y44.63218
G04 P0 ( dwell for no time -- G64 should not smooth over this point )
G00 Z5.00000 ( retract )

G00 X40.61752 Y47.27858 ( rapid move to begin. )
F300.00000
G01 Z-0.10000
G04 P0 ( dwell for no time -- G64 should not smooth over this point )
F600.00000
G01 X40.61752 Y47.27858
X40.58737 Y47.52946
X40.47170 Y47.84172
X40.33121 Y48.05165
X40.21272 Y48.17632
X40.01016 Y48.32729
X39.78130 Y48.43441
X39.53566 Y48.49323
X39.32862 Y48.50372
X39.05319 Y48.46214
X38.81496 Y48.58823
X38.61356 Y48.64446
X38.36398 Y48.66631
X38.23985 Y48.65551
X38.22662 Y49.17979
X38.16190 Y49.40009
X38.03965 Y49.59747
X38.03950 Y50.38487
X38.15989 Y50.58033
X38.20721 Y50.71888
X38.23868 Y51.03529
X38.23767 Y59.19385
X38.22456 Y59.33957
X38.17493 Y59.52072
X38.03757 Y59.75747
X38.03726 Y61.17042
X38.17440 Y61.40692
X38.22403 Y61.58808
X38.23713 Y61.73380
X38.23713 Y85.99689
X38.34204 Y86.17840
X38.40226 Y86.35671
X38.43713 Y86.62580
X38.41963 Y86.81320
X38.34204 Y87.07322
X38.24983 Y87.23728
X38.07318 Y87.44324
X37.84989 Y87.59740
X37.67709 Y87.67195
X37.45212 Y87.71977
X37.22218 Y87.71977
X36.99721 Y87.67195
X36.82441 Y87.59740
X36.57150 Y87.41363
X36.42446 Y87.23728
X36.33226 Y87.07322
X36.25466 Y86.81320
X36.23714 Y86.62580
X36.27204 Y86.35671
X36.33226 Y86.17840
X36.43714 Y85.99689
X36.43714 Y61.73380
X36.45029 Y61.58797
X36.49993 Y61.40692
X36.63729 Y61.17017
X36.63759 Y59.75722
X36.50046 Y59.52072
X36.45083 Y59.33967
X36.43767 Y59.19380
X36.43767 Y50.94634
X36.45083 Y50.80052
X36.50046 Y50.61947
X36.63952 Y50.38083
X36.63968 Y49.59719
X36.51748 Y49.39966
X36.45286 Y49.17936
X36.43980 Y49.03362
X36.44214 Y48.04713
X36.45281 Y47.94441
X36.50140 Y47.76512
X36.58573 Y47.59974
X36.70219 Y47.45526
X36.88037 Y47.31477
X37.24633 Y47.09740
X37.28156 Y46.99974
X37.40300 Y46.78059
X37.53625 Y46.61950
X37.74836 Y46.40736
X37.89868 Y46.28148
X38.17468 Y46.13393
X38.40160 Y46.07315
X38.59693 Y46.05580
X39.02522 Y46.05582
X39.26286 Y46.01071
X39.40967 Y46.00789
X39.65994 Y46.04157
X39.89845 Y46.12496
X40.11526 Y46.25468
X40.24577 Y46.36672
X40.40678 Y46.56133
X40.55341 Y46.86029
X40.59654 Y47.02679
X40.61752 Y47.27858
G04 P0 ( dwell for no time -- G64 should not smooth over this point )
G00 Z5.00000 ( retract )

G00 X40.61752 Y44.73858 ( rapid move to begin. )
F300.00000
G01 Z-0.10000
G04 P0 ( dwell for no time -- G64 should not smooth over this point )
F600.00000
G01 X40.61752 Y44.73858
X40.58737 Y44.98946
X40.50739 Y45.22900
X40.33121 Y45.51165
X40.15130 Y45.68905
X39.93937 Y45.82659
X39.78130 Y45.89441
X39.47543 Y45.96090
X39.15753 Y45.94630
X39.03299 Y45.91582
X38.23990 Y45.91579
X36.44956 Y47.70614
X36.23714 Y47.86072
X36.23714 Y59.61747
X36.40071 Y59.78475
X36.54204 Y60.01640
X36.61964 Y60.27642
X36.63495 Y60.50568
X36.60226 Y60.73291
X36.52302 Y60.94855
X36.44984 Y61.07528
X36.30280 Y61.25163
X36.12223 Y61.39361
X35.87709 Y61.50995
X35.65213 Y61.55777
X35.42218 Y61.55777
X35.19721 Y61.50995
X35.02442 Y61.43540
X34.83369 Y61.30761
X34.62447 Y61.07528
X34.53226 Y60.91122
X34.47204 Y60.73291
X34.43714 Y60.46380
X34.45467 Y60.27642
X34.53226 Y60.01640
X34.67359 Y59.78475
X34.83717 Y59.61747
X34.83714 Y47.34574
X34.86015 Y47.17111
X34.91707 Y47.02400
X34.96000 Y46.78704
X35.05835 Y46.57957
X35.17676 Y46.43334
X36.97150 Y44.63863
X37.04082 Y44.30594
X37.12784 Y44.11582
X37.27531 Y43.91285
X37.49683 Y43.72222
X37.71814 Y43.60455
X37.95890 Y43.53551
X38.12522 Y43.51801
X39.02525 Y43.51580
X39.20264 Y43.47838
X39.34884 Y43.46634
X39.58077 Y43.48532
X39.82402 Y43.55303
X40.11526 Y43.71468
X40.24577 Y43.82672
X40.40678 Y44.02133
X40.55341 Y44.32029
X40.59654 Y44.48679
X40.61752 Y44.73858
G04 P0 ( dwell for no time -- G64 should not smooth over this point )
G00 Z5.00000 ( retract )

G00 X43.15752 Y42.19858 ( rapid move to begin. )
F300.00000
G01 Z-0.10000
G04 P0 ( dwell for no time -- G64 should not smooth over this point )
F600.00000
G01 X43.15752 Y42.19858
X43.12737 Y42.44946
X43.04739 Y42.68900
X42.92072 Y42.90767
X42.75272 Y43.09632
X42.55016 Y43.24729
X42.32130 Y43.35441
X42.07566 Y43.41323
X41.92946 Y43.42527
X41.69753 Y43.40630
X41.45427 Y43.33858
X41.22948 Y43.22319
X41.03253 Y43.06490
X40.87152 Y42.87028
X40.75295 Y42.64712
X40.68176 Y42.40483
X40.66078 Y42.15304
X40.69093 Y41.90216
X40.77091 Y41.66261
X40.89758 Y41.44395
X41.06558 Y41.25530
X41.26814 Y41.10432
X41.49700 Y40.99721
X41.74264 Y40.93838
X41.88884 Y40.92634
X42.12077 Y40.94532
X42.36402 Y41.01303
X42.58881 Y41.12843
X42.78577 Y41.28672
X42.94678 Y41.48133
X43.06534 Y41.70450
X43.13654 Y41.94679
X43.15752 Y42.19858
G04 P0 ( dwell for no time -- G64 should not smooth over this point )
G00 Z5.00000 ( retract )

G00 X40.61752 Y42.19858 ( rapid move to begin. )
F300.00000
G01 Z-0.10000
G04 P0 ( dwell for no time -- G64 should not smooth over this point )
F600.00000
G01 X40.61752 Y42.19858
X40.58737 Y42.44946
X40.50739 Y42.68900
X40.33121 Y42.97165
X40.15130 Y43.14905
X40.01016 Y43.24729
X39.70411 Y43.37861
X39.38946 Y43.42527
X39.15753 Y43.40630
X39.03299 Y43.37582
X34.93513 Y43.37579
X34.93323 Y46.76499
X34.87989 Y47.03327
X34.80366 Y47.19217
X34.71314 Y47.31457
X34.71314 Y58.83781
X34.69013 Y59.01267
X34.64311 Y59.14114
X34.57181 Y59.25826
X34.43016 Y59.41079
X34.43018 Y61.30555
X34.60486 Y61.41670
X34.76325 Y61.58282
X34.87240 Y61.78495
X34.90468 Y61.88437
X34.93295 Y62.07004
X34.93516 Y67.58189
X35.04004 Y67.76340
X35.10026 Y67.94171
X35.13513 Y68.21080
X35.10026 Y68.47991
X35.04004 Y68.65822
X34.93513 Y68.83972
X34.93513 Y93.45527
X35.07440 Y93.64582
X35.18725 Y93.91544
X35.23076 Y94.16218
X35.22858 Y94.37127
X35.18725 Y94.57620
X35.05159 Y94.88090
X34.92693 Y95.04877
X34.77301 Y95.19029
X34.48411 Y95.35710
X34.24329 Y95.42613
X34.07694 Y95.44361
X27.28514 Y95.44579
X27.00434 Y95.41107
X26.84991 Y95.36261
X26.63401 Y95.25212
X26.38900 Y95.04178
X26.24714 Y94.84513
X26.14772 Y94.62387
X26.10716 Y94.46718
X26.08671 Y94.22558
X26.13561 Y93.90640
X26.22746 Y93.68192
X26.31308 Y93.54455
X26.53553 Y93.31054
X26.73919 Y93.17874
X26.88796 Y93.11491
X27.20081 Y93.04994
X33.13514 Y93.04580
X33.13514 Y68.83972
X33.03026 Y68.65822
X32.97004 Y68.47991
X32.93514 Y68.21080
X32.97004 Y67.94171
X33.03026 Y67.76340
X33.13514 Y67.58189
X33.13514 Y62.55785
X33.05320 Y62.36562
X33.03016 Y62.19082
X33.03016 Y59.12080
X33.05322 Y58.94599
X33.10024 Y58.81752
X33.17154 Y58.70040
X33.31317 Y58.54790
X33.31317 Y47.31343
X33.23217 Y47.19260
X33.15678 Y47.02059
X33.11439 Y46.79491
X33.13514 Y46.55788
X33.13514 Y42.80472
X33.03026 Y42.62322
X32.97004 Y42.44491
X32.93514 Y42.17580
X32.97004 Y41.90671
X33.03026 Y41.72840
X33.13514 Y41.54689
X33.13514 Y40.58769
X33.11883 Y40.30862
X33.14395 Y40.16439
X33.19445 Y40.02701
X33.31317 Y39.83226
X33.31317 Y38.67532
X33.17593 Y38.43872
X33.12630 Y38.25767
X33.11314 Y38.11180
X33.11314 Y16.76972
X33.00826 Y16.58822
X32.94804 Y16.40991
X32.91314 Y16.14080
X32.93067 Y15.95342
X32.99325 Y15.73252
X33.14959 Y15.46175
X33.27712 Y15.32337
X33.42808 Y15.21100
X33.71367 Y15.08383
X33.89818 Y15.04684
X34.16948 Y15.05340
X34.39221 Y15.10968
X34.52589 Y15.16922
X34.71662 Y15.29701
X34.87671 Y15.46175
X35.01804 Y15.69340
X35.09564 Y15.95342
X35.11314 Y16.14080
X35.07826 Y16.40991
X35.01804 Y16.58822
X34.91314 Y16.76972
X34.91314 Y38.11180
X34.90003 Y38.25757
X34.85040 Y38.43872
X34.71314 Y38.67535
X34.71314 Y39.83107
X34.84999 Y40.04024
X34.92365 Y40.28327
X34.93513 Y40.97580
X39.02522 Y40.97582
X39.20264 Y40.93838
X39.34884 Y40.92634
X39.65994 Y40.96157
X39.89845 Y41.04496
X40.04881 Y41.12843
X40.24577 Y41.28672
X40.40678 Y41.48133
X40.55341 Y41.78029
X40.59654 Y41.94679
X40.61752 Y42.19858
G04 P0 ( dwell for no time -- G64 should not smooth over this point )
G00 Z5.00000 ( retract )

G00 X40.61752 Y39.65860 ( rapid move to begin. )
F300.00000
G01 Z-0.10000
G04 P0 ( dwell for no time -- G64 should not smooth over this point )
F600.00000
G01 X40.61752 Y39.65860
X40.58737 Y39.90948
X40.50739 Y40.14903
X40.33121 Y40.43168
X40.15130 Y40.60907
X40.01016 Y40.70732
X39.70411 Y40.83864
X39.38946 Y40.88530
X39.15753 Y40.86632
X39.03299 Y40.83582
X36.06714 Y40.83582
X35.77727 Y40.79879
X35.57907 Y40.73211
X35.39691 Y40.62944
X35.17539 Y40.43879
X35.05073 Y40.27092
X34.94090 Y40.04575
X34.87374 Y39.76130
X34.87153 Y39.55220
X34.94090 Y39.22597
X35.02792 Y39.03585
X35.17539 Y38.83288
X35.39691 Y38.64225
X35.57907 Y38.53958
X35.77727 Y38.47291
X36.06714 Y38.43582
X39.02525 Y38.43582
X39.20264 Y38.39841
X39.34884 Y38.38637
X39.58077 Y38.40534
X39.82402 Y38.47306
X40.04881 Y38.58845
X40.24577 Y38.74674
X40.40678 Y38.94136
X40.52534 Y39.16452
X40.59654 Y39.40681
X40.61752 Y39.65860
G04 P0 ( dwell for no time -- G64 should not smooth over this point )
G00 Z5.00000 ( retract )

G00 X43.15752 Y37.11858 ( rapid move to begin. )
F300.00000
G01 Z-0.10000
G04 P0 ( dwell for no time -- G64 should not smooth over this point )
F600.00000
G01 X43.15752 Y37.11858
X43.12737 Y37.36946
X43.04739 Y37.60900
X42.87121 Y37.89165
X42.69130 Y38.06905
X42.55016 Y38.16729
X42.24411 Y38.29861
X42.01543 Y38.34090
X41.86862 Y38.34372
X41.61836 Y38.31004
X41.45427 Y38.25858
X41.16304 Y38.09694
X40.97680 Y37.92627
X40.82867 Y37.72152
X40.75295 Y37.56712
X40.68176 Y37.32483
X40.66078 Y37.07304
X40.70914 Y36.75183
X40.70914 Y34.55580
X40.72885 Y34.34764
X40.81290 Y34.06773
X40.91556 Y33.88557
X41.10619 Y33.66405
X41.34648 Y33.49758
X41.57878 Y33.40373
X41.78371 Y33.36240
X42.03461 Y33.36240
X42.31907 Y33.42956
X42.54424 Y33.53939
X42.71211 Y33.66405
X42.90276 Y33.88557
X43.00543 Y34.06773
X43.07210 Y34.26593
X43.10913 Y34.55580
X43.10913 Y36.76100
X43.14881 Y36.94685
X43.15752 Y37.11858
G04 P0 ( dwell for no time -- G64 should not smooth over this point )
G00 Z5.00000 ( retract )

G00 X44.95914 Y32.89580 ( rapid move to begin. )
F300.00000
G01 Z-0.10000
G04 P0 ( dwell for no time -- G64 should not smooth over this point )
F600.00000
G01 X44.95914 Y32.89580
X44.95914 Y38.68789
X44.93235 Y38.90156
X44.87387 Y39.06783
X44.78411 Y39.21946
X44.69557 Y39.32432
X43.74766 Y40.27224
X43.64281 Y40.36079
X43.49117 Y40.45055
X43.24800 Y40.52431
X42.77220 Y40.53582
X42.69130 Y40.60907
X42.47937 Y40.74661
X42.32130 Y40.81443
X42.07566 Y40.87326
X41.92946 Y40.88530
X41.69753 Y40.86632
X41.37985 Y40.76668
X41.16304 Y40.63696
X41.03253 Y40.52492
X40.87152 Y40.33031
X40.75295 Y40.10714
X40.68176 Y39.86485
X40.66078 Y39.61306
X40.69093 Y39.36219
X40.77091 Y39.12264
X40.89758 Y38.90397
X41.06558 Y38.71532
X41.26814 Y38.56435
X41.49700 Y38.45724
X41.80286 Y38.39074
X42.12077 Y38.40534
X42.36402 Y38.47306
X42.58881 Y38.58845
X42.75445 Y38.71985
X43.15915 Y38.31515
X43.15915 Y33.26860
X38.22476 Y28.33422
X38.09266 Y28.16416
X37.98799 Y27.91146
X37.96114 Y27.69780
X37.96114 Y14.35462
X33.02734 Y9.42079
X30.75843 Y9.42079
X30.64142 Y9.51442
X30.42011 Y9.63210
X30.17929 Y9.70113
X29.97114 Y9.72079
X27.28514 Y9.72079
X27.00434 Y9.68607
X26.77554 Y9.60568
X26.56761 Y9.48092
X26.44478 Y9.37548
X26.24714 Y9.12013
X26.17584 Y8.97480
X26.10716 Y8.74218
X26.09080 Y8.41973
X26.11531 Y8.25973
X26.19182 Y8.02961
X26.31308 Y7.81955
X26.53553 Y7.58554
X26.73919 Y7.45374
X26.88796 Y7.38991
X27.20236 Y7.32494
X29.97114 Y7.32080
X30.17934 Y7.34051
X30.42011 Y7.40955
X30.64142 Y7.52722
X30.75841 Y7.62082
X33.40014 Y7.62080
X33.61380 Y7.64765
X33.78007 Y7.70612
X33.93171 Y7.79588
X34.03656 Y7.88442
X39.49756 Y13.34542
X39.58615 Y13.45035
X39.70586 Y13.67438
X39.74963 Y13.84509
X39.76113 Y13.98180
X39.76116 Y27.32500
X44.69557 Y32.25943
X44.78416 Y32.36436
X44.87387 Y32.51595
X44.93232 Y32.68216
X44.95914 Y32.89580
G04 P0 ( dwell for no time -- G64 should not smooth over this point )
G00 Z5.00000 ( retract )

G00 X31.32513 Y23.76080 ( rapid move to begin. )
F300.00000
G01 Z-0.10000
G04 P0 ( dwell for no time -- G64 should not smooth over this point )
F600.00000
G01 X31.32513 Y23.76080
X31.30763 Y23.57342
X31.24505 Y23.35252
X31.08871 Y23.08175
X30.96118 Y22.94337
X30.73789 Y22.78922
X30.56509 Y22.71467
X30.38147 Y22.67340
X30.06882 Y22.67340
X29.88521 Y22.71467
X29.71241 Y22.78922
X29.45950 Y22.97299
X29.31246 Y23.14934
X29.22026 Y23.31340
X29.14266 Y23.57342
X29.12514 Y23.76080
X29.16004 Y24.02991
X29.22026 Y24.20822
X29.32516 Y24.38972
X29.32514 Y30.81580
X27.12369 Y30.82812
X26.88796 Y30.88491
X26.73919 Y30.94874
X26.47417 Y31.13322
X26.31308 Y31.31455
X26.22746 Y31.45192
X26.13561 Y31.67640
X26.09080 Y31.91473
X26.10716 Y32.23718
X26.17584 Y32.46980
X26.24714 Y32.61513
X26.38900 Y32.81178
X26.56761 Y32.97592
X26.77554 Y33.10068
X27.00434 Y33.18107
X27.28514 Y33.21579
X29.46314 Y33.21579
X29.67129 Y33.19613
X29.91211 Y33.12710
X30.13342 Y33.00942
X30.38130 Y32.78620
X30.52140 Y32.57851
X30.58942 Y32.42573
X30.65874 Y32.09301
X30.88792 Y31.86113
X31.03987 Y31.63373
X31.09834 Y31.46746
X31.12513 Y31.25380
X31.12516 Y24.38972
X31.23004 Y24.20822
X31.29026 Y24.02991
X31.32513 Y23.76080
G04 P0 ( dwell for no time -- G64 should not smooth over this point )
G00 Z5.00000 ( retract )

G00 X29.28358 Y21.24104 ( rapid move to begin. )
F300.00000
G01 Z-0.10000
G04 P0 ( dwell for no time -- G64 should not smooth over this point )
F600.00000
G01 X29.28358 Y21.24104
X29.25498 Y21.48188
X29.14284 Y21.78470
X29.00766 Y21.98607
X28.89613 Y22.10339
X28.70192 Y22.24856
X28.48234 Y22.35171
X28.24660 Y22.40850
X27.28702 Y22.42079
X27.08364 Y22.40238
X26.84991 Y22.33761
X26.63401 Y22.22712
X26.44478 Y22.07548
X26.28994 Y21.88879
X26.17584 Y21.67480
X26.10716 Y21.44218
X26.08671 Y21.20058
X26.11531 Y20.95973
X26.22746 Y20.65692
X26.36263 Y20.45554
X26.47417 Y20.33822
X26.66837 Y20.19306
X26.88796 Y20.08991
X27.12369 Y20.03312
X28.08326 Y20.02082
X28.28666 Y20.03924
X28.52039 Y20.10401
X28.73629 Y20.21450
X28.92552 Y20.36614
X29.08036 Y20.55283
X29.19445 Y20.76682
X29.26314 Y20.99943
X29.28358 Y21.24104
G04 P0 ( dwell for no time -- G64 should not smooth over this point )
G00 Z5.00000 ( retract )

G00 X29.28358 Y18.70104 ( rapid move to begin. )
F300.00000
G01 Z-0.10000
G04 P0 ( dwell for no time -- G64 should not smooth over this point )
F600.00000
G01 X29.28358 Y18.70104
X29.25498 Y18.94188
X29.14284 Y19.24470
X29.05722 Y19.38206
X28.89613 Y19.56339
X28.63111 Y19.74787
X28.40515 Y19.83591
X28.16794 Y19.87668
X26.22306 Y19.88041
X26.17467 Y20.05476
X26.08514 Y20.23853
X26.08514 Y24.95698
X26.36284 Y25.06938
X26.66652 Y25.29003
X26.85555 Y25.51301
X26.97912 Y25.73138
X27.06990 Y26.01144
X27.08359 Y26.12856
X28.46299 Y27.50801
X28.61993 Y27.70836
X28.71467 Y27.90186
X28.75450 Y28.03318
X28.78323 Y28.24664
X28.78516 Y28.50351
X28.92552 Y28.62114
X29.08036 Y28.80783
X29.19445 Y29.02182
X29.26314 Y29.25443
X29.27949 Y29.57689
X29.25498 Y29.73688
X29.17848 Y29.96701
X29.05722 Y30.17706
X28.83477 Y30.41107
X28.63111 Y30.54287
X28.48234 Y30.60671
X28.24660 Y30.66350
X27.68856 Y30.67579
X25.14514 Y30.67579
X24.85527 Y30.63876
X24.65707 Y30.57208
X24.47491 Y30.46942
X24.25339 Y30.27877
X24.12873 Y30.11090
X24.01890 Y29.88573
X23.95174 Y29.60127
X23.95174 Y29.35037
X23.99307 Y29.14544
X24.10592 Y28.87582
X24.25339 Y28.67285
X24.40732 Y28.53135
X24.65707 Y28.37956
X24.85527 Y28.31288
X25.14514 Y28.27580
X26.11951 Y28.27580
X25.53238 Y27.68868
X25.26756 Y27.63229
X25.03749 Y27.53224
X24.79594 Y27.36754
X24.59393 Y27.15624
X24.40620 Y26.83112
X24.34161 Y26.63229
X24.30661 Y26.38291
X24.18098 Y26.25457
X24.05037 Y26.08330
X23.95565 Y25.88980
X23.91583 Y25.75848
X23.88514 Y25.50580
X23.88514 Y19.83076
X23.91583 Y19.57813
X23.95565 Y19.44681
X24.04516 Y19.26309
X24.04516 Y19.14968
X23.99307 Y19.01120
X23.94953 Y18.76444
X23.95174 Y18.55537
X24.01890 Y18.27094
X24.12875 Y18.04567
X24.25339 Y17.87785
X24.40732 Y17.73635
X24.65707 Y17.58456
X24.93698 Y17.50051
X25.14514 Y17.48080
X28.12560 Y17.48286
X28.28666 Y17.49924
X28.52039 Y17.56401
X28.73629 Y17.67450
X28.92552 Y17.82614
X29.08036 Y18.01283
X29.19445 Y18.22682
X29.26314 Y18.45943
X29.28358 Y18.70104
G04 P0 ( dwell for no time -- G64 should not smooth over this point )
G00 Z5.00000 ( retract )

G00 X31.42076 Y16.05718 ( rapid move to begin. )
F300.00000
G01 Z-0.10000
G04 P0 ( dwell for no time -- G64 should not smooth over this point )
F600.00000
G01 X31.42076 Y16.05718
X31.41858 Y16.26627
X31.35142 Y16.55073
X31.24159 Y16.77590
X31.11693 Y16.94377
X30.89542 Y17.13442
X30.71325 Y17.23708
X30.43329 Y17.32113
X30.22514 Y17.34079
X27.28514 Y17.34079
X27.00434 Y17.30607
X26.84991 Y17.25761
X26.63401 Y17.14712
X26.38900 Y16.93678
X26.24714 Y16.74013
X26.14772 Y16.51887
X26.10716 Y16.36218
X26.08671 Y16.12058
X26.11531 Y15.87973
X26.19182 Y15.64961
X26.36263 Y15.37554
X26.53553 Y15.20554
X26.73919 Y15.07374
X26.96515 Y14.98571
X27.20236 Y14.94494
X30.22514 Y14.94080
X30.51505 Y14.97788
X30.71325 Y15.04456
X30.89542 Y15.14722
X31.11693 Y15.33785
X31.26440 Y15.54082
X31.35142 Y15.73094
X31.42076 Y16.05718
G04 P0 ( dwell for no time -- G64 should not smooth over this point )
G00 Z5.00000 ( retract )

G00 X32.89513 Y5.98080 ( rapid move to begin. )
F300.00000
G01 Z-0.10000
G04 P0 ( dwell for no time -- G64 should not smooth over this point )
F600.00000
G01 X32.89513 Y5.98080
X32.85371 Y5.64933
X32.77410 Y5.41138
X32.69513 Y5.27026
X32.69513 Y4.56660
X32.67786 Y4.37135
X32.61705 Y4.14438
X32.51312 Y3.93366
X32.37006 Y3.74720
X32.09999 Y3.47440
X31.97878 Y3.26185
X31.85292 Y3.11154
X31.30466 Y2.56597
X31.11823 Y2.42289
X30.90743 Y2.31893
X30.68051 Y2.25815
X30.48516 Y2.24080
X25.10330 Y2.24301
X24.93698 Y2.26051
X24.69622 Y2.32955
X24.47491 Y2.44722
X24.22705 Y2.67039
X24.10592 Y2.84082
X24.01890 Y3.03094
X23.95174 Y3.31537
X23.95174 Y3.56627
X23.99307 Y3.77120
X24.08692 Y4.00351
X24.25339 Y4.24377
X24.40732 Y4.38529
X24.65707 Y4.53708
X24.85527 Y4.60376
X25.14514 Y4.64079
X29.95008 Y4.64082
X30.03001 Y4.77402
X30.29516 Y5.06365
X30.29516 Y5.27026
X30.21620 Y5.41138
X30.13659 Y5.64933
X30.09735 Y5.93896
X30.11922 Y6.23055
X30.21620 Y6.55024
X30.38892 Y6.83624
X30.59092 Y7.04754
X30.83248 Y7.21224
X31.06255 Y7.31229
X31.39061 Y7.37531
X31.68284 Y7.36657
X31.96684 Y7.29728
X32.23029 Y7.17040
X32.39940 Y7.04752
X32.60138 Y6.83624
X32.75508 Y6.58755
X32.85371 Y6.31229
X32.89513 Y5.98080
G04 P0 ( dwell for no time -- G64 should not smooth over this point )
G00 Z5.00000 ( retract )

G00 X29.28358 Y6.00104 ( rapid move to begin. )
F300.00000
G01 Z-0.10000
G04 P0 ( dwell for no time -- G64 should not smooth over this point )
F600.00000
G01 X29.28358 Y6.00104
X29.25498 Y6.24188
X29.17848 Y6.47201
X29.00766 Y6.74607
X28.83477 Y6.91607
X28.63111 Y7.04787
X28.48234 Y7.11171
X28.24660 Y7.16850
X27.28702 Y7.18079
X27.08364 Y7.16238
X26.77554 Y7.06568
X26.63401 Y6.98712
X26.49758 Y6.88079
X23.24014 Y6.88079
X23.10343 Y6.86929
X22.93272 Y6.82552
X22.77384 Y6.74932
X22.63290 Y6.64363
X21.96876 Y5.98222
X21.83666 Y5.81216
X21.73199 Y5.55946
X21.70514 Y5.34580
X21.70514 Y2.01359
X21.49236 Y1.80082
X16.23022 Y1.80079
X16.20469 Y1.90387
X16.11798 Y2.03364
X15.98821 Y2.12035
X15.91318 Y2.14311
X14.05712 Y2.14311
X13.98209 Y2.12035
X13.85232 Y2.03364
X13.76561 Y1.90387
X13.74285 Y1.82884
X13.73515 Y0.05081
X13.76561 Y-0.10225
X13.85232 Y-0.23202
X13.98209 Y-0.31873
X14.05712 Y-0.34149
X15.83512 Y-0.34919
X15.98821 Y-0.31873
X16.11798 Y-0.23202
X16.20469 Y-0.10225
X16.23022 Y0.00082
X21.86516 Y0.00080
X22.00201 Y0.01238
X22.17262 Y0.05609
X22.33153 Y0.13232
X22.47250 Y0.23806
X23.24156 Y1.00443
X23.37366 Y1.17451
X23.47831 Y1.42716
X23.50513 Y1.64080
X23.50516 Y4.97300
X23.61296 Y5.08080
X26.49443 Y5.08082
X26.73919 Y4.91374
X26.88796 Y4.84991
X27.12369 Y4.79312
X28.08326 Y4.78082
X28.28666 Y4.79924
X28.52039 Y4.86401
X28.73629 Y4.97450
X28.98130 Y5.18484
X29.12316 Y5.38148
X29.22257 Y5.60274
X29.26314 Y5.75943
X29.28358 Y6.00104
G04 P0 ( dwell for no time -- G64 should not smooth over this point )
G00 Z5.00000 ( retract )

G00 X21.66513 Y2.64080 ( rapid move to begin. )
F300.00000
G01 Z-0.10000
G04 P0 ( dwell for no time -- G64 should not smooth over this point )
F600.00000
G01 X21.66513 Y2.64080
X21.65746 Y4.31885
X21.63470 Y4.39388
X21.54799 Y4.52365
X21.41822 Y4.61036
X21.34319 Y4.63312
X18.78711 Y4.63312
X18.71208 Y4.61036
X18.58231 Y4.52365
X18.53258 Y4.46304
X18.47949 Y4.34082
X15.84820 Y4.34079
X15.62616 Y4.51229
X15.32011 Y4.64361
X15.00546 Y4.69027
X14.77353 Y4.67130
X14.45585 Y4.57165
X14.23904 Y4.44194
X14.05280 Y4.27127
X13.94752 Y4.13528
X13.82895 Y3.91212
X13.74549 Y3.58977
X13.74087 Y3.33716
X13.78720 Y3.08890
X13.88260 Y2.85489
X14.02309 Y2.64496
X14.20299 Y2.46757
X14.41493 Y2.33003
X14.65019 Y2.23800
X14.87886 Y2.19571
X15.19677 Y2.21032
X15.44002 Y2.27803
X15.66481 Y2.39343
X15.84907 Y2.54080
X18.47949 Y2.54080
X18.53258 Y2.41857
X18.58231 Y2.35797
X18.71208 Y2.27125
X18.78711 Y2.24849
X21.26513 Y2.24080
X21.41822 Y2.27125
X21.54799 Y2.35797
X21.63470 Y2.48774
X21.66513 Y2.64080
G04 P0 ( dwell for no time -- G64 should not smooth over this point )
G00 Z5.00000 ( retract )

G00 X13.69352 Y0.92358 ( rapid move to begin. )
F300.00000
G01 Z-0.10000
G04 P0 ( dwell for no time -- G64 should not smooth over this point )
F600.00000
G01 X13.69352 Y0.92358
X13.66337 Y1.17446
X13.58339 Y1.41400
X13.40721 Y1.69665
X13.22730 Y1.87405
X13.01537 Y2.01159
X12.85730 Y2.07941
X12.61166 Y2.13823
X12.46546 Y2.15027
X12.23353 Y2.13130
X11.99027 Y2.06358
X11.76548 Y1.94819
X11.58123 Y1.80079
X8.37298 Y1.80082
X8.26516 Y1.90864
X8.26516 Y2.64956
X8.36369 Y2.77717
X8.47446 Y2.98682
X8.54509 Y3.22738
X8.56292 Y3.51209
X8.52368 Y3.75306
X8.45406 Y3.94346
X8.39003 Y4.06383
X8.30491 Y4.18669
X8.16559 Y4.33409
X7.93217 Y4.49810
X7.63321 Y4.61019
X7.36514 Y4.64079
X3.55514 Y4.64079
X3.35364 Y4.62238
X3.03322 Y4.52004
X2.83761 Y4.40092
X2.71478 Y4.29548
X2.53340 Y4.06998
X2.40513 Y3.78039
X2.36286 Y3.57580
X2.36075 Y3.32617
X2.39669 Y3.12832
X2.48392 Y2.90036
X2.61554 Y2.69475
X2.75460 Y2.54763
X2.95184 Y2.40409
X3.08839 Y2.33579
X3.28727 Y2.27143
X3.53484 Y2.24133
X6.46514 Y2.24080
X6.47672 Y1.39899
X6.52043 Y1.22838
X6.59666 Y1.06948
X6.72876 Y0.89942
X7.39285 Y0.23806
X7.62025 Y0.08612
X7.78652 Y0.02765
X8.00014 Y0.00080
X11.58209 Y0.00082
X11.80414 Y-0.17068
X12.11019 Y-0.30200
X12.42484 Y-0.34866
X12.65677 Y-0.32968
X12.97445 Y-0.23004
X13.19126 Y-0.10032
X13.37749 Y0.07034
X13.48278 Y0.20633
X13.60134 Y0.42950
X13.67254 Y0.67179
X13.69352 Y0.92358
G04 P0 ( dwell for no time -- G64 should not smooth over this point )
G00 Z5.00000 ( retract )

G00 X13.69352 Y3.46358 ( rapid move to begin. )
F300.00000
G01 Z-0.10000
G04 P0 ( dwell for no time -- G64 should not smooth over this point )
F600.00000
G01 X13.69352 Y3.46358
X13.66337 Y3.71446
X13.58339 Y3.95400
X13.40721 Y4.23665
X13.22730 Y4.41405
X13.08616 Y4.51229
X12.78011 Y4.64361
X12.46546 Y4.69027
X12.15436 Y4.65504
X11.91585 Y4.57165
X11.76548 Y4.48819
X11.58123 Y4.34079
X10.84598 Y4.34079
X8.54050 Y6.64358
X8.39953 Y6.74932
X8.20392 Y6.83667
X8.08357 Y6.94170
X7.93217 Y7.03810
X7.63321 Y7.15019
X7.36514 Y7.18079
X3.55514 Y7.18079
X3.35364 Y7.16238
X3.03322 Y7.06004
X2.83761 Y6.94092
X2.71478 Y6.83548
X2.53340 Y6.60998
X2.40513 Y6.32039
X2.36286 Y6.11580
X2.35740 Y5.90927
X2.39669 Y5.66832
X2.46621 Y5.47828
X2.59044 Y5.26817
X2.68117 Y5.15933
X2.83693 Y5.01979
X3.05117 Y4.89205
X3.28727 Y4.81143
X3.55514 Y4.78080
X7.36514 Y4.78080
X7.56666 Y4.79924
X7.78271 Y4.85847
X9.83678 Y2.80442
X10.00684 Y2.67232
X10.25954 Y2.56765
X10.47316 Y2.54080
X11.58209 Y2.54082
X11.80414 Y2.36932
X12.11019 Y2.23800
X12.42484 Y2.19134
X12.73594 Y2.22657
X12.97445 Y2.30996
X13.12481 Y2.39343
X13.32177 Y2.55172
X13.48278 Y2.74633
X13.62941 Y3.04529
X13.67254 Y3.21179
X13.69352 Y3.46358
G04 P0 ( dwell for no time -- G64 should not smooth over this point )
G00 Z5.00000 ( retract )

G00 X13.69352 Y6.00358 ( rapid move to begin. )
F300.00000
G01 Z-0.10000
G04 P0 ( dwell for no time -- G64 should not smooth over this point )
F600.00000
G01 X13.69352 Y6.00358
X13.64310 Y6.33271
X13.58339 Y6.49400
X13.45672 Y6.71267
X13.22730 Y6.95405
X13.01537 Y7.09159
X12.85730 Y7.15941
X12.61166 Y7.21823
X12.46546 Y7.23027
X12.15436 Y7.19504
X11.91585 Y7.11165
X11.76548 Y7.02819
X11.58123 Y6.88079
X11.54796 Y6.88079
X9.27156 Y9.15722
X9.10151 Y9.28932
X8.84880 Y9.39400
X8.63514 Y9.42079
X8.15792 Y9.42079
X7.96834 Y9.55760
X7.83181 Y9.62590
X7.63321 Y9.69019
X7.46638 Y9.71617
X3.51467 Y9.71876
X3.35364 Y9.70238
X3.11991 Y9.63761
X2.82133 Y9.46888
X2.65900 Y9.31678
X2.55994 Y9.18879
X2.44584 Y8.97480
X2.40513 Y8.86039
X2.36286 Y8.65580
X2.36075 Y8.40617
X2.41031 Y8.16164
X2.50934 Y7.93266
X2.65364 Y7.72913
X2.83693 Y7.55979
X3.05117 Y7.43205
X3.28727 Y7.35143
X3.55514 Y7.32080
X7.40700 Y7.32301
X7.57334 Y7.34051
X7.81411 Y7.40955
X8.03542 Y7.52722
X8.15381 Y7.62082
X8.26237 Y7.62080
X10.53876 Y5.34442
X10.64362 Y5.25588
X10.86772 Y5.13609
X11.03833 Y5.09238
X11.58209 Y5.08082
X11.80414 Y4.90932
X12.11019 Y4.77800
X12.42484 Y4.73134
X12.65677 Y4.75032
X12.97445 Y4.84996
X13.19126 Y4.97968
X13.37749 Y5.15034
X13.52563 Y5.35509
X13.60134 Y5.50950
X13.67254 Y5.75179
X13.69352 Y6.00358
G04 P0 ( dwell for no time -- G64 should not smooth over this point )
G00 Z5.00000 ( retract )

G00 X13.69352 Y8.54358 ( rapid move to begin. )
F300.00000
G01 Z-0.10000
G04 P0 ( dwell for no time -- G64 should not smooth over this point )
F600.00000
G01 X13.69352 Y8.54358
X13.66337 Y8.79446
X13.58339 Y9.03400
X13.45672 Y9.25267
X13.34516 Y9.38196
X13.34323 Y10.46499
X13.31834 Y10.63946
X13.25987 Y10.80573
X13.17010 Y10.95737
X13.08156 Y11.06222
X12.44656 Y11.69722
X12.27651 Y11.82932
X12.02380 Y11.93400
X11.81014 Y11.96079
X8.15792 Y11.96079
X7.96834 Y12.09760
X7.83181 Y12.16590
X7.63321 Y12.23019
X7.38546 Y12.26029
X3.51467 Y12.25876
X3.35364 Y12.24238
X3.11991 Y12.17761
X2.83761 Y12.02092
X2.71478 Y11.91548
X2.55994 Y11.72879
X2.44584 Y11.51480
X2.40513 Y11.40039
X2.36286 Y11.19580
X2.36593 Y10.90596
X2.42362 Y10.66339
X2.53025 Y10.43784
X2.68117 Y10.23933
X2.86987 Y10.07637
X3.08839 Y9.95579
X3.21412 Y9.91063
X3.41229 Y9.86974
X7.36514 Y9.86080
X7.57334 Y9.88051
X7.81411 Y9.94955
X8.03542 Y10.06722
X8.15381 Y10.16082
X11.43737 Y10.16080
X11.54514 Y10.05303
X11.54514 Y9.38531
X11.36467 Y9.14652
X11.26089 Y8.91632
X11.20549 Y8.66977
X11.20087 Y8.41716
X11.22693 Y8.24716
X11.34260 Y7.93489
X11.48309 Y7.72496
X11.60158 Y7.60030
X11.87493 Y7.41003
X12.11019 Y7.31800
X12.42484 Y7.27134
X12.65677 Y7.29032
X12.97445 Y7.38996
X13.19126 Y7.51968
X13.37749 Y7.69034
X13.52563 Y7.89509
X13.60134 Y8.04950
X13.67254 Y8.29179
X13.69352 Y8.54358
G04 P0 ( dwell for no time -- G64 should not smooth over this point )
G00 Z5.00000 ( retract )

G00 X21.66358 Y6.00104 ( rapid move to begin. )
F300.00000
G01 Z-0.10000
G04 P0 ( dwell for no time -- G64 should not smooth over this point )
F600.00000
G01 X21.66358 Y6.00104
X21.63498 Y6.24188
X21.55848 Y6.47201
X21.38766 Y6.74607
X21.21477 Y6.91607
X21.01111 Y7.04787
X20.86234 Y7.11171
X20.62660 Y7.16850
X19.66702 Y7.18079
X19.46364 Y7.16238
X19.15554 Y7.06568
X19.01401 Y6.98712
X18.87758 Y6.88079
X15.84820 Y6.88079
X15.62616 Y7.05229
X15.39730 Y7.15941
X15.15166 Y7.21823
X15.00546 Y7.23027
X14.77353 Y7.21130
X14.53027 Y7.14358
X14.30548 Y7.02819
X14.10853 Y6.86990
X13.94752 Y6.67528
X13.82895 Y6.45212
X13.75776 Y6.20983
X13.73678 Y5.95804
X13.76693 Y5.70716
X13.84691 Y5.46761
X13.97358 Y5.24895
X14.14158 Y5.06030
X14.34414 Y4.90932
X14.57300 Y4.80221
X14.81864 Y4.74338
X14.96484 Y4.73134
X15.19677 Y4.75032
X15.44002 Y4.81803
X15.66481 Y4.93343
X15.84907 Y5.08080
X18.87443 Y5.08082
X19.11919 Y4.91374
X19.26796 Y4.84991
X19.50369 Y4.79312
X20.46326 Y4.78082
X20.66666 Y4.79924
X20.90039 Y4.86401
X21.11629 Y4.97450
X21.36130 Y5.18484
X21.50316 Y5.38148
X21.60257 Y5.60274
X21.64314 Y5.75943
X21.66358 Y6.00104
G04 P0 ( dwell for no time -- G64 should not smooth over this point )
G00 Z5.00000 ( retract )

G00 X21.66358 Y8.54104 ( rapid move to begin. )
F300.00000
G01 Z-0.10000
G04 P0 ( dwell for no time -- G64 should not smooth over this point )
F600.00000
G01 X21.66358 Y8.54104
X21.63498 Y8.78188
X21.55848 Y9.01201
X21.38766 Y9.28607
X21.21477 Y9.45607
X21.01111 Y9.58787
X20.86234 Y9.65171
X20.62660 Y9.70850
X19.66702 Y9.72079
X19.46364 Y9.70238
X19.15554 Y9.60568
X19.01401 Y9.52712
X18.87758 Y9.42079
X15.84820 Y9.42079
X15.62616 Y9.59229
X15.39730 Y9.69941
X15.15166 Y9.75823
X15.00546 Y9.77027
X14.77353 Y9.75130
X14.53027 Y9.68358
X14.30548 Y9.56819
X14.10853 Y9.40990
X13.94752 Y9.21528
X13.82895 Y8.99212
X13.75776 Y8.74983
X13.73678 Y8.49804
X13.76693 Y8.24716
X13.84691 Y8.00761
X13.97358 Y7.78895
X14.14158 Y7.60030
X14.34414 Y7.44932
X14.57300 Y7.34221
X14.81864 Y7.28338
X14.96484 Y7.27134
X15.19677 Y7.29032
X15.44002 Y7.35803
X15.66481 Y7.47343
X15.84907 Y7.62080
X18.87443 Y7.62082
X19.11919 Y7.45374
X19.26796 Y7.38991
X19.50369 Y7.33312
X20.46326 Y7.32082
X20.66666 Y7.33924
X20.90039 Y7.40401
X21.11629 Y7.51450
X21.36130 Y7.72484
X21.50316 Y7.92148
X21.60257 Y8.14274
X21.64314 Y8.29943
X21.66358 Y8.54104
G04 P0 ( dwell for no time -- G64 should not smooth over this point )
G00 Z5.00000 ( retract )

G00 X21.66358 Y11.08104 ( rapid move to begin. )
F300.00000
G01 Z-0.10000
G04 P0 ( dwell for no time -- G64 should not smooth over this point )
F600.00000
G01 X21.66358 Y11.08104
X21.63498 Y11.32188
X21.55848 Y11.55201
X21.38766 Y11.82607
X21.21477 Y11.99607
X21.01111 Y12.12787
X20.86234 Y12.19171
X20.62660 Y12.24850
X19.66702 Y12.26079
X19.46364 Y12.24238
X19.15554 Y12.14568
X19.01401 Y12.06712
X18.87758 Y11.96079
X16.04800 Y11.96079
X15.88513 Y12.12366
X15.88516 Y12.35574
X15.98821 Y12.38127
X16.11798 Y12.46798
X16.20469 Y12.59775
X16.23512 Y12.75081
X16.23512 Y14.45078
X16.20469 Y14.60387
X16.11798 Y14.73364
X15.98821 Y14.82035
X15.83512 Y14.85078
X14.13515 Y14.85078
X13.98209 Y14.82035
X13.91293 Y14.78337
X13.85232 Y14.73364
X13.76561 Y14.60387
X13.73515 Y14.45078
X13.74285 Y12.67278
X13.76561 Y12.59775
X13.85232 Y12.46798
X13.98209 Y12.38127
X14.08514 Y12.35574
X14.08709 Y11.71154
X14.14043 Y11.44340
X14.21666 Y11.28449
X14.34876 Y11.11444
X15.03878 Y10.42442
X15.14363 Y10.33588
X15.29527 Y10.24612
X15.46154 Y10.18765
X15.67515 Y10.16080
X18.87443 Y10.16082
X19.11919 Y9.99374
X19.26796 Y9.92991
X19.50369 Y9.87312
X20.46326 Y9.86082
X20.66666 Y9.87924
X20.90039 Y9.94401
X21.11629 Y10.05450
X21.36130 Y10.26484
X21.50316 Y10.46148
X21.60257 Y10.68274
X21.64314 Y10.83943
X21.66358 Y11.08104
G04 P0 ( dwell for no time -- G64 should not smooth over this point )
G00 Z5.00000 ( retract )

G00 X18.16999 Y18.04440 ( rapid move to begin. )
F300.00000
G01 Z-0.10000
G04 P0 ( dwell for no time -- G64 should not smooth over this point )
F600.00000
G01 X18.16999 Y18.04440
X19.04825 Y17.16614
X19.22991 Y17.25761
X19.46364 Y17.32238
X19.66702 Y17.34079
X20.62660 Y17.32850
X20.86234 Y17.27171
X21.08192 Y17.16856
X21.27613 Y17.02339
X21.38766 Y16.90607
X21.52284 Y16.70470
X21.61469 Y16.48022
X21.65949 Y16.24189
X21.64314 Y15.91943
X21.57445 Y15.68682
X21.50316 Y15.54148
X21.30552 Y15.28614
X21.18269 Y15.18070
X20.97476 Y15.05594
X20.66666 Y14.95924
X20.46326 Y14.94082
X19.58236 Y14.94494
X19.26796 Y15.00991
X19.04837 Y15.11306
X18.87443 Y15.24082
X18.58714 Y15.26765
X18.42087 Y15.32612
X18.26923 Y15.41588
X18.16438 Y15.50442
X16.89156 Y16.77722
X19.04464 Y14.62414
X19.22991 Y14.71761
X19.46364 Y14.78238
X19.66702 Y14.80079
X20.54794 Y14.79668
X20.78515 Y14.75591
X21.01111 Y14.66787
X21.27613 Y14.48339
X21.43722 Y14.30206
X21.52284 Y14.16470
X21.61469 Y13.94022
X21.65949 Y13.70189
X21.64314 Y13.37943
X21.57445 Y13.14682
X21.50316 Y13.00148
X21.36130 Y12.80484
X21.18269 Y12.64070
X20.97476 Y12.51594
X20.74596 Y12.43555
X20.50560 Y12.40286
X19.50369 Y12.41312
X19.26796 Y12.46991
X19.11919 Y12.53374
X18.87443 Y12.70082
X18.65833 Y12.71238
X18.41525 Y12.78612
X18.26362 Y12.87588
X18.15876 Y12.96442
X15.88237 Y15.24080
X15.84907 Y15.24080
X15.66481 Y15.09343
X15.44002 Y14.97803
X15.19677 Y14.91032
X14.96484 Y14.89134
X14.81864 Y14.90338
X14.57300 Y14.96221
X14.34414 Y15.06932
X14.14158 Y15.22030
X14.02309 Y15.34496
X13.88260 Y15.55489
X13.78720 Y15.78890
X13.74087 Y16.03716
X13.74549 Y16.28977
X13.82895 Y16.61212
X13.94752 Y16.83528
X14.10853 Y17.02990
X14.30548 Y17.18819
X14.53027 Y17.30358
X14.69436 Y17.35504
X14.94462 Y17.38872
X15.09143 Y17.38590
X15.32011 Y17.34361
X15.62616 Y17.21229
X15.84820 Y17.04079
X16.25514 Y17.04079
X16.46880 Y17.01400
X16.72151 Y16.90932
X16.89156 Y16.77722
X15.88798 Y17.78080
X15.84907 Y17.78080
X15.66481 Y17.63343
X15.44002 Y17.51803
X15.19677 Y17.45032
X14.87886 Y17.43571
X14.57300 Y17.50221
X14.34414 Y17.60932
X14.14158 Y17.76030
X13.97358 Y17.94895
X13.84691 Y18.16761
X13.76693 Y18.40716
X13.74087 Y18.57716
X13.74549 Y18.82977
X13.80089 Y19.07632
X13.94752 Y19.37528
X14.10853 Y19.56990
X14.30548 Y19.72819
X14.53027 Y19.84358
X14.77353 Y19.91130
X15.00546 Y19.93027
X15.15166 Y19.91823
X15.39730 Y19.85941
X15.55537 Y19.79159
X15.76730 Y19.65405
X15.84820 Y19.58079
X16.39750 Y19.56929
X16.64068 Y19.49553
X16.79232 Y19.40576
X16.89717 Y19.31722
X18.16999 Y18.04440
X18.27482 Y17.95588
X18.42645 Y17.86612
X18.59272 Y17.80765
X18.87443 Y17.78082
X19.11919 Y17.61374
X19.26796 Y17.54991
X19.50369 Y17.49312
X20.50560 Y17.48286
X20.74596 Y17.51555
X20.97476 Y17.59594
X21.18269 Y17.72070
X21.36130 Y17.88484
X21.50316 Y18.08148
X21.57445 Y18.22682
X21.64314 Y18.45943
X21.65949 Y18.78189
X21.63498 Y18.94188
X21.55848 Y19.17201
X21.43722 Y19.38206
X21.21477 Y19.61607
X21.01111 Y19.74787
X20.86234 Y19.81171
X20.54794 Y19.87668
X19.66702 Y19.88079
X19.46364 Y19.86238
X19.22991 Y19.79761
X19.05185 Y19.70812
X16.90276 Y21.85722
X16.79791 Y21.94576
X16.64627 Y22.03553
X16.40309 Y22.10929
X15.84820 Y22.12079
X15.62616 Y22.29229
X15.39730 Y22.39941
X15.15166 Y22.45823
X15.00546 Y22.47027
X14.77353 Y22.45130
X14.53027 Y22.38358
X14.30548 Y22.26819
X14.10853 Y22.10990
X13.94752 Y21.91528
X13.82895 Y21.69212
X13.75776 Y21.44983
X13.73678 Y21.19804
X13.76693 Y20.94716
X13.84691 Y20.70761
X13.97358 Y20.48895
X14.14158 Y20.30030
X14.34414 Y20.14932
X14.57300 Y20.04221
X14.81864 Y19.98338
X14.96484 Y19.97134
X15.19677 Y19.99032
X15.44002 Y20.05803
X15.66481 Y20.17343
X15.84907 Y20.32080
X15.89357 Y20.32080
X16.89717 Y19.31722
G04 P0 ( dwell for no time -- G64 should not smooth over this point )
G00 Z5.00000 ( retract )

G00 X13.69352 Y13.62358 ( rapid move to begin. )
F300.00000
G01 Z-0.10000
G04 P0 ( dwell for no time -- G64 should not smooth over this point )
F600.00000
G01 X13.69352 Y13.62358
X13.66337 Y13.87446
X13.58339 Y14.11400
X13.45672 Y14.33267
X13.28872 Y14.52132
X13.08616 Y14.67229
X12.85730 Y14.77941
X12.61166 Y14.83823
X12.46546 Y14.85027
X12.23353 Y14.83130
X11.99027 Y14.76358
X11.76548 Y14.64819
X11.58123 Y14.50079
X8.15792 Y14.50079
X7.96834 Y14.63760
X7.83181 Y14.70590
X7.63321 Y14.77019
X7.38546 Y14.80029
X3.55514 Y14.80079
X3.35364 Y14.78238
X3.11991 Y14.71761
X2.90401 Y14.60712
X2.65900 Y14.39678
X2.51714 Y14.20013
X2.42715 Y14.01001
X2.36771 Y13.77329
X2.35633 Y13.57110
X2.38709 Y13.32907
X2.42362 Y13.20339
X2.50934 Y13.01266
X2.65364 Y12.80913
X2.78605 Y12.67999
X2.98831 Y12.54342
X3.21412 Y12.45063
X3.41229 Y12.40974
X7.36514 Y12.40080
X7.57334 Y12.42051
X7.81411 Y12.48955
X8.03542 Y12.60722
X8.15381 Y12.70082
X11.58209 Y12.70082
X11.80414 Y12.52932
X12.03300 Y12.42221
X12.27864 Y12.36338
X12.42484 Y12.35134
X12.65677 Y12.37032
X12.90002 Y12.43803
X13.12481 Y12.55343
X13.32177 Y12.71172
X13.48278 Y12.90633
X13.60134 Y13.12950
X13.67254 Y13.37179
X13.69352 Y13.62358
G04 P0 ( dwell for no time -- G64 should not smooth over this point )
G00 Z5.00000 ( retract )

G00 X13.69352 Y16.16358 ( rapid move to begin. )
F300.00000
G01 Z-0.10000
G04 P0 ( dwell for no time -- G64 should not smooth over this point )
F600.00000
G01 X13.69352 Y16.16358
X13.66337 Y16.41446
X13.58339 Y16.65400
X13.45672 Y16.87267
X13.28872 Y17.06132
X13.08616 Y17.21229
X12.85730 Y17.31941
X12.61166 Y17.37823
X12.46546 Y17.39027
X12.23353 Y17.37130
X11.99027 Y17.30358
X11.76548 Y17.18819
X11.58123 Y17.04079
X8.15792 Y17.04079
X7.96834 Y17.17760
X7.83181 Y17.24590
X7.63321 Y17.31019
X7.38546 Y17.34029
X3.55514 Y17.34079
X3.35364 Y17.32238
X3.11991 Y17.25761
X2.90401 Y17.14712
X2.65900 Y16.93678
X2.51714 Y16.74013
X2.42715 Y16.55001
X2.36771 Y16.31329
X2.35633 Y16.11110
X2.38709 Y15.86907
X2.42362 Y15.74339
X2.50934 Y15.55266
X2.65364 Y15.34913
X2.78605 Y15.21999
X2.98831 Y15.08342
X3.21412 Y14.99063
X3.41229 Y14.94974
X7.36514 Y14.94080
X7.57334 Y14.96051
X7.81411 Y15.02955
X8.03542 Y15.14722
X8.15381 Y15.24082
X11.58209 Y15.24082
X11.80414 Y15.06932
X12.03300 Y14.96221
X12.27864 Y14.90338
X12.42484 Y14.89134
X12.65677 Y14.91032
X12.90002 Y14.97803
X13.12481 Y15.09343
X13.32177 Y15.25172
X13.48278 Y15.44633
X13.60134 Y15.66950
X13.67254 Y15.91179
X13.69352 Y16.16358
G04 P0 ( dwell for no time -- G64 should not smooth over this point )
G00 Z5.00000 ( retract )

G00 X13.69352 Y18.70358 ( rapid move to begin. )
F300.00000
G01 Z-0.10000
G04 P0 ( dwell for no time -- G64 should not smooth over this point )
F600.00000
G01 X13.69352 Y18.70358
X13.66337 Y18.95446
X13.58339 Y19.19400
X13.45672 Y19.41267
X13.28872 Y19.60132
X13.08616 Y19.75229
X12.85730 Y19.85941
X12.61166 Y19.91823
X12.46546 Y19.93027
X12.23353 Y19.91130
X11.99027 Y19.84358
X11.76548 Y19.72819
X11.58123 Y19.58079
X8.15792 Y19.58079
X7.96834 Y19.71760
X7.83181 Y19.78590
X7.63321 Y19.85019
X7.38546 Y19.88029
X3.55514 Y19.88079
X3.35364 Y19.86238
X3.11991 Y19.79761
X2.90401 Y19.68712
X2.65900 Y19.47678
X2.51714 Y19.28013
X2.42715 Y19.09001
X2.36771 Y18.85329
X2.35633 Y18.65110
X2.38709 Y18.40907
X2.42362 Y18.28339
X2.50934 Y18.09266
X2.65364 Y17.88913
X2.78605 Y17.75999
X2.98831 Y17.62342
X3.21412 Y17.53063
X3.41229 Y17.48974
X7.36514 Y17.48080
X7.57334 Y17.50051
X7.81411 Y17.56955
X8.03542 Y17.68722
X8.15381 Y17.78082
X11.58209 Y17.78082
X11.80414 Y17.60932
X12.03300 Y17.50221
X12.27864 Y17.44338
X12.42484 Y17.43134
X12.65677 Y17.45032
X12.90002 Y17.51803
X13.12481 Y17.63343
X13.32177 Y17.79172
X13.48278 Y17.98633
X13.60134 Y18.20950
X13.67254 Y18.45179
X13.69352 Y18.70358
G04 P0 ( dwell for no time -- G64 should not smooth over this point )
G00 Z5.00000 ( retract )

G00 X13.69352 Y21.24358 ( rapid move to begin. )
F300.00000
G01 Z-0.10000
G04 P0 ( dwell for no time -- G64 should not smooth over this point )
F600.00000
G01 X13.69352 Y21.24358
X13.66337 Y21.49446
X13.58339 Y21.73400
X13.45672 Y21.95267
X13.28872 Y22.14132
X13.08616 Y22.29229
X12.85730 Y22.39941
X12.61166 Y22.45823
X12.46546 Y22.47027
X12.23353 Y22.45130
X11.99027 Y22.38358
X11.76548 Y22.26819
X11.58123 Y22.12079
X8.15792 Y22.12079
X7.96834 Y22.25760
X7.83181 Y22.32590
X7.63321 Y22.39019
X7.38546 Y22.42029
X3.55514 Y22.42079
X3.35364 Y22.40238
X3.11991 Y22.33761
X2.90401 Y22.22712
X2.65900 Y22.01678
X2.51714 Y21.82013
X2.42715 Y21.63001
X2.36771 Y21.39329
X2.35633 Y21.19110
X2.38709 Y20.94907
X2.42362 Y20.82339
X2.50934 Y20.63266
X2.65364 Y20.42913
X2.78605 Y20.29999
X2.98831 Y20.16342
X3.21412 Y20.07063
X3.41229 Y20.02974
X7.36514 Y20.02080
X7.57334 Y20.04051
X7.81411 Y20.10955
X8.03542 Y20.22722
X8.15381 Y20.32082
X11.58209 Y20.32082
X11.80414 Y20.14932
X12.03300 Y20.04221
X12.27864 Y19.98338
X12.42484 Y19.97134
X12.65677 Y19.99032
X12.90002 Y20.05803
X13.12481 Y20.17343
X13.32177 Y20.33172
X13.48278 Y20.52633
X13.60134 Y20.74950
X13.67254 Y20.99179
X13.69352 Y21.24358
G04 P0 ( dwell for no time -- G64 should not smooth over this point )
G00 Z5.00000 ( retract )

G00 X18.62516 Y23.63380 ( rapid move to begin. )
F300.00000
G01 Z-0.10000
G04 P0 ( dwell for no time -- G64 should not smooth over this point )
F600.00000
G01 X18.62516 Y23.63380
X18.60766 Y23.44642
X18.54507 Y23.22552
X18.38874 Y22.95475
X18.26120 Y22.81637
X18.11025 Y22.70400
X17.82465 Y22.57683
X17.64015 Y22.53984
X17.36885 Y22.54640
X17.14612 Y22.60268
X17.01244 Y22.66222
X16.89905 Y22.73382
X15.80215 Y22.73380
X15.66535 Y22.74538
X15.49474 Y22.78909
X15.27063 Y22.90888
X15.16578 Y22.99742
X14.34876 Y23.81444
X14.21666 Y23.98449
X14.14043 Y24.14340
X14.08709 Y24.41154
X14.08514 Y25.05574
X13.98209 Y25.08127
X13.85232 Y25.16798
X13.76561 Y25.29775
X13.74285 Y25.37278
X13.73515 Y27.15078
X13.76561 Y27.30387
X13.80259 Y27.37303
X13.85232 Y27.43364
X13.98209 Y27.52035
X14.13515 Y27.55078
X15.83512 Y27.55078
X15.91318 Y27.54311
X16.05737 Y27.48337
X16.11798 Y27.43364
X16.20469 Y27.30387
X16.23512 Y27.15078
X16.23512 Y25.45081
X16.20469 Y25.29775
X16.11798 Y25.16798
X15.98821 Y25.08127
X15.88516 Y25.05574
X15.88516 Y24.82366
X16.17500 Y24.53382
X16.89905 Y24.53379
X17.01244 Y24.60540
X17.18523 Y24.67995
X17.41020 Y24.72777
X17.64015 Y24.72777
X17.90423 Y24.66493
X18.03791 Y24.60540
X18.22864 Y24.47761
X18.43786 Y24.24528
X18.53006 Y24.08122
X18.59028 Y23.90291
X18.62516 Y23.63380
G04 P0 ( dwell for no time -- G64 should not smooth over this point )
G00 Z5.00000 ( retract )

G00 X13.69352 Y26.32358 ( rapid move to begin. )
F300.00000
G01 Z-0.10000
G04 P0 ( dwell for no time -- G64 should not smooth over this point )
F600.00000
G01 X13.69352 Y26.32358
X13.66337 Y26.57446
X13.58339 Y26.81400
X13.40721 Y27.09665
X13.22730 Y27.27405
X13.01537 Y27.41159
X12.78011 Y27.50361
X12.46546 Y27.55027
X12.15436 Y27.51504
X11.91585 Y27.43165
X11.76548 Y27.34819
X11.56853 Y27.18990
X11.36467 Y26.92652
X11.28895 Y26.77212
X11.21776 Y26.52983
X11.20087 Y26.19716
X11.24720 Y25.94890
X11.34260 Y25.71489
X11.43358 Y25.56895
X11.54514 Y25.43966
X11.54514 Y24.76862
X11.43734 Y24.66082
X8.30108 Y24.66079
X8.09417 Y24.83532
X7.89391 Y24.94842
X7.63542 Y25.03240
X7.36514 Y25.06079
X3.55514 Y25.06079
X3.32626 Y25.03895
X3.02641 Y24.94842
X2.82616 Y24.83532
X2.58910 Y24.63069
X2.45214 Y24.44594
X2.31879 Y24.16255
X2.26885 Y23.93804
X2.26009 Y23.66674
X2.30797 Y23.39956
X2.45214 Y23.07571
X2.58910 Y22.89095
X2.75854 Y22.73545
X3.06550 Y22.55821
X3.32621 Y22.48269
X3.55514 Y22.46080
X7.36514 Y22.46080
X7.67588 Y22.50007
X7.89391 Y22.57322
X8.09417 Y22.68632
X8.30105 Y22.86082
X11.81014 Y22.86080
X12.02380 Y22.88765
X12.27651 Y22.99232
X12.44656 Y23.12442
X13.08156 Y23.75942
X13.17015 Y23.86435
X13.25987 Y24.01594
X13.31831 Y24.18216
X13.34323 Y24.35663
X13.34516 Y25.43631
X13.48278 Y25.60633
X13.60134 Y25.82950
X13.67254 Y26.07179
X13.69352 Y26.32358
G04 P0 ( dwell for no time -- G64 should not smooth over this point )
G00 Z5.00000 ( retract )

G00 X11.20021 Y27.47674 ( rapid move to begin. )
F300.00000
G01 Z-0.10000
G04 P0 ( dwell for no time -- G64 should not smooth over this point )
F600.00000
G01 X11.20021 Y27.47674
X11.19147 Y27.74804
X11.14153 Y27.97255
X11.04999 Y28.18352
X10.87285 Y28.43871
X10.63417 Y28.64532
X10.40259 Y28.77044
X9.31263 Y29.85735
X9.14875 Y29.98722
X8.96346 Y30.08407
X8.68291 Y30.16607
X8.47423 Y30.17917
X8.22556 Y30.14864
X7.93440 Y30.04079
X7.85398 Y30.04079
X7.76689 Y30.07719
X7.54238 Y30.12713
X7.27108 Y30.13587
X7.00390 Y30.08801
X6.87636 Y30.04082
X6.56514 Y30.04079
X6.41208 Y30.01036
X6.28231 Y29.92365
X6.19559 Y29.79388
X6.16514 Y29.64079
X6.16514 Y29.33724
X6.08703 Y29.06978
X6.06514 Y28.84080
X6.06514 Y26.36082
X6.08703 Y26.13189
X6.16514 Y25.86442
X6.17283 Y25.42277
X6.19559 Y25.34774
X6.28231 Y25.21797
X6.41208 Y25.13125
X6.56514 Y25.10080
X7.06425 Y25.10080
X7.27108 Y25.06577
X7.45922 Y25.06577
X7.66608 Y25.10080
X8.16513 Y25.10080
X8.24319 Y25.10849
X8.33402 Y25.13971
X8.53069 Y25.10684
X8.78119 Y25.11121
X9.10341 Y25.19755
X9.32256 Y25.31898
X9.45256 Y25.42424
X10.40348 Y26.37207
X10.63417 Y26.49632
X10.87122 Y26.70095
X11.00818 Y26.88571
X11.12652 Y27.13000
X11.20021 Y27.47674
G04 P0 ( dwell for no time -- G64 should not smooth over this point )
G00 Z5.00000 ( retract )

G00 X11.11585 Y30.74425 ( rapid move to begin. )
F300.00000
G01 Z-0.10000
G04 P0 ( dwell for no time -- G64 should not smooth over this point )
F600.00000
G01 X11.11585 Y30.74425
X11.89822 Y29.96188
X12.15436 Y30.05504
X12.40462 Y30.08872
X12.55143 Y30.08590
X12.78011 Y30.04361
X13.08616 Y29.91229
X13.28872 Y29.76132
X13.45672 Y29.57267
X13.58339 Y29.35400
X13.66337 Y29.11446
X13.68943 Y28.94445
X13.68481 Y28.69185
X13.62941 Y28.44529
X13.52563 Y28.21509
X13.37749 Y28.01034
X13.19126 Y27.83968
X12.97445 Y27.70996
X12.73594 Y27.62657
X12.48567 Y27.59289
X12.33886 Y27.59571
X12.11019 Y27.63800
X11.87493 Y27.73003
X11.66299 Y27.86757
X11.56190 Y27.96206
X11.43902 Y27.99609
X11.28011 Y28.07232
X11.11006 Y28.20442
X8.83366 Y30.48080
X8.15381 Y30.48082
X8.03542 Y30.38722
X7.85325 Y30.28456
X7.65505 Y30.21788
X7.40700 Y30.18301
X3.45392 Y30.18545
X3.17429 Y30.24333
X2.98831 Y30.32342
X2.86987 Y30.39637
X2.65364 Y30.58913
X2.48392 Y30.84036
X2.39669 Y31.06832
X2.35740 Y31.30927
X2.36771 Y31.55329
X2.42715 Y31.79001
X2.55994 Y32.04879
X2.71170 Y32.23281
X2.88732 Y32.37579
X3.11991 Y32.49761
X3.35364 Y32.56238
X3.55514 Y32.58079
X7.38546 Y32.58029
X7.63321 Y32.55019
X7.83181 Y32.48590
X7.96834 Y32.41760
X8.15792 Y32.28079
X9.24562 Y32.27889
X9.42010 Y32.25400
X9.58637 Y32.19553
X9.73800 Y32.10576
X9.84286 Y32.01722
X11.11565 Y30.74442
X11.22050 Y30.65588
X11.37214 Y30.56612
X11.56071 Y30.50330
X11.66299 Y30.40757
X11.80414 Y30.30932
X12.03300 Y30.20221
X12.33886 Y30.13571
X12.65677 Y30.15032
X12.97445 Y30.24996
X13.19126 Y30.37968
X13.37749 Y30.55034
X13.52563 Y30.75509
X13.62941 Y30.98529
X13.68481 Y31.23185
X13.68943 Y31.48445
X13.64310 Y31.73271
X13.54770 Y31.96672
X13.40721 Y32.17665
X13.22730 Y32.35405
X13.08616 Y32.45229
X12.78011 Y32.58361
X12.55143 Y32.62590
X12.40462 Y32.62872
X12.15436 Y32.59504
X11.90183 Y32.50386
X9.84844 Y34.55722
X9.67839 Y34.68932
X9.51949 Y34.76555
X9.25121 Y34.81889
X8.30108 Y34.82079
X8.09417 Y34.99532
X7.89391 Y35.10842
X7.63542 Y35.19240
X7.40694 Y35.21861
X3.55514 Y35.22079
X3.28491 Y35.19240
X3.06550 Y35.12343
X2.75854 Y34.94619
X2.58910 Y34.79069
X2.45214 Y34.60594
X2.31879 Y34.32255
X2.26885 Y34.09804
X2.26009 Y33.82674
X2.31879 Y33.51909
X2.41033 Y33.30812
X2.58910 Y33.05095
X2.75854 Y32.89545
X3.02641 Y32.73322
X3.24444 Y32.66007
X3.55514 Y32.62080
X7.40700 Y32.62301
X7.67588 Y32.66007
X7.89391 Y32.73322
X8.09417 Y32.84632
X8.30105 Y33.02082
X8.83925 Y33.02080
X9.84286 Y32.01722
G04 P0 ( dwell for no time -- G64 should not smooth over this point )
G00 Z5.00000 ( retract )

G00 X13.69352 Y33.94358 ( rapid move to begin. )
F300.00000
G01 Z-0.10000
G04 P0 ( dwell for no time -- G64 should not smooth over this point )
F600.00000
G01 X13.69352 Y33.94358
X13.66337 Y34.19446
X13.58339 Y34.43400
X13.45672 Y34.65267
X13.34516 Y34.78196
X13.34323 Y35.86499
X13.31834 Y36.03946
X13.25987 Y36.20573
X13.17010 Y36.35737
X13.08156 Y36.46222
X12.44656 Y37.09722
X12.27651 Y37.22932
X12.02380 Y37.33400
X11.81014 Y37.36079
X8.15792 Y37.36079
X7.96834 Y37.49760
X7.83181 Y37.56590
X7.63321 Y37.63019
X7.38546 Y37.66029
X3.51467 Y37.65876
X3.35364 Y37.64238
X3.11991 Y37.57761
X2.83761 Y37.42092
X2.71478 Y37.31548
X2.55994 Y37.12879
X2.44584 Y36.91480
X2.40513 Y36.80039
X2.36286 Y36.59580
X2.36593 Y36.30596
X2.42362 Y36.06339
X2.53025 Y35.83784
X2.68117 Y35.63933
X2.86987 Y35.47637
X3.08839 Y35.35579
X3.21412 Y35.31063
X3.41229 Y35.26974
X7.36514 Y35.26080
X7.57334 Y35.28051
X7.81411 Y35.34955
X8.03542 Y35.46722
X8.15381 Y35.56082
X11.43737 Y35.56080
X11.54514 Y35.45303
X11.54514 Y34.78531
X11.36467 Y34.54652
X11.26089 Y34.31632
X11.20549 Y34.06977
X11.20087 Y33.81716
X11.22693 Y33.64716
X11.34260 Y33.33489
X11.48309 Y33.12496
X11.60158 Y33.00030
X11.87493 Y32.81003
X12.11019 Y32.71800
X12.42484 Y32.67134
X12.65677 Y32.69032
X12.97445 Y32.78996
X13.19126 Y32.91968
X13.37749 Y33.09034
X13.52563 Y33.29509
X13.60134 Y33.44950
X13.67254 Y33.69179
X13.69352 Y33.94358
G04 P0 ( dwell for no time -- G64 should not smooth over this point )
G00 Z5.00000 ( retract )

G00 X13.69352 Y39.02358 ( rapid move to begin. )
F300.00000
G01 Z-0.10000
G04 P0 ( dwell for no time -- G64 should not smooth over this point )
F600.00000
G01 X13.69352 Y39.02358
X13.66337 Y39.27446
X13.58339 Y39.51400
X13.45672 Y39.73267
X13.28872 Y39.92132
X13.08616 Y40.07229
X12.85730 Y40.17941
X12.61166 Y40.23823
X12.46546 Y40.25027
X12.23353 Y40.23130
X11.99027 Y40.16358
X11.76548 Y40.04819
X11.58123 Y39.90079
X8.15792 Y39.90079
X7.96834 Y40.03760
X7.83181 Y40.10590
X7.63321 Y40.17019
X7.38546 Y40.20029
X3.55514 Y40.20079
X3.35364 Y40.18238
X3.11991 Y40.11761
X2.90401 Y40.00712
X2.65900 Y39.79678
X2.51714 Y39.60013
X2.42715 Y39.41001
X2.36771 Y39.17329
X2.35633 Y38.97110
X2.38709 Y38.72907
X2.42362 Y38.60339
X2.50934 Y38.41266
X2.65364 Y38.20913
X2.78605 Y38.07999
X2.98831 Y37.94342
X3.21412 Y37.85063
X3.41229 Y37.80974
X7.36514 Y37.80080
X7.57334 Y37.82051
X7.81411 Y37.88955
X8.03542 Y38.00722
X8.15381 Y38.10082
X11.58209 Y38.10082
X11.80414 Y37.92932
X12.03300 Y37.82221
X12.27864 Y37.76338
X12.42484 Y37.75134
X12.65677 Y37.77032
X12.90002 Y37.83803
X13.12481 Y37.95343
X13.32177 Y38.11172
X13.48278 Y38.30633
X13.60134 Y38.52950
X13.67254 Y38.77179
X13.69352 Y39.02358
G04 P0 ( dwell for no time -- G64 should not smooth over this point )
G00 Z5.00000 ( retract )

G00 X13.69352 Y41.56358 ( rapid move to begin. )
F300.00000
G01 Z-0.10000
G04 P0 ( dwell for no time -- G64 should not smooth over this point )
F600.00000
G01 X13.69352 Y41.56358
X13.66337 Y41.81446
X13.58339 Y42.05400
X13.45672 Y42.27267
X13.28872 Y42.46132
X13.08616 Y42.61229
X12.85730 Y42.71941
X12.61166 Y42.77823
X12.46546 Y42.79027
X12.23353 Y42.77130
X11.99027 Y42.70358
X11.76548 Y42.58819
X11.58123 Y42.44079
X8.15792 Y42.44079
X7.96834 Y42.57760
X7.83181 Y42.64590
X7.63321 Y42.71019
X7.38546 Y42.74029
X3.55514 Y42.74079
X3.35364 Y42.72238
X3.11991 Y42.65761
X2.90401 Y42.54712
X2.65900 Y42.33678
X2.51714 Y42.14013
X2.42715 Y41.95001
X2.36771 Y41.71329
X2.35633 Y41.51110
X2.38709 Y41.26907
X2.42362 Y41.14339
X2.50934 Y40.95266
X2.65364 Y40.74913
X2.78605 Y40.61999
X2.98831 Y40.48342
X3.21412 Y40.39063
X3.41229 Y40.34974
X7.36514 Y40.34080
X7.57334 Y40.36051
X7.81411 Y40.42955
X8.03542 Y40.54722
X8.15381 Y40.64082
X11.58209 Y40.64082
X11.80414 Y40.46932
X12.03300 Y40.36221
X12.27864 Y40.30338
X12.42484 Y40.29134
X12.65677 Y40.31032
X12.90002 Y40.37803
X13.12481 Y40.49343
X13.32177 Y40.65172
X13.48278 Y40.84633
X13.60134 Y41.06950
X13.67254 Y41.31179
X13.69352 Y41.56358
G04 P0 ( dwell for no time -- G64 should not smooth over this point )
G00 Z5.00000 ( retract )

G00 X13.69352 Y44.10358 ( rapid move to begin. )
F300.00000
G01 Z-0.10000
G04 P0 ( dwell for no time -- G64 should not smooth over this point )
F600.00000
G01 X13.69352 Y44.10358
X13.66337 Y44.35446
X13.58339 Y44.59400
X13.45672 Y44.81267
X13.28872 Y45.00132
X13.08616 Y45.15229
X12.85730 Y45.25941
X12.61166 Y45.31823
X12.46546 Y45.33027
X12.23353 Y45.31130
X11.99027 Y45.24358
X11.76548 Y45.12819
X11.58123 Y44.98079
X8.15792 Y44.98079
X7.96834 Y45.11760
X7.83181 Y45.18590
X7.63321 Y45.25019
X7.38546 Y45.28029
X3.55514 Y45.28079
X3.35364 Y45.26238
X3.11991 Y45.19761
X2.90401 Y45.08712
X2.65900 Y44.87678
X2.51714 Y44.68013
X2.42715 Y44.49001
X2.36771 Y44.25329
X2.35633 Y44.05110
X2.38709 Y43.80907
X2.42362 Y43.68339
X2.50934 Y43.49266
X2.65364 Y43.28913
X2.78605 Y43.15999
X2.98831 Y43.02342
X3.21412 Y42.93063
X3.41229 Y42.88974
X7.36514 Y42.88080
X7.57334 Y42.90051
X7.81411 Y42.96955
X8.03542 Y43.08722
X8.15381 Y43.18082
X11.58209 Y43.18082
X11.80414 Y43.00932
X12.03300 Y42.90221
X12.27864 Y42.84338
X12.42484 Y42.83134
X12.65677 Y42.85032
X12.90002 Y42.91803
X13.12481 Y43.03343
X13.32177 Y43.19172
X13.48278 Y43.38633
X13.60134 Y43.60950
X13.67254 Y43.85179
X13.69352 Y44.10358
G04 P0 ( dwell for no time -- G64 should not smooth over this point )
G00 Z5.00000 ( retract )

G00 X13.69352 Y46.64358 ( rapid move to begin. )
F300.00000
G01 Z-0.10000
G04 P0 ( dwell for no time -- G64 should not smooth over this point )
F600.00000
G01 X13.69352 Y46.64358
X13.66337 Y46.89446
X13.58339 Y47.13400
X13.45672 Y47.35267
X13.28872 Y47.54132
X13.08616 Y47.69229
X12.85730 Y47.79941
X12.61166 Y47.85823
X12.46546 Y47.87027
X12.23353 Y47.85130
X11.99027 Y47.78358
X11.76548 Y47.66819
X11.58123 Y47.52079
X8.15792 Y47.52079
X7.96834 Y47.65760
X7.83181 Y47.72590
X7.63321 Y47.79019
X7.38546 Y47.82029
X3.55514 Y47.82079
X3.35364 Y47.80238
X3.11991 Y47.73761
X2.90401 Y47.62712
X2.65900 Y47.41678
X2.51714 Y47.22013
X2.42715 Y47.03001
X2.36771 Y46.79329
X2.35633 Y46.59110
X2.38709 Y46.34907
X2.42362 Y46.22339
X2.50934 Y46.03266
X2.65364 Y45.82913
X2.78605 Y45.69999
X2.98831 Y45.56342
X3.21412 Y45.47063
X3.41229 Y45.42974
X7.36514 Y45.42080
X7.57334 Y45.44051
X7.81411 Y45.50955
X8.03542 Y45.62722
X8.15381 Y45.72082
X11.58209 Y45.72082
X11.80414 Y45.54932
X12.03300 Y45.44221
X12.27864 Y45.38338
X12.42484 Y45.37134
X12.65677 Y45.39032
X12.90002 Y45.45803
X13.12481 Y45.57343
X13.32177 Y45.73172
X13.48278 Y45.92633
X13.60134 Y46.14950
X13.67254 Y46.39179
X13.69352 Y46.64358
G04 P0 ( dwell for no time -- G64 should not smooth over this point )
G00 Z5.00000 ( retract )

G00 X18.59892 Y44.07942 ( rapid move to begin. )
F300.00000
G01 Z-0.10000
G04 P0 ( dwell for no time -- G64 should not smooth over this point )
F600.00000
G01 X18.59892 Y44.07942
X19.34853 Y43.32982
X19.46364 Y43.35738
X19.66702 Y43.37579
X20.62660 Y43.36350
X20.86234 Y43.30671
X21.01111 Y43.24287
X21.27613 Y43.05839
X21.43722 Y42.87706
X21.55848 Y42.66701
X21.63498 Y42.43688
X21.66358 Y42.19604
X21.64314 Y41.95443
X21.57445 Y41.72182
X21.46036 Y41.50783
X21.30552 Y41.32114
X21.18269 Y41.21570
X20.97476 Y41.09094
X20.66666 Y40.99424
X20.46326 Y40.97582
X19.58236 Y40.97994
X19.26796 Y41.04491
X19.04837 Y41.14806
X18.85417 Y41.29322
X16.95191 Y43.18080
X15.84907 Y43.18080
X15.66481 Y43.03343
X15.51445 Y42.94996
X15.27594 Y42.86657
X14.96484 Y42.83134
X14.65019 Y42.87800
X14.34414 Y43.00932
X14.20299 Y43.10757
X14.02309 Y43.28496
X13.84691 Y43.56761
X13.76693 Y43.80716
X13.73678 Y44.05804
X13.75776 Y44.30983
X13.82895 Y44.55212
X13.94752 Y44.77528
X14.10853 Y44.96990
X14.30548 Y45.12819
X14.53027 Y45.24358
X14.77353 Y45.31130
X15.09143 Y45.32590
X15.32011 Y45.28361
X15.55537 Y45.19159
X15.76730 Y45.05405
X15.84820 Y44.98079
X17.32468 Y44.98079
X17.53834 Y44.95400
X17.70461 Y44.89553
X17.85625 Y44.80576
X17.96110 Y44.71722
X18.91553 Y43.78054
X19.11919 Y43.64874
X19.26796 Y43.58491
X19.58236 Y43.51994
X20.46326 Y43.51582
X20.74596 Y43.55055
X20.97476 Y43.63094
X21.18269 Y43.75570
X21.30552 Y43.86114
X21.50316 Y44.11648
X21.57445 Y44.26182
X21.64314 Y44.49443
X21.65949 Y44.81689
X21.63498 Y44.97688
X21.55848 Y45.20701
X21.43722 Y45.41706
X21.21477 Y45.65107
X21.01111 Y45.78287
X20.86234 Y45.84671
X20.62660 Y45.90350
X19.66702 Y45.91579
X19.46364 Y45.89738
X19.35279 Y45.87117
X17.93763 Y47.28358
X17.71023 Y47.43553
X17.54396 Y47.49400
X17.33029 Y47.52079
X15.84820 Y47.52079
X15.62616 Y47.69229
X15.39730 Y47.79941
X15.15166 Y47.85823
X14.94462 Y47.86872
X14.69436 Y47.83504
X14.45585 Y47.75165
X14.23904 Y47.62194
X14.10853 Y47.50990
X13.94752 Y47.31528
X13.82895 Y47.09212
X13.75776 Y46.84983
X13.73678 Y46.59804
X13.76693 Y46.34716
X13.84691 Y46.10761
X13.97358 Y45.88895
X14.14158 Y45.70030
X14.34414 Y45.54932
X14.65019 Y45.41800
X14.87886 Y45.37571
X15.02567 Y45.37289
X15.27594 Y45.40657
X15.44002 Y45.45803
X15.66481 Y45.57343
X15.84907 Y45.72080
X16.95752 Y45.72080
X17.96110 Y44.71722
G04 P0 ( dwell for no time -- G64 should not smooth over this point )
G00 Z5.00000 ( retract )

G00 X21.66358 Y39.65606 ( rapid move to begin. )
F300.00000
G01 Z-0.10000
G04 P0 ( dwell for no time -- G64 should not smooth over this point )
F600.00000
G01 X21.66358 Y39.65606
X21.61469 Y39.97524
X21.52284 Y40.19973
X21.43722 Y40.33709
X21.27613 Y40.51842
X21.08192 Y40.66358
X20.78515 Y40.79094
X20.54794 Y40.83170
X19.66702 Y40.83582
X19.46364 Y40.81740
X19.15554 Y40.72071
X19.01401 Y40.64214
X18.87758 Y40.53582
X18.76298 Y40.53582
X17.12158 Y42.17722
X16.95153 Y42.30932
X16.69882 Y42.41400
X16.48516 Y42.44079
X15.84820 Y42.44079
X15.62616 Y42.61229
X15.32011 Y42.74361
X15.00546 Y42.79027
X14.77353 Y42.77130
X14.45585 Y42.67165
X14.23904 Y42.54194
X14.10853 Y42.42990
X13.94752 Y42.23528
X13.80089 Y41.93632
X13.75776 Y41.76983
X13.73678 Y41.51804
X13.78720 Y41.18890
X13.84691 Y41.02761
X13.97358 Y40.80895
X14.20299 Y40.56757
X14.41493 Y40.43003
X14.57300 Y40.36221
X14.81864 Y40.30338
X15.02567 Y40.29289
X15.27594 Y40.32657
X15.44002 Y40.37803
X15.66481 Y40.49343
X15.84907 Y40.64080
X16.11241 Y40.64080
X17.75379 Y38.99945
X17.92384 Y38.86734
X18.17654 Y38.76267
X18.39016 Y38.73582
X18.87443 Y38.73585
X19.11919 Y38.56877
X19.26796 Y38.50494
X19.50369 Y38.44814
X20.46326 Y38.43585
X20.74596 Y38.47057
X20.90039 Y38.51903
X21.11629 Y38.62952
X21.36130 Y38.83986
X21.50316 Y39.03651
X21.60257 Y39.25777
X21.64314 Y39.41446
X21.66358 Y39.65606
G04 P0 ( dwell for no time -- G64 should not smooth over this point )
G00 Z5.00000 ( retract )

G00 X21.66358 Y37.11604 ( rapid move to begin. )
F300.00000
G01 Z-0.10000
G04 P0 ( dwell for no time -- G64 should not smooth over this point )
F600.00000
G01 X21.66358 Y37.11604
X21.63498 Y37.35688
X21.55848 Y37.58701
X21.38766 Y37.86107
X21.21477 Y38.03107
X21.01111 Y38.16287
X20.86234 Y38.22671
X20.62660 Y38.28350
X19.66702 Y38.29579
X19.46364 Y38.27738
X19.15554 Y38.18068
X19.01401 Y38.10212
X18.87758 Y37.99579
X16.62798 Y37.99579
X16.23512 Y38.38866
X16.22745 Y39.92884
X16.20469 Y40.00387
X16.11798 Y40.13364
X15.98821 Y40.22035
X15.83512 Y40.25078
X14.13515 Y40.25078
X13.98209 Y40.22035
X13.91293 Y40.18337
X13.85232 Y40.13364
X13.76561 Y40.00387
X13.73515 Y39.85078
X13.73515 Y38.15081
X13.76561 Y37.99775
X13.80259 Y37.92859
X13.85232 Y37.86798
X13.98209 Y37.78127
X14.13515 Y37.75081
X14.32936 Y37.75084
X15.61876 Y36.45942
X15.78882 Y36.32732
X15.94772 Y36.25109
X16.11833 Y36.20738
X16.25514 Y36.19580
X18.87443 Y36.19582
X19.11919 Y36.02874
X19.26796 Y35.96491
X19.50369 Y35.90812
X20.46326 Y35.89582
X20.66666 Y35.91424
X20.90039 Y35.97901
X21.11629 Y36.08950
X21.36130 Y36.29984
X21.50316 Y36.49648
X21.60257 Y36.71774
X21.64314 Y36.87443
X21.66358 Y37.11604
G04 P0 ( dwell for no time -- G64 should not smooth over this point )
G00 Z5.00000 ( retract )

G00 X21.66358 Y34.57604 ( rapid move to begin. )
F300.00000
G01 Z-0.10000
G04 P0 ( dwell for no time -- G64 should not smooth over this point )
F600.00000
G01 X21.66358 Y34.57604
X21.63498 Y34.81688
X21.55848 Y35.04701
X21.38766 Y35.32107
X21.21477 Y35.49107
X21.01111 Y35.62287
X20.86234 Y35.68671
X20.62660 Y35.74350
X19.66702 Y35.75579
X19.46364 Y35.73738
X19.15554 Y35.64068
X19.01401 Y35.56212
X18.87758 Y35.45579
X15.58097 Y35.45389
X15.40650 Y35.42897
X15.24028 Y35.37053
X15.08869 Y35.28081
X14.96070 Y35.16915
X14.69436 Y35.13504
X14.45585 Y35.05165
X14.30548 Y34.96819
X14.10853 Y34.80990
X13.94752 Y34.61528
X13.82895 Y34.39212
X13.74549 Y34.06977
X13.74087 Y33.81716
X13.76693 Y33.64716
X13.84691 Y33.40761
X13.97358 Y33.18895
X14.14158 Y33.00030
X14.34414 Y32.84932
X14.57300 Y32.74221
X14.81864 Y32.68338
X15.02567 Y32.67289
X15.27594 Y32.70657
X15.44002 Y32.75803
X15.73126 Y32.91968
X15.86177 Y33.03172
X16.02278 Y33.22633
X16.14134 Y33.44950
X16.20322 Y33.65580
X18.87443 Y33.65582
X19.11919 Y33.48874
X19.26796 Y33.42491
X19.50369 Y33.36812
X20.46326 Y33.35582
X20.74596 Y33.39055
X20.90039 Y33.43901
X21.11629 Y33.54950
X21.36130 Y33.75984
X21.50316 Y33.95648
X21.60257 Y34.17774
X21.64314 Y34.33443
X21.66358 Y34.57604
G04 P0 ( dwell for no time -- G64 should not smooth over this point )
G00 Z5.00000 ( retract )

G00 X21.66358 Y32.03604 ( rapid move to begin. )
F300.00000
G01 Z-0.10000
G04 P0 ( dwell for no time -- G64 should not smooth over this point )
F600.00000
G01 X21.66358 Y32.03604
X21.63498 Y32.27688
X21.52284 Y32.57970
X21.38766 Y32.78107
X21.27613 Y32.89839
X21.08192 Y33.04356
X20.86234 Y33.14671
X20.62660 Y33.20350
X19.62467 Y33.21376
X19.46364 Y33.19738
X19.22991 Y33.13261
X19.01401 Y33.02212
X18.87758 Y32.91579
X17.86514 Y32.91579
X17.72844 Y32.90429
X17.55772 Y32.86052
X17.39885 Y32.78432
X17.25790 Y32.67863
X16.85734 Y32.28079
X15.84820 Y32.28079
X15.76730 Y32.35405
X15.55537 Y32.49159
X15.32011 Y32.58361
X15.09143 Y32.62590
X14.77353 Y32.61130
X14.53027 Y32.54358
X14.23904 Y32.38194
X14.10853 Y32.26990
X13.94752 Y32.07528
X13.82895 Y31.85212
X13.75776 Y31.60983
X13.74087 Y31.27716
X13.76693 Y31.10716
X13.84691 Y30.86761
X13.97358 Y30.64895
X14.14158 Y30.46030
X14.34414 Y30.30932
X14.57300 Y30.20221
X14.81864 Y30.14338
X15.02567 Y30.13289
X15.27594 Y30.16657
X15.44002 Y30.21803
X15.66481 Y30.33343
X15.84907 Y30.48080
X17.23014 Y30.48080
X17.36700 Y30.49238
X17.53761 Y30.53609
X17.69651 Y30.61232
X17.83748 Y30.71806
X18.23796 Y31.11582
X18.87443 Y31.11582
X19.11919 Y30.94874
X19.26796 Y30.88491
X19.50369 Y30.82812
X20.46326 Y30.81582
X20.74596 Y30.85055
X20.90039 Y30.89901
X21.11629 Y31.00950
X21.36130 Y31.21984
X21.50316 Y31.41648
X21.60257 Y31.63774
X21.64314 Y31.79443
X21.66358 Y32.03604
G04 P0 ( dwell for no time -- G64 should not smooth over this point )
G00 Z5.00000 ( retract )

G00 X21.66513 Y28.67580 ( rapid move to begin. )
F300.00000
G01 Z-0.10000
G04 P0 ( dwell for no time -- G64 should not smooth over this point )
F600.00000
G01 X21.66513 Y28.67580
X21.65733 Y30.35428
X21.59772 Y30.49804
X21.48738 Y30.60838
X21.34319 Y30.66812
X21.26513 Y30.67579
X18.86514 Y30.67579
X18.71208 Y30.64536
X18.58231 Y30.55865
X18.49559 Y30.42888
X18.47284 Y30.35385
X18.46514 Y29.74079
X15.84820 Y29.74079
X15.62616 Y29.91229
X15.32011 Y30.04361
X15.00546 Y30.09027
X14.69436 Y30.05504
X14.45585 Y29.97165
X14.30548 Y29.88819
X14.10853 Y29.72990
X13.94752 Y29.53528
X13.80089 Y29.23632
X13.75776 Y29.06983
X13.73678 Y28.81804
X13.76693 Y28.56716
X13.84691 Y28.32761
X13.97358 Y28.10895
X14.14158 Y27.92030
X14.34414 Y27.76932
X14.57300 Y27.66221
X14.81864 Y27.60338
X14.96484 Y27.59134
X15.19677 Y27.61032
X15.44002 Y27.67803
X15.66481 Y27.79343
X15.84907 Y27.94080
X19.43016 Y27.94080
X19.56702 Y27.95238
X19.73763 Y27.99609
X19.89653 Y28.07232
X20.03750 Y28.17806
X20.13796 Y28.27582
X21.26513 Y28.27580
X21.41822 Y28.30625
X21.54799 Y28.39297
X21.59772 Y28.45357
X21.63470 Y28.52274
X21.66513 Y28.67580
G04 P0 ( dwell for no time -- G64 should not smooth over this point )
G00 Z5.00000 ( retract )

G00 X31.32513 Y34.55580 ( rapid move to begin. )
F300.00000
G01 Z-0.10000
G04 P0 ( dwell for no time -- G64 should not smooth over this point )
F600.00000
G01 X31.32513 Y34.55580
X31.30763 Y34.36842
X31.23004 Y34.10840
X31.13783 Y33.94434
X30.96118 Y33.73837
X30.81022 Y33.62600
X30.51825 Y33.45956
X30.23834 Y33.37551
X30.03014 Y33.35580
X27.20236 Y33.35994
X26.96515 Y33.40071
X26.66837 Y33.52806
X26.47417 Y33.67322
X26.31308 Y33.85455
X26.22746 Y33.99192
X26.13561 Y34.21640
X26.08671 Y34.53558
X26.10716 Y34.77718
X26.17584 Y35.00980
X26.28994 Y35.22379
X26.44478 Y35.41048
X26.63401 Y35.56212
X26.84991 Y35.67261
X27.08364 Y35.73738
X27.28514 Y35.75579
X30.03014 Y35.75579
X30.32006 Y35.71876
X30.51825 Y35.65208
X30.77510 Y35.50845
X30.96118 Y35.37324
X31.08871 Y35.23486
X31.24505 Y34.96410
X31.30763 Y34.74320
X31.32513 Y34.55580
G04 P0 ( dwell for no time -- G64 should not smooth over this point )
G00 Z5.00000 ( retract )

G00 X33.23013 Y39.63582 ( rapid move to begin. )
F300.00000
G01 Z-0.10000
G04 P0 ( dwell for no time -- G64 should not smooth over this point )
F600.00000
G01 X33.23013 Y39.63582
X33.19526 Y39.36673
X33.13504 Y39.18843
X33.03016 Y39.00692
X33.02795 Y35.27601
X32.99968 Y35.09034
X32.96740 Y34.99092
X32.83013 Y34.75430
X32.83013 Y34.10335
X32.96740 Y33.86672
X33.01703 Y33.68557
X33.03013 Y33.53980
X33.03013 Y24.39580
X33.01703 Y24.25008
X32.96740 Y24.06892
X32.83013 Y23.83230
X32.83013 Y23.43535
X32.96740 Y23.19872
X33.01703 Y23.01757
X33.03013 Y22.87180
X33.03013 Y17.28380
X33.01703 Y17.13808
X32.96740 Y16.95692
X32.83013 Y16.72030
X32.83016 Y15.56002
X32.93204 Y15.40648
X32.99950 Y15.23074
X33.02891 Y15.00310
X33.01037 Y14.81611
X32.95338 Y14.63709
X32.90593 Y14.54395
X32.79460 Y14.39256
X31.92874 Y13.52360
X31.85942 Y13.19094
X31.77240 Y13.00082
X31.65127 Y12.83039
X31.47101 Y12.65635
X31.22125 Y12.50456
X30.94134 Y12.42051
X30.73314 Y12.40080
X27.20081 Y12.40494
X26.96515 Y12.44571
X26.66837 Y12.57306
X26.47417 Y12.71822
X26.36263 Y12.83554
X26.22746 Y13.03692
X26.11531 Y13.33973
X26.09080 Y13.49973
X26.09492 Y13.74222
X26.17584 Y14.05480
X26.24714 Y14.20013
X26.38900 Y14.39678
X26.56761 Y14.56092
X26.84991 Y14.71761
X27.08364 Y14.78238
X27.24467 Y14.79876
X30.66036 Y14.80082
X31.43016 Y15.57059
X31.43016 Y16.72032
X31.29293 Y16.95692
X31.24329 Y17.13797
X31.23014 Y17.28380
X31.23014 Y22.87180
X31.24329 Y23.01767
X31.29293 Y23.19872
X31.43016 Y23.43532
X31.43016 Y23.83232
X31.29293 Y24.06892
X31.24329 Y24.24997
X31.23014 Y24.39580
X31.23014 Y33.53980
X31.24329 Y33.68567
X31.29293 Y33.86672
X31.43016 Y34.10332
X31.43016 Y34.75432
X31.29293 Y34.99092
X31.24329 Y35.17197
X31.23014 Y35.31780
X31.23014 Y38.43582
X27.20081 Y38.43996
X26.96515 Y38.48073
X26.66837 Y38.60809
X26.47417 Y38.75325
X26.31308 Y38.93458
X26.22746 Y39.07194
X26.13561 Y39.29643
X26.08671 Y39.61560
X26.10716 Y39.85721
X26.14772 Y40.01390
X26.24714 Y40.23516
X26.38900 Y40.43181
X26.63401 Y40.64214
X26.84991 Y40.75263
X27.00434 Y40.80110
X27.28514 Y40.83582
X31.23014 Y40.83582
X31.23016 Y41.21270
X31.21188 Y41.31461
X31.21078 Y41.50259
X31.24878 Y41.68659
X31.28625 Y41.78418
X31.40517 Y41.97943
X31.40517 Y43.13632
X31.26793 Y43.37292
X31.21830 Y43.55397
X31.20514 Y43.69980
X31.20514 Y49.03380
X31.21830 Y49.17967
X31.26793 Y49.36072
X31.40517 Y49.59732
X31.40517 Y50.24832
X31.26793 Y50.48492
X31.21830 Y50.66597
X31.20514 Y50.81180
X31.20514 Y58.43180
X31.21830 Y58.57767
X31.26793 Y58.75872
X31.40517 Y58.99532
X31.40517 Y61.67997
X31.33489 Y61.77842
X31.25912 Y61.93806
X31.20692 Y62.20718
X31.21670 Y64.47082
X27.20081 Y64.47494
X26.96515 Y64.51571
X26.66837 Y64.64306
X26.47417 Y64.78822
X26.31308 Y64.96955
X26.22746 Y65.10692
X26.13561 Y65.33140
X26.08671 Y65.65058
X26.10716 Y65.89218
X26.14772 Y66.04887
X26.28994 Y66.33879
X26.44478 Y66.52548
X26.56761 Y66.63092
X26.84991 Y66.78761
X27.08364 Y66.85238
X27.28514 Y66.87079
X31.22915 Y66.87082
X31.23019 Y67.07244
X31.25081 Y67.25946
X31.32905 Y67.47529
X31.43016 Y67.63157
X31.43016 Y68.79032
X31.29293 Y69.02692
X31.24329 Y69.20797
X31.23014 Y69.35380
X31.23014 Y74.43380
X31.24329 Y74.57967
X31.29293 Y74.76072
X31.43016 Y74.99732
X31.43016 Y87.33232
X31.29293 Y87.56892
X31.26064 Y87.66834
X31.23235 Y87.85391
X31.23014 Y89.42805
X30.15236 Y90.50585
X27.68514 Y90.50582
X27.12369 Y90.51814
X26.88796 Y90.57494
X26.73919 Y90.63877
X26.53553 Y90.77057
X26.36263 Y90.94057
X26.22746 Y91.14194
X26.11531 Y91.44476
X26.08671 Y91.68560
X26.10716 Y91.92721
X26.14772 Y92.08390
X26.24714 Y92.30516
X26.44478 Y92.56051
X26.56761 Y92.66594
X26.77554 Y92.79071
X27.08364 Y92.88740
X27.28514 Y92.90582
X30.22514 Y92.90582
X30.43329 Y92.88616
X30.71325 Y92.80211
X30.96301 Y92.65032
X31.14330 Y92.47623
X31.28340 Y92.26853
X31.35142 Y92.11575
X31.42074 Y91.78301
X32.79292 Y90.40813
X32.93720 Y90.19737
X33.01863 Y89.93755
X33.03013 Y89.80080
X33.02795 Y87.85401
X32.99968 Y87.66834
X32.96740 Y87.56892
X32.83013 Y87.33230
X32.83013 Y74.99735
X32.96740 Y74.76072
X33.01703 Y74.57957
X33.03013 Y74.43380
X33.03013 Y69.35380
X33.01703 Y69.20808
X32.96740 Y69.02692
X32.83013 Y68.79030
X32.83013 Y67.63096
X32.93539 Y67.46706
X33.01779 Y67.20902
X33.03013 Y67.06317
X33.02549 Y66.16018
X33.07606 Y66.04278
X33.12203 Y65.83762
X33.13077 Y65.58718
X33.08726 Y65.34044
X33.02036 Y65.17196
X33.00890 Y62.96044
X33.03013 Y62.77481
X33.02823 Y62.22772
X32.97494 Y61.95958
X32.89879 Y61.80075
X32.80514 Y61.67441
X32.80514 Y58.99535
X32.94240 Y58.75872
X32.99203 Y58.57757
X33.00514 Y58.43180
X33.00514 Y50.81180
X32.99203 Y50.66608
X32.94240 Y50.48492
X32.80514 Y50.24830
X32.80514 Y49.59735
X32.94240 Y49.36072
X32.99203 Y49.17957
X33.00514 Y49.03380
X33.00514 Y43.69980
X32.99203 Y43.55408
X32.94240 Y43.37292
X32.80514 Y43.13630
X32.80514 Y41.98123
X32.94487 Y41.76874
X33.01863 Y41.52556
X33.03013 Y41.38880
X33.03016 Y40.26475
X33.13504 Y40.08324
X33.19526 Y39.90493
X33.23013 Y39.63582
G04 P0 ( dwell for no time -- G64 should not smooth over this point )
G00 Z5.00000 ( retract )

G00 X31.32513 Y42.17580 ( rapid move to begin. )
F300.00000
G01 Z-0.10000
G04 P0 ( dwell for no time -- G64 should not smooth over this point )
F600.00000
G01 X31.32513 Y42.17580
X31.30763 Y41.98842
X31.23004 Y41.72840
X31.13783 Y41.56434
X30.96118 Y41.35837
X30.81022 Y41.24600
X30.49323 Y41.07956
X30.21332 Y40.99551
X30.00512 Y40.97580
X27.20236 Y40.97994
X26.96515 Y41.02071
X26.66837 Y41.14806
X26.47417 Y41.29322
X26.31308 Y41.47455
X26.22746 Y41.61192
X26.13561 Y41.83640
X26.08671 Y42.15558
X26.10716 Y42.39718
X26.17584 Y42.62980
X26.28994 Y42.84379
X26.44478 Y43.03048
X26.63401 Y43.18212
X26.84991 Y43.29261
X27.08364 Y43.35738
X27.28514 Y43.37579
X30.00512 Y43.37579
X30.29504 Y43.33876
X30.49323 Y43.27208
X30.81022 Y43.10561
X30.96118 Y42.99324
X31.08871 Y42.85486
X31.24505 Y42.58410
X31.30763 Y42.36320
X31.32513 Y42.17580
G04 P0 ( dwell for no time -- G64 should not smooth over this point )
G00 Z5.00000 ( retract )

G00 X29.28358 Y44.73604 ( rapid move to begin. )
F300.00000
G01 Z-0.10000
G04 P0 ( dwell for no time -- G64 should not smooth over this point )
F600.00000
G01 X29.28358 Y44.73604
X29.25498 Y44.97688
X29.14284 Y45.27970
X29.05722 Y45.41706
X28.89613 Y45.59839
X28.63111 Y45.78287
X28.40515 Y45.87091
X28.16794 Y45.91168
X26.22306 Y45.91541
X26.17467 Y46.08976
X26.08514 Y46.27353
X26.08514 Y50.99198
X26.36284 Y51.10438
X26.66652 Y51.32503
X26.85555 Y51.54801
X26.97912 Y51.76638
X27.06990 Y52.04644
X27.08359 Y52.16356
X28.46299 Y53.54301
X28.61993 Y53.74336
X28.71467 Y53.93686
X28.75450 Y54.06818
X28.78323 Y54.28164
X28.78516 Y54.53851
X28.92552 Y54.65614
X29.08036 Y54.84283
X29.19445 Y55.05682
X29.26314 Y55.28943
X29.27949 Y55.61189
X29.25498 Y55.77188
X29.17848 Y56.00201
X29.05722 Y56.21206
X28.83477 Y56.44607
X28.63111 Y56.57787
X28.48234 Y56.64171
X28.24660 Y56.69850
X27.68856 Y56.71079
X25.14514 Y56.71079
X24.85527 Y56.67376
X24.65707 Y56.60708
X24.47491 Y56.50442
X24.25339 Y56.31377
X24.12873 Y56.14590
X24.01890 Y55.92073
X23.95174 Y55.63627
X23.95174 Y55.38537
X23.99307 Y55.18044
X24.10592 Y54.91082
X24.25339 Y54.70785
X24.40732 Y54.56635
X24.65707 Y54.41456
X24.85527 Y54.34788
X25.14514 Y54.31080
X26.11951 Y54.31080
X25.53238 Y53.72368
X25.26756 Y53.66729
X25.03749 Y53.56724
X24.79594 Y53.40254
X24.59393 Y53.19124
X24.40620 Y52.86612
X24.34161 Y52.66729
X24.30661 Y52.41791
X24.18098 Y52.28957
X24.05037 Y52.11830
X23.95565 Y51.92480
X23.91583 Y51.79348
X23.88514 Y51.54080
X23.88514 Y45.86576
X23.91583 Y45.61313
X23.95565 Y45.48181
X24.04516 Y45.29809
X24.04516 Y45.18468
X23.99307 Y45.04620
X23.94953 Y44.79944
X23.95174 Y44.59037
X24.01890 Y44.30594
X24.12875 Y44.08067
X24.25339 Y43.91285
X24.40732 Y43.77135
X24.65707 Y43.61956
X24.93698 Y43.53551
X25.14514 Y43.51580
X28.12560 Y43.51786
X28.28666 Y43.53424
X28.52039 Y43.59901
X28.73629 Y43.70950
X28.92552 Y43.86114
X29.08036 Y44.04783
X29.19445 Y44.26182
X29.26314 Y44.49443
X29.28358 Y44.73604
G04 P0 ( dwell for no time -- G64 should not smooth over this point )
G00 Z5.00000 ( retract )

G00 X29.28358 Y47.27604 ( rapid move to begin. )
F300.00000
G01 Z-0.10000
G04 P0 ( dwell for no time -- G64 should not smooth over this point )
F600.00000
G01 X29.28358 Y47.27604
X29.25498 Y47.51688
X29.14284 Y47.81970
X29.00766 Y48.02107
X28.89613 Y48.13839
X28.70192 Y48.28356
X28.48234 Y48.38671
X28.24660 Y48.44350
X27.28702 Y48.45579
X27.08364 Y48.43738
X26.84991 Y48.37261
X26.63401 Y48.26212
X26.44478 Y48.11048
X26.28994 Y47.92379
X26.17584 Y47.70980
X26.10716 Y47.47718
X26.08671 Y47.23558
X26.11531 Y46.99473
X26.22746 Y46.69192
X26.36263 Y46.49054
X26.47417 Y46.37322
X26.66837 Y46.22806
X26.88796 Y46.12491
X27.12369 Y46.06812
X28.08326 Y46.05582
X28.28666 Y46.07424
X28.52039 Y46.13901
X28.73629 Y46.24950
X28.92552 Y46.40114
X29.08036 Y46.58783
X29.19445 Y46.80182
X29.26314 Y47.03443
X29.28358 Y47.27604
G04 P0 ( dwell for no time -- G64 should not smooth over this point )
G00 Z5.00000 ( retract )

G00 X31.32513 Y49.79582 ( rapid move to begin. )
F300.00000
G01 Z-0.10000
G04 P0 ( dwell for no time -- G64 should not smooth over this point )
F600.00000
G01 X31.32513 Y49.79582
X31.30763 Y49.60845
X31.24505 Y49.38754
X31.08871 Y49.11678
X30.96118 Y48.97840
X30.73789 Y48.82425
X30.56509 Y48.74970
X30.38147 Y48.70842
X30.06882 Y48.70842
X29.88521 Y48.74970
X29.71241 Y48.82425
X29.45950 Y49.00801
X29.31246 Y49.18437
X29.22026 Y49.34843
X29.14266 Y49.60845
X29.12514 Y49.79582
X29.16004 Y50.06493
X29.22026 Y50.24324
X29.32516 Y50.42475
X29.32514 Y56.85080
X27.12369 Y56.86312
X26.88796 Y56.91991
X26.73919 Y56.98374
X26.47417 Y57.16822
X26.31308 Y57.34955
X26.22746 Y57.48692
X26.13561 Y57.71140
X26.09080 Y57.94973
X26.10716 Y58.27218
X26.17584 Y58.50480
X26.24714 Y58.65013
X26.38900 Y58.84678
X26.56761 Y59.01092
X26.77554 Y59.13568
X27.00434 Y59.21607
X27.28514 Y59.25079
X29.48516 Y59.25079
X29.69331 Y59.23113
X29.93413 Y59.16210
X30.15544 Y59.04442
X30.40332 Y58.82120
X30.54342 Y58.61351
X30.61144 Y58.46073
X30.68076 Y58.12801
X30.88792 Y57.91816
X31.03987 Y57.69075
X31.09834 Y57.52448
X31.12513 Y57.31082
X31.12516 Y50.42475
X31.23004 Y50.24324
X31.29026 Y50.06493
X31.32513 Y49.79582
G04 P0 ( dwell for no time -- G64 should not smooth over this point )
G00 Z5.00000 ( retract )

G00 X31.40075 Y60.50718 ( rapid move to begin. )
F300.00000
G01 Z-0.10000
G04 P0 ( dwell for no time -- G64 should not smooth over this point )
F600.00000
G01 X31.40075 Y60.50718
X31.39857 Y60.71627
X31.33141 Y61.00073
X31.22158 Y61.22590
X31.09691 Y61.39377
X30.87540 Y61.58442
X30.69323 Y61.68708
X30.41327 Y61.77113
X30.20512 Y61.79079
X27.28514 Y61.79079
X27.00434 Y61.75607
X26.84991 Y61.70761
X26.63401 Y61.59712
X26.38900 Y61.38678
X26.24714 Y61.19013
X26.14772 Y60.96887
X26.10716 Y60.81218
X26.08671 Y60.57058
X26.11531 Y60.32973
X26.19182 Y60.09961
X26.36263 Y59.82554
X26.53553 Y59.65554
X26.73919 Y59.52374
X26.96515 Y59.43571
X27.20236 Y59.39494
X30.20512 Y59.39080
X30.49504 Y59.42788
X30.69323 Y59.49456
X30.87540 Y59.59722
X31.09691 Y59.78785
X31.24439 Y59.99082
X31.33141 Y60.18094
X31.40075 Y60.50718
G04 P0 ( dwell for no time -- G64 should not smooth over this point )
G00 Z5.00000 ( retract )

G00 X31.42076 Y68.12718 ( rapid move to begin. )
F300.00000
G01 Z-0.10000
G04 P0 ( dwell for no time -- G64 should not smooth over this point )
F600.00000
G01 X31.42076 Y68.12718
X31.41858 Y68.33627
X31.35142 Y68.62073
X31.24159 Y68.84590
X31.11693 Y69.01377
X30.89542 Y69.20442
X30.71325 Y69.30708
X30.43329 Y69.39113
X30.22514 Y69.41079
X27.28514 Y69.41079
X27.00434 Y69.37607
X26.84991 Y69.32761
X26.63401 Y69.21712
X26.38900 Y69.00678
X26.24714 Y68.81013
X26.14772 Y68.58887
X26.10716 Y68.43218
X26.08671 Y68.19058
X26.11531 Y67.94973
X26.19182 Y67.71961
X26.36263 Y67.44554
X26.53553 Y67.27554
X26.73919 Y67.14374
X26.96515 Y67.05571
X27.20236 Y67.01494
X30.22514 Y67.01080
X30.51505 Y67.04788
X30.71325 Y67.11456
X30.89542 Y67.21722
X31.11693 Y67.40785
X31.26440 Y67.61082
X31.35142 Y67.80094
X31.42076 Y68.12718
G04 P0 ( dwell for no time -- G64 should not smooth over this point )
G00 Z5.00000 ( retract )

G00 X29.28358 Y70.77104 ( rapid move to begin. )
F300.00000
G01 Z-0.10000
G04 P0 ( dwell for no time -- G64 should not smooth over this point )
F600.00000
G01 X29.28358 Y70.77104
X29.25498 Y71.01188
X29.14284 Y71.31470
X29.05722 Y71.45206
X28.89613 Y71.63339
X28.63111 Y71.81787
X28.40515 Y71.90591
X28.16794 Y71.94668
X26.22306 Y71.95041
X26.17467 Y72.12476
X26.08514 Y72.30853
X26.08514 Y77.00997
X26.21275 Y77.03933
X26.44282 Y77.13938
X26.74650 Y77.36003
X26.93553 Y77.58301
X27.05910 Y77.80138
X27.14988 Y78.08144
X27.16357 Y78.19856
X28.46299 Y79.49800
X28.61993 Y79.69835
X28.71467 Y79.89185
X28.76979 Y80.10008
X28.78516 Y80.57351
X28.92552 Y80.69114
X29.08036 Y80.87783
X29.19445 Y81.09182
X29.26314 Y81.32443
X29.27949 Y81.64689
X29.25498 Y81.80688
X29.17848 Y82.03701
X29.05722 Y82.24706
X28.83477 Y82.48107
X28.63111 Y82.61287
X28.48234 Y82.67671
X28.24660 Y82.73350
X27.68856 Y82.74579
X25.16518 Y82.74579
X24.87531 Y82.70876
X24.67712 Y82.64208
X24.49495 Y82.53942
X24.27343 Y82.34877
X24.10696 Y82.10851
X24.01311 Y81.87620
X23.97178 Y81.67127
X23.97178 Y81.42037
X24.03894 Y81.13594
X24.14880 Y80.91067
X24.27343 Y80.74285
X24.49495 Y80.55222
X24.67712 Y80.44956
X24.87531 Y80.38288
X25.16518 Y80.34580
X26.19949 Y80.34580
X25.61237 Y79.75868
X25.34755 Y79.70229
X25.11748 Y79.60224
X24.81379 Y79.38159
X24.62477 Y79.15860
X24.50120 Y78.94024
X24.41042 Y78.66018
X24.39672 Y78.54306
X24.09393 Y78.21850
X23.98568 Y78.03226
X23.91583 Y77.82848
X23.88514 Y77.57580
X23.88514 Y71.90076
X23.91583 Y71.64813
X23.95565 Y71.51681
X24.04516 Y71.33309
X24.04516 Y71.21968
X23.99307 Y71.08120
X23.94953 Y70.83444
X23.95174 Y70.62537
X24.01890 Y70.34094
X24.12875 Y70.11567
X24.25339 Y69.94785
X24.40732 Y69.80635
X24.65707 Y69.65456
X24.93698 Y69.57051
X25.14514 Y69.55080
X28.12560 Y69.55286
X28.28666 Y69.56924
X28.52039 Y69.63401
X28.73629 Y69.74450
X28.92552 Y69.89614
X29.08036 Y70.08283
X29.19445 Y70.29682
X29.26314 Y70.52943
X29.28358 Y70.77104
G04 P0 ( dwell for no time -- G64 should not smooth over this point )
G00 Z5.00000 ( retract )

G00 X29.28358 Y73.31104 ( rapid move to begin. )
F300.00000
G01 Z-0.10000
G04 P0 ( dwell for no time -- G64 should not smooth over this point )
F600.00000
G01 X29.28358 Y73.31104
X29.25498 Y73.55188
X29.14284 Y73.85470
X29.00766 Y74.05607
X28.89613 Y74.17339
X28.70192 Y74.31856
X28.48234 Y74.42171
X28.24660 Y74.47850
X27.28702 Y74.49079
X27.08364 Y74.47238
X26.84991 Y74.40761
X26.63401 Y74.29712
X26.44478 Y74.14548
X26.28994 Y73.95879
X26.17584 Y73.74480
X26.10716 Y73.51218
X26.08671 Y73.27058
X26.11531 Y73.02973
X26.22746 Y72.72692
X26.36263 Y72.52554
X26.47417 Y72.40822
X26.66837 Y72.26306
X26.88796 Y72.15991
X27.12369 Y72.10312
X28.08326 Y72.09082
X28.28666 Y72.10924
X28.52039 Y72.17401
X28.73629 Y72.28450
X28.92552 Y72.43614
X29.08036 Y72.62283
X29.19445 Y72.83682
X29.26314 Y73.06943
X29.28358 Y73.31104
G04 P0 ( dwell for no time -- G64 should not smooth over this point )
G00 Z5.00000 ( retract )

G00 X31.32513 Y75.83080 ( rapid move to begin. )
F300.00000
G01 Z-0.10000
G04 P0 ( dwell for no time -- G64 should not smooth over this point )
F600.00000
G01 X31.32513 Y75.83080
X31.30763 Y75.64342
X31.24505 Y75.42252
X31.08871 Y75.15175
X30.96118 Y75.01337
X30.73789 Y74.85922
X30.56509 Y74.78467
X30.38147 Y74.74340
X30.06882 Y74.74340
X29.88521 Y74.78467
X29.71241 Y74.85922
X29.45950 Y75.04299
X29.31246 Y75.21934
X29.22026 Y75.38340
X29.14266 Y75.64342
X29.12514 Y75.83080
X29.16004 Y76.09991
X29.22026 Y76.27822
X29.32516 Y76.45972
X29.32514 Y82.97305
X29.11239 Y83.18580
X28.87271 Y83.18582
X28.73629 Y83.07950
X28.59476 Y83.00094
X28.28666 Y82.90424
X28.08326 Y82.88582
X27.20236 Y82.88994
X26.96515 Y82.93071
X26.73919 Y83.01874
X26.47417 Y83.20322
X26.31308 Y83.38455
X26.22746 Y83.52192
