( pcb2gcode 1.3.2 )
( Software-independent Gcode )

G94 ( Millimeters per minute feed rate. )
G21 ( Units == Millimeters. )

G90 ( Absolute coordinates. )
S10000 ( RPM spindle speed. )
G64 P0.01000 ( set maximum deviation from commanded toolpath )
F600.00000 ( Feedrate. )

F600.00000 ( Feedrate. )
M3 ( Spindle on clockwise. )
G04 P1.00000
G04 P0 ( dwell for no time -- G64 should not smooth over this point )
G00 Z5.00000 ( retract )

G00 X38.89380 Y141.32580 ( rapid move to begin. )
F300.00000
G01 Z-0.15000
G04 P0 ( dwell for no time -- G64 should not smooth over this point )
F600.00000
G01 X38.89380 Y141.32580
X38.89380 Y142.59859
X38.87653 Y142.79387
X38.81572 Y143.02087
X38.66822 Y143.29681
X38.54236 Y143.44713
X38.26055 Y143.72894
X38.15186 Y143.93888
X37.98085 Y144.15005
X34.29785 Y147.83305
X34.06716 Y148.01491
X33.83917 Y148.12807
X33.67034 Y148.17930
X33.37859 Y148.21380
X14.64681 Y148.21380
X14.43210 Y148.19462
X14.11389 Y148.09807
X13.89303 Y147.97133
X13.72760 Y147.83305
X6.26826 Y140.37101
X6.15632 Y140.23464
X6.02958 Y140.01379
X5.93303 Y139.69563
X5.91380 Y139.48082
X5.91383 Y138.13292
X5.72211 Y138.10632
X5.48088 Y138.02509
X5.26006 Y137.89837
X5.12366 Y137.78644
X3.69458 Y136.36005
X3.51274 Y136.12937
X3.39958 Y135.90138
X3.33304 Y135.65560
X3.31381 Y135.44080
X3.31381 Y125.64386
X3.33304 Y125.42913
X3.37380 Y125.26822
X3.37380 Y39.27345
X3.33304 Y39.11254
X3.31381 Y38.89776
X3.31381 Y30.40082
X3.33304 Y30.18604
X3.39956 Y29.94035
X3.55628 Y29.64710
X3.69453 Y29.48167
X3.89453 Y29.28165
X4.07190 Y29.13519
X4.38767 Y28.97428
X4.61038 Y28.91685
X4.83994 Y28.90261
X5.10923 Y28.93639
X5.30021 Y29.00080
X6.91291 Y29.00080
X7.11974 Y28.96578
X7.30788 Y28.96578
X7.51474 Y29.00083
X8.01380 Y29.00080
X8.16688 Y29.03126
X8.29665 Y29.11797
X8.38337 Y29.24774
X8.40613 Y29.32277
X8.41380 Y29.76529
X8.48540 Y29.99059
X8.51380 Y30.26082
X8.51380 Y32.74080
X8.48540 Y33.01108
X8.41380 Y33.23732
X8.40613 Y33.61885
X8.34639 Y33.76305
X8.23605 Y33.87339
X8.09185 Y33.93313
X7.70265 Y33.94082
X7.57509 Y33.98802
X7.30788 Y34.03587
X7.03661 Y34.02713
X6.81210 Y33.97720
X6.72503 Y33.94082
X5.91380 Y33.94080
X5.91380 Y38.58206
X5.95462 Y38.74310
X5.97380 Y38.95778
X5.97380 Y84.88080
X8.09185 Y84.88850
X8.16688 Y84.91126
X8.29665 Y84.99797
X8.38337 Y85.12774
X8.41380 Y85.28080
X8.41380 Y89.42080
X8.40613 Y89.49885
X8.34639 Y89.64305
X8.29665 Y89.70365
X8.16688 Y89.79037
X8.01380 Y89.82080
X5.97380 Y89.82080
X5.97380 Y125.58384
X5.95462 Y125.79858
X5.91380 Y125.95961
X5.91383 Y134.90234
X6.55231 Y135.54082
X7.17382 Y135.54082
X7.38863 Y135.56005
X7.63440 Y135.62660
X7.75213 Y135.68080
X8.09185 Y135.68850
X8.16688 Y135.71126
X8.29665 Y135.79797
X8.38337 Y135.92774
X8.40613 Y136.00277
X8.41380 Y136.38583
X8.47930 Y136.58911
X8.51189 Y136.84166
X8.51380 Y138.94234
X14.86852 Y145.29706
X15.03921 Y145.41982
X33.03414 Y145.41982
X36.14239 Y142.31160
X36.35357 Y142.14058
X36.49380 Y142.06664
X36.49380 Y141.22580
X36.52855 Y140.94500
X36.60894 Y140.71620
X36.73371 Y140.50827
X36.83914 Y140.38544
X37.02583 Y140.23060
X37.31575 Y140.08839
X37.47244 Y140.04782
X37.71404 Y140.02738
X37.95489 Y140.05598
X38.25771 Y140.16812
X38.39507 Y140.25374
X38.57640 Y140.41483
X38.76088 Y140.67985
X38.84892 Y140.90581
X38.88958 Y141.13578
X38.89380 Y141.32580
G04 P0 ( dwell for no time -- G64 should not smooth over this point )
G00 Z5.00000 ( retract )

G00 X44.70725 Y131.18604 ( rapid move to begin. )
F300.00000
G01 Z-0.15000
G04 P0 ( dwell for no time -- G64 should not smooth over this point )
F600.00000
G01 X44.70725 Y131.18604
X44.65835 Y131.50522
X44.56651 Y131.72970
X44.48088 Y131.86707
X44.31980 Y132.04840
X44.12559 Y132.19356
X43.82881 Y132.32092
X43.59884 Y132.36158
X43.40880 Y132.36580
X40.78882 Y132.36580
X40.59357 Y132.34852
X40.29418 Y132.25769
X40.09065 Y132.14022
X39.96941 Y132.04073
X38.61917 Y130.69323
X38.45514 Y130.64083
X36.13396 Y130.64083
X35.93162 Y130.68322
X35.64770 Y130.68340
X35.41209 Y130.63555
X35.11385 Y130.50995
X34.85591 Y130.31447
X34.69665 Y130.13433
X34.54057 Y129.85087
X34.46833 Y129.62150
X34.44103 Y129.38262
X34.46833 Y129.06014
X34.54057 Y128.83078
X34.69665 Y128.54731
X34.85591 Y128.36718
X35.07872 Y128.19451
X35.33259 Y128.07193
X35.64770 Y127.99824
X35.93162 Y127.99842
X36.13396 Y128.04084
X37.76380 Y128.04081
X37.76380 Y120.86790
X37.19672 Y120.30082
X27.61109 Y120.30082
X27.52379 Y128.47759
X27.50698 Y128.65084
X27.45110 Y128.85585
X27.35684 Y129.04625
X27.20164 Y129.24365
X26.37754 Y130.06501
X26.20629 Y130.19560
X26.01280 Y130.29034
X25.88148 Y130.33016
X25.66797 Y130.35889
X24.59301 Y130.36082
X24.44381 Y130.41592
X24.20660 Y130.45668
X23.32568 Y130.46080
X23.04300 Y130.42608
X22.81420 Y130.34568
X22.67267 Y130.26712
X22.53625 Y130.16082
X21.93424 Y130.15889
X21.66599 Y130.10553
X21.44197 Y129.98582
X21.21961 Y129.77982
X18.00065 Y129.77982
X15.75821 Y132.02224
X15.94005 Y132.21538
X16.11277 Y132.50138
X16.20974 Y132.82107
X16.23380 Y133.07080
X16.19237 Y133.40229
X16.11277 Y133.64024
X16.03382 Y133.78136
X16.03382 Y135.11580
X16.11066 Y135.37430
X16.12803 Y135.71697
X16.10045 Y135.89698
X16.01691 Y136.14608
X15.88495 Y136.37326
X15.64850 Y136.62202
X15.42834 Y136.76528
X15.26100 Y136.83711
X15.00535 Y136.89800
X14.85409 Y136.91029
X14.53294 Y136.87404
X14.35918 Y136.81953
X14.12557 Y136.69924
X13.86520 Y136.47572
X13.75372 Y136.33170
X13.63073 Y136.09955
X13.54472 Y135.76734
X13.53959 Y135.50465
X13.56718 Y135.32464
X13.63380 Y135.12119
X13.63380 Y133.78136
X13.53985 Y133.60113
X13.45788 Y133.32056
X13.43380 Y133.07080
X13.45788 Y132.82107
X13.55486 Y132.50138
X13.67843 Y132.28302
X13.93383 Y132.00100
X13.94538 Y131.53699
X14.01912 Y131.29392
X14.10888 Y131.14228
X14.19743 Y131.03743
X16.99143 Y128.24343
X17.16148 Y128.11132
X17.41419 Y128.00665
X17.62780 Y127.97980
X21.59241 Y127.97980
X21.80607 Y128.00665
X21.97234 Y128.06512
X22.12398 Y128.15488
X22.34623 Y128.36080
X22.48301 Y128.36080
X22.61832 Y128.20843
X22.77089 Y128.09890
X22.98291 Y128.01048
X23.12715 Y127.98544
X23.35657 Y127.99090
X23.58938 Y128.06329
X24.12192 Y128.06083
X24.32532 Y128.07924
X24.59819 Y128.16080
X25.17323 Y128.16083
X25.32870 Y128.00535
X25.41892 Y119.55863
X25.38260 Y119.47166
X25.33698 Y119.26763
X25.32822 Y119.01718
X25.37175 Y118.77045
X25.42382 Y118.63194
X25.42382 Y110.29147
X24.77422 Y109.64184
X24.46335 Y109.70031
X24.17114 Y109.69157
X23.88715 Y109.62228
X23.62375 Y109.49543
X23.45461 Y109.37255
X23.20346 Y109.09361
X23.06487 Y108.83613
X22.98910 Y108.59518
X22.97541 Y108.47804
X22.83262 Y108.31350
X22.72439 Y108.12731
X22.65451 Y107.92353
X22.62380 Y107.67080
X22.62380 Y104.19811
X22.42766 Y104.02178
X22.28580 Y103.82514
X22.18639 Y103.60388
X22.14582 Y103.44719
X22.12538 Y103.20558
X22.17427 Y102.88640
X22.26612 Y102.66192
X22.35174 Y102.52456
X22.57420 Y102.29055
X22.77785 Y102.15875
X22.92662 Y102.09492
X23.24102 Y102.02994
X24.12192 Y102.02583
X24.40462 Y102.06055
X24.59819 Y102.12580
X25.17323 Y102.12583
X25.32870 Y101.97035
X25.41892 Y93.52363
X25.38260 Y93.43666
X25.33698 Y93.23263
X25.32822 Y92.98218
X25.37175 Y92.73545
X25.42382 Y92.59694
X25.42382 Y84.25647
X24.78936 Y83.62198
X24.54333 Y83.66531
X24.33429 Y83.66531
X24.04666 Y83.61311
X23.77615 Y83.50224
X23.53460 Y83.33755
X23.28344 Y83.05861
X23.14486 Y82.80113
X23.06909 Y82.56018
X23.05540 Y82.44306
X22.83262 Y82.19851
X22.72439 Y82.01233
X22.65451 Y81.80854
X22.62380 Y81.55581
X22.62380 Y78.16311
X22.42766 Y77.98678
X22.28580 Y77.79014
X22.18639 Y77.56888
X22.14582 Y77.41219
X22.12538 Y77.17058
X22.17427 Y76.85140
X22.26612 Y76.62692
X22.35174 Y76.48956
X22.57420 Y76.25555
X22.77785 Y76.12375
X22.92662 Y76.05992
X23.24102 Y75.99494
X24.12192 Y75.99083
X24.40462 Y76.02555
X24.59819 Y76.09080
X25.17323 Y76.09083
X25.32382 Y75.94020
X25.32382 Y58.12147
X24.77422 Y57.57184
X24.46335 Y57.63031
X24.17114 Y57.62157
X23.88715 Y57.55228
X23.62375 Y57.42543
X23.45461 Y57.30255
X23.20346 Y57.02361
X23.06487 Y56.76613
X22.98910 Y56.52518
X22.97541 Y56.40804
X22.83262 Y56.24350
X22.72439 Y56.05731
X22.65451 Y55.85353
X22.62380 Y55.60080
X22.62380 Y52.12811
X22.42766 Y51.95178
X22.28580 Y51.75514
X22.18639 Y51.53388
X22.14582 Y51.37719
X22.12538 Y51.13558
X22.15398 Y50.89474
X22.26612 Y50.59192
X22.40130 Y50.39055
X22.51283 Y50.27323
X22.70704 Y50.12806
X22.92662 Y50.02492
X23.24102 Y49.95994
X24.16426 Y49.95786
X24.32532 Y49.97424
X24.55598 Y50.03805
X25.32382 Y49.27020
X25.32382 Y32.08647
X24.77422 Y31.53684
X24.46335 Y31.59531
X24.17114 Y31.58657
X23.88715 Y31.51728
X23.62375 Y31.39043
X23.45461 Y31.26755
X23.20346 Y30.98861
X23.06487 Y30.73113
X22.98910 Y30.49018
X22.97541 Y30.37304
X22.83262 Y30.20850
X22.72439 Y30.02231
X22.65451 Y29.81853
X22.62380 Y29.56580
X22.62380 Y26.09311
X22.42766 Y25.91678
X22.28580 Y25.72014
X22.18639 Y25.49888
X22.14582 Y25.34219
X22.12538 Y25.10058
X22.17427 Y24.78140
X22.26612 Y24.55692
X22.35174 Y24.41956
X22.57420 Y24.18555
X22.77785 Y24.05375
X22.92662 Y23.98992
X23.24102 Y23.92494
X24.12192 Y23.92083
X24.40462 Y23.95555
X24.59819 Y24.02080
X25.32382 Y24.02080
X25.32382 Y16.07080
X25.35451 Y15.81818
X25.42438 Y15.61437
X25.53261 Y15.42818
X25.61966 Y15.32211
X26.75600 Y14.18303
X26.89113 Y14.06961
X27.07739 Y13.96133
X27.35801 Y13.87619
X27.53380 Y13.86080
X30.47461 Y13.86080
X30.62381 Y13.80571
X30.85947 Y13.76494
X34.32289 Y13.76083
X34.45380 Y13.66842
X34.68212 Y13.56436
X34.96612 Y13.49507
X35.25832 Y13.48630
X35.58641 Y13.54935
X35.88890 Y13.69121
X36.05804 Y13.81409
X36.21994 Y13.98082
X36.56802 Y13.98082
X36.78169 Y14.00766
X36.94795 Y14.06614
X37.17536 Y14.21808
X40.87022 Y17.91022
X41.00233 Y18.08030
X41.10698 Y18.33295
X41.13380 Y18.54659
X41.13382 Y34.87455
X41.22742 Y34.99157
X41.30504 Y35.12596
X43.87636 Y37.69730
X44.00225 Y37.84767
X44.11970 Y38.05118
X44.19523 Y38.27366
X44.22780 Y38.54582
X44.22780 Y39.95620
X44.27011 Y40.06778
X44.27778 Y40.14581
X44.27778 Y41.84578
X44.27011 Y41.92384
X44.21037 Y42.06803
X44.10004 Y42.17837
X43.95584 Y42.23811
X42.17781 Y42.24578
X42.02475 Y42.21535
X41.89499 Y42.12864
X41.80827 Y41.99887
X41.77782 Y41.84578
X41.77782 Y40.14581
X41.78551 Y40.06778
X41.82783 Y39.95620
X41.82780 Y39.04289
X39.38529 Y36.60038
X39.21592 Y36.38489
X39.11193 Y36.17409
X39.06642 Y36.02400
X39.03380 Y35.66180
X39.07089 Y35.37193
X39.15659 Y35.13640
X39.24023 Y34.99157
X39.33380 Y34.87458
X39.33380 Y18.91941
X36.20823 Y15.79382
X36.05807 Y15.94754
X35.81651 Y16.11226
X35.54598 Y16.22313
X35.25832 Y16.27533
X34.96612 Y16.26659
X34.72121 Y16.21231
X34.60018 Y16.16080
X30.94380 Y16.16080
X30.66300 Y16.12608
X30.46943 Y16.06082
X27.98948 Y16.06082
X27.52382 Y16.52646
X27.52382 Y25.02080
X27.49319 Y25.27348
X27.42331 Y25.47729
X27.31511 Y25.66342
X27.22806 Y25.76952
X26.96644 Y26.01209
X26.70782 Y26.15034
X26.49956 Y26.20546
X26.32382 Y26.22080
X24.82380 Y26.22080
X24.82380 Y28.88178
X25.02151 Y28.96938
X25.26789 Y29.13799
X25.45026 Y29.20133
X25.57129 Y29.26603
X25.77165 Y29.42300
X27.22806 Y30.88215
X27.31511 Y30.98825
X27.42331 Y31.17438
X27.49319 Y31.37819
X27.52382 Y31.63082
X27.52382 Y39.79580
X31.74377 Y39.79580
X32.02462 Y39.83055
X32.25342 Y39.91094
X32.46135 Y40.03570
X32.58418 Y40.14114
X32.73902 Y40.32783
X32.88124 Y40.61775
X32.93404 Y40.85440
X32.93816 Y41.09689
X32.91365 Y41.25689
X32.83714 Y41.48701
X32.66633 Y41.76108
X32.49343 Y41.93108
X32.28977 Y42.06288
X32.14100 Y42.12671
X31.90527 Y42.18350
X31.34723 Y42.19580
X27.52382 Y42.19580
X27.52382 Y49.72580
X27.49319 Y49.97848
X27.45336 Y50.10980
X27.35864 Y50.30330
X27.22798 Y50.47460
X25.74254 Y51.96001
X25.57129 Y52.09060
X25.37780 Y52.18534
X25.16954 Y52.24046
X24.82380 Y52.25580
X24.82380 Y54.91678
X25.02151 Y55.00438
X25.26789 Y55.17299
X25.45026 Y55.23633
X25.57129 Y55.30103
X25.77165 Y55.45800
X27.22806 Y56.91715
X27.31511 Y57.02325
X27.42331 Y57.20938
X27.49319 Y57.41319
X27.52382 Y57.66582
X27.52382 Y65.83080
X31.74377 Y65.83080
X32.02462 Y65.86555
X32.17905 Y65.91401
X32.39495 Y66.02450
X32.63996 Y66.23484
X32.78182 Y66.43149
X32.88124 Y66.65275
X32.92180 Y66.80944
X32.94225 Y67.05104
X32.89335 Y67.37022
X32.80151 Y67.59470
X32.71588 Y67.73207
X32.55480 Y67.91340
X32.36059 Y68.05856
X32.06381 Y68.18592
X31.82815 Y68.22668
X27.52382 Y68.23080
X27.52382 Y76.39580
X27.49319 Y76.64848
X27.45336 Y76.77980
X27.35864 Y76.97330
X27.22798 Y77.14460
X26.40662 Y77.96865
X26.20629 Y78.12560
X26.01280 Y78.22034
X25.80454 Y78.27546
X25.62880 Y78.29080
X24.82380 Y78.29080
X24.82382 Y80.92699
X25.17391 Y81.08119
X25.39263 Y81.24746
X25.63650 Y81.37959
X25.77165 Y81.49300
X27.32806 Y83.05215
X27.41511 Y83.15825
X27.52331 Y83.34438
X27.59319 Y83.54819
X27.62382 Y83.80082
X27.62382 Y91.86580
X31.74377 Y91.86580
X32.02462 Y91.90055
X32.17905 Y91.94901
X32.39495 Y92.05950
X32.63996 Y92.26984
X32.78182 Y92.46649
X32.88124 Y92.68775
X32.92180 Y92.84444
X32.94225 Y93.08604
X32.89335 Y93.40522
X32.80151 Y93.62970
X32.71588 Y93.76707
X32.55480 Y93.94840
X32.36059 Y94.09356
X32.06381 Y94.22092
X31.82815 Y94.26168
X27.61109 Y94.26580
X27.52379 Y102.44259
X27.49125 Y102.69159
X27.45110 Y102.82085
X27.35684 Y103.01125
X27.22765 Y103.18000
X26.40662 Y104.00365
X26.20629 Y104.16060
X26.01280 Y104.25534
X25.80454 Y104.31046
X25.62880 Y104.32580
X24.82380 Y104.32580
X24.82380 Y106.98678
X25.02151 Y107.07438
X25.26789 Y107.24299
X25.45026 Y107.30633
X25.57129 Y107.37103
X25.77165 Y107.52800
X27.32806 Y109.08715
X27.41511 Y109.19325
X27.52331 Y109.37938
X27.59319 Y109.58319
X27.62382 Y109.83582
X27.62382 Y117.90080
X37.69380 Y117.90080
X37.96599 Y117.93342
X38.18857 Y118.00898
X38.39200 Y118.12643
X38.57884 Y118.28874
X40.52029 Y116.34729
X40.73581 Y116.17789
X40.94657 Y116.07393
X41.09664 Y116.02842
X41.32956 Y115.99776
X43.06491 Y115.99580
X43.30253 Y115.95072
X43.44934 Y115.94790
X43.69960 Y115.98158
X43.93811 Y116.06497
X44.15492 Y116.19468
X44.34116 Y116.36535
X44.48929 Y116.57010
X44.59307 Y116.80030
X44.64847 Y117.04685
X44.65310 Y117.29946
X44.62703 Y117.46946
X44.54705 Y117.70901
X44.42038 Y117.92767
X44.25238 Y118.11632
X43.97903 Y118.30659
X43.74378 Y118.39862
X43.51510 Y118.44091
X43.19719 Y118.42630
X43.07266 Y118.39582
X41.86590 Y118.39580
X40.16382 Y120.09793
X40.16382 Y122.57826
X40.43875 Y122.42553
X40.72278 Y122.35622
X40.97327 Y122.35185
X41.13845 Y122.37801
X41.41360 Y122.47661
X41.65513 Y122.64128
X41.82600 Y122.82449
X41.91711 Y122.96477
X42.03664 Y123.27620
X42.06717 Y123.52484
X42.05407 Y123.73353
X42.00207 Y123.93604
X41.85066 Y124.23320
X41.71736 Y124.39436
X40.16382 Y125.94793
X40.16382 Y128.63027
X40.24277 Y128.77139
X40.31899 Y128.99895
X41.28587 Y129.96580
X43.54926 Y129.96786
X43.78962 Y130.00055
X43.94405 Y130.04901
X44.15995 Y130.15950
X44.34918 Y130.31114
X44.54682 Y130.56649
X44.64624 Y130.78775
X44.68680 Y130.94444
X44.70725 Y131.18604
G04 P0 ( dwell for no time -- G64 should not smooth over this point )
G00 Z5.00000 ( retract )

G00 X44.70880 Y127.72580 ( rapid move to begin. )
F300.00000
G01 Z-0.15000
G04 P0 ( dwell for no time -- G64 should not smooth over this point )
F600.00000
G01 X44.70880 Y127.72580
X44.70880 Y129.52580
X44.67837 Y129.67888
X44.59165 Y129.80865
X44.53105 Y129.85839
X44.38685 Y129.91813
X44.30880 Y129.92580
X42.50880 Y129.92580
X42.35574 Y129.89537
X42.22597 Y129.80865
X42.17624 Y129.74805
X42.13926 Y129.67888
X42.10880 Y129.52580
X42.10880 Y127.72580
X42.13926 Y127.57274
X42.20880 Y127.46388
X42.20880 Y123.84232
X42.16882 Y123.54580
X42.15882 Y118.88581
X42.18927 Y118.73275
X42.27599 Y118.60298
X42.40575 Y118.51627
X42.48079 Y118.49351
X44.33684 Y118.49351
X44.41187 Y118.51627
X44.54164 Y118.60298
X44.62836 Y118.73275
X44.65111 Y118.80778
X44.65878 Y120.58578
X44.62836 Y120.73887
X44.56882 Y120.83552
X44.56884 Y123.28928
X44.60880 Y123.58580
X44.60882 Y127.46388
X44.67837 Y127.57274
X44.70880 Y127.72580
G04 P0 ( dwell for no time -- G64 should not smooth over this point )
G00 Z5.00000 ( retract )

G00 X36.88880 Y124.18082 ( rapid move to begin. )
F300.00000
G01 Z-0.15000
G04 P0 ( dwell for no time -- G64 should not smooth over this point )
F600.00000
G01 X36.88880 Y124.18082
X36.87130 Y123.99345
X36.80871 Y123.77255
X36.65237 Y123.50178
X36.52484 Y123.36340
X36.37389 Y123.25103
X36.08829 Y123.12385
X35.90379 Y123.08687
X35.63249 Y123.09343
X35.40976 Y123.14971
X35.27608 Y123.20925
X35.16269 Y123.28085
X32.53138 Y123.28083
X32.39495 Y123.17453
X32.17905 Y123.06404
X31.94532 Y122.99927
X31.74192 Y122.98085
X30.78236 Y122.99315
X30.54662 Y123.04994
X30.32704 Y123.15309
X30.13283 Y123.29825
X30.02130 Y123.41557
X29.88612 Y123.61694
X29.77398 Y123.91976
X29.74538 Y124.16061
X29.76582 Y124.40221
X29.83451 Y124.63482
X29.94860 Y124.84882
X30.10344 Y125.03551
X30.29267 Y125.18715
X30.50857 Y125.29764
X30.74230 Y125.36241
X30.94568 Y125.38082
X31.90527 Y125.36853
X32.14100 Y125.31173
X32.28977 Y125.24790
X32.53453 Y125.08082
X35.16269 Y125.08082
X35.27608 Y125.15243
X35.48933 Y125.23782
X35.67384 Y125.27480
X35.94514 Y125.26825
X36.12875 Y125.22697
X36.30155 Y125.15243
X36.52484 Y124.99827
X36.65237 Y124.85989
X36.80871 Y124.58913
X36.87130 Y124.36823
X36.88880 Y124.18082
G04 P0 ( dwell for no time -- G64 should not smooth over this point )
G00 Z5.00000 ( retract )

G00 X34.98380 Y121.64080 ( rapid move to begin. )
F300.00000
G01 Z-0.15000
G04 P0 ( dwell for no time -- G64 should not smooth over this point )
F600.00000
G01 X34.98380 Y121.64080
X34.94892 Y121.37171
X34.88870 Y121.19340
X34.79650 Y121.02935
X34.58728 Y120.79701
X34.39655 Y120.66922
X34.22375 Y120.59467
X33.99879 Y120.54685
X33.76884 Y120.54685
X33.54387 Y120.59467
X33.37108 Y120.66922
X33.25769 Y120.74080
X32.53138 Y120.74083
X32.39495 Y120.63450
X32.17905 Y120.52401
X31.94532 Y120.45924
X31.74192 Y120.44083
X30.78236 Y120.45312
X30.54662 Y120.50992
X30.32704 Y120.61306
X30.13283 Y120.75823
X30.02130 Y120.87555
X29.88612 Y121.07692
X29.77398 Y121.37974
X29.74538 Y121.62058
X29.76582 Y121.86219
X29.83451 Y122.09480
X29.94860 Y122.30879
X30.10344 Y122.49548
X30.29267 Y122.64712
X30.50857 Y122.75761
X30.74230 Y122.82238
X30.94568 Y122.84080
X31.90527 Y122.82850
X32.14100 Y122.77171
X32.28977 Y122.70788
X32.53453 Y122.54080
X33.25769 Y122.54082
X33.37108 Y122.61240
X33.54387 Y122.68695
X33.76884 Y122.73478
X33.99879 Y122.73478
X34.22375 Y122.68695
X34.39655 Y122.61240
X34.58728 Y122.48461
X34.79650 Y122.25228
X34.88870 Y122.08822
X34.94892 Y121.90991
X34.98380 Y121.64080
G04 P0 ( dwell for no time -- G64 should not smooth over this point )
G00 Z5.00000 ( retract )

G00 X34.52022 Y113.91163 ( rapid move to begin. )
F300.00000
G01 Z-0.15000
G04 P0 ( dwell for no time -- G64 should not smooth over this point )
F600.00000
G01 X34.52022 Y113.91163
X35.52380 Y112.90805
X35.52380 Y103.22580
X35.55065 Y103.01219
X35.60912 Y102.84592
X35.69888 Y102.69428
X35.78743 Y102.58943
X42.63580 Y95.74103
X42.63580 Y90.13662
X42.39143 Y89.89222
X42.25932 Y89.72217
X42.15465 Y89.46946
X42.12780 Y89.25580
X42.12780 Y55.41652
X42.00012 Y55.19991
X41.91607 Y54.92000
X41.89636 Y54.71180
X41.89638 Y54.29864
X41.80042 Y53.92483
X41.77944 Y53.67304
X41.80959 Y53.42217
X41.88958 Y53.18262
X42.06575 Y52.89997
X42.24566 Y52.72257
X42.45760 Y52.58503
X42.69285 Y52.49301
X43.00751 Y52.44635
X43.23943 Y52.46532
X43.48269 Y52.53304
X43.70748 Y52.64843
X43.90443 Y52.80672
X44.06544 Y53.00134
X44.18401 Y53.22450
X44.25520 Y53.46679
X44.29635 Y53.97649
X44.29635 Y54.71180
X44.25932 Y55.00171
X44.19264 Y55.19991
X44.08998 Y55.38208
X43.92780 Y55.57512
X43.92780 Y88.88300
X44.17222 Y89.12743
X44.30433 Y89.29751
X44.40898 Y89.55016
X44.43389 Y89.72463
X44.43580 Y96.11380
X44.42429 Y96.25055
X44.35053 Y96.49373
X44.26077 Y96.64537
X44.17222 Y96.75022
X37.32380 Y103.59862
X37.32380 Y113.28082
X37.29700 Y113.49449
X37.19233 Y113.74719
X37.06022 Y113.91724
X33.78024 Y117.19722
X33.67539 Y117.28577
X33.45129 Y117.40555
X33.28058 Y117.44929
X32.53453 Y117.46082
X32.36059 Y117.58856
X32.14100 Y117.69171
X31.82660 Y117.75668
X30.94568 Y117.76080
X30.74230 Y117.74238
X30.50857 Y117.67761
X30.22628 Y117.52092
X30.10344 Y117.41548
X29.94860 Y117.22879
X29.80639 Y116.93888
X29.76582 Y116.78219
X29.74538 Y116.54058
X29.79427 Y116.22140
X29.88612 Y115.99692
X29.97174 Y115.85956
X30.13283 Y115.67823
X30.39785 Y115.49375
X30.54662 Y115.42992
X30.78236 Y115.37312
X31.74192 Y115.36083
X31.94532 Y115.37924
X32.25342 Y115.47594
X32.39495 Y115.55450
X32.53138 Y115.66080
X32.77105 Y115.66080
X34.52022 Y113.91163
X34.65233 Y113.74158
X34.75700 Y113.48887
X34.78380 Y113.27521
X34.78189 Y107.63163
X34.72853 Y107.36338
X34.60882 Y107.13936
X34.52022 Y107.03443
X33.06051 Y105.57472
X32.98370 Y105.31840
X32.89150 Y105.15435
X32.71484 Y104.94838
X32.56389 Y104.83601
X32.27829 Y104.70883
X32.09379 Y104.67185
X31.82249 Y104.67840
X31.63887 Y104.71967
X31.39374 Y104.83601
X31.24278 Y104.94838
X31.06613 Y105.15435
X30.97393 Y105.31840
X30.91370 Y105.49671
X30.87880 Y105.76580
X30.91370 Y106.03491
X30.97393 Y106.21322
X31.06613 Y106.37728
X31.24278 Y106.58325
X31.39374 Y106.69562
X31.63887 Y106.81195
X31.78561 Y106.84540
X32.98380 Y108.04362
X32.98380 Y112.90244
X32.76544 Y113.12080
X32.53138 Y113.12083
X32.39495 Y113.01450
X32.17905 Y112.90401
X31.94532 Y112.83924
X31.78426 Y112.82286
X30.86102 Y112.82494
X30.62381 Y112.86571
X30.39785 Y112.95375
X30.19420 Y113.08555
X30.02130 Y113.25555
X29.85048 Y113.52961
X29.77398 Y113.75974
X29.74947 Y113.91973
X29.75358 Y114.16223
X29.80639 Y114.39888
X29.94860 Y114.68879
X30.10344 Y114.87548
X30.22628 Y114.98092
X30.50857 Y115.13761
X30.74230 Y115.20238
X30.90334 Y115.21876
X31.90527 Y115.20850
X32.14100 Y115.15171
X32.28977 Y115.08788
X32.53453 Y114.92082
X33.13821 Y114.92080
X33.35187 Y114.89400
X33.60458 Y114.78933
X33.77463 Y114.65722
G04 P0 ( dwell for no time -- G64 should not smooth over this point )
G00 Z5.00000 ( retract )

G00 X32.94225 Y103.24604 ( rapid move to begin. )
F300.00000
G01 Z-0.15000
G04 P0 ( dwell for no time -- G64 should not smooth over this point )
F600.00000
G01 X32.94225 Y103.24604
X32.91365 Y103.48689
X32.80151 Y103.78970
X32.66633 Y103.99108
X32.55480 Y104.10840
X32.36059 Y104.25356
X32.14100 Y104.35671
X31.90527 Y104.41350
X30.94568 Y104.42580
X30.74230 Y104.40738
X30.50857 Y104.34261
X30.29267 Y104.23212
X30.10344 Y104.08048
X29.94860 Y103.89379
X29.83451 Y103.67980
X29.76582 Y103.44719
X29.74538 Y103.20558
X29.77398 Y102.96474
X29.88612 Y102.66192
X30.02130 Y102.46055
X30.13283 Y102.34323
X30.32704 Y102.19806
X30.54662 Y102.09492
X30.78236 Y102.03812
X31.74192 Y102.02583
X31.94532 Y102.04424
X32.17905 Y102.10901
X32.39495 Y102.21950
X32.58418 Y102.37114
X32.73902 Y102.55783
X32.85312 Y102.77183
X32.92180 Y103.00444
X32.94225 Y103.24604
G04 P0 ( dwell for no time -- G64 should not smooth over this point )
G00 Z5.00000 ( retract )

G00 X32.94225 Y100.70604 ( rapid move to begin. )
F300.00000
G01 Z-0.15000
G04 P0 ( dwell for no time -- G64 should not smooth over this point )
F600.00000
G01 X32.94225 Y100.70604
X32.91365 Y100.94689
X32.80151 Y101.24970
X32.71588 Y101.38707
X32.55480 Y101.56840
X32.28977 Y101.75288
X32.06381 Y101.84092
X31.82660 Y101.88168
X29.88162 Y101.88580
X29.83334 Y102.05976
X29.74380 Y102.24353
X29.74380 Y106.96199
X30.02150 Y107.07438
X30.32518 Y107.29503
X30.51421 Y107.51802
X30.63778 Y107.73638
X30.72856 Y108.01644
X30.74225 Y108.13356
X32.12165 Y109.51301
X32.27860 Y109.71337
X32.37334 Y109.90686
X32.41317 Y110.03818
X32.44189 Y110.25164
X32.44382 Y110.50851
X32.58418 Y110.62614
X32.73902 Y110.81283
X32.85312 Y111.02683
X32.92180 Y111.25944
X32.93816 Y111.58189
X32.91365 Y111.74189
X32.83714 Y111.97201
X32.71588 Y112.18207
X32.49343 Y112.41608
X32.28977 Y112.54788
X32.14100 Y112.61171
X31.90527 Y112.66850
X30.90334 Y112.67876
X30.66300 Y112.64608
X30.46943 Y112.58080
X28.78287 Y112.58026
X28.55473 Y112.55189
X28.37584 Y112.49378
X28.14061 Y112.35796
X27.97266 Y112.20084
X27.84122 Y112.01242
X27.75168 Y111.80053
X27.70820 Y111.57493
X27.71259 Y111.34499
X27.76466 Y111.12114
X27.90205 Y110.85151
X28.00078 Y110.72959
X28.17451 Y110.57905
X28.37573 Y110.46792
X28.55488 Y110.40973
X28.80380 Y110.38080
X29.87817 Y110.38080
X29.19105 Y109.69368
X28.92623 Y109.63729
X28.69615 Y109.53724
X28.45460 Y109.37255
X28.25259 Y109.16125
X28.06486 Y108.83613
X28.00027 Y108.63729
X27.96527 Y108.38792
X27.83964 Y108.25957
X27.70903 Y108.08830
X27.61432 Y107.89480
X27.57449 Y107.76348
X27.54381 Y107.51080
X27.54381 Y101.83576
X27.57449 Y101.58313
X27.61432 Y101.45181
X27.70383 Y101.26809
X27.70383 Y101.15468
X27.65173 Y101.01620
X27.60820 Y100.76944
X27.61041 Y100.56037
X27.67756 Y100.27594
X27.78742 Y100.05067
X27.91206 Y99.88285
X28.06598 Y99.74135
X28.31574 Y99.58956
X28.59565 Y99.50551
X28.80380 Y99.48580
X31.78426 Y99.48786
X31.94532 Y99.50424
X32.17905 Y99.56901
X32.39495 Y99.67950
X32.58418 Y99.83114
X32.73902 Y100.01783
X32.85312 Y100.23183
X32.92180 Y100.46444
X32.94225 Y100.70604
G04 P0 ( dwell for no time -- G64 should not smooth over this point )
G00 Z5.00000 ( retract )

G00 X35.07943 Y90.44218 ( rapid move to begin. )
F300.00000
G01 Z-0.15000
G04 P0 ( dwell for no time -- G64 should not smooth over this point )
F600.00000
G01 X35.07943 Y90.44218
X35.07724 Y90.65128
X35.01009 Y90.93573
X34.90026 Y91.16090
X34.77559 Y91.32877
X34.55408 Y91.51942
X34.37191 Y91.62209
X34.09195 Y91.70614
X33.88380 Y91.72580
X30.94380 Y91.72580
X30.66300 Y91.69108
X30.50857 Y91.64261
X30.29267 Y91.53212
X30.04766 Y91.32178
X29.90580 Y91.12514
X29.80639 Y90.90388
X29.76582 Y90.74719
X29.74538 Y90.50558
X29.77398 Y90.26474
X29.85048 Y90.03461
X30.02130 Y89.76055
X30.19420 Y89.59055
X30.39785 Y89.45875
X30.62381 Y89.37071
X30.86102 Y89.32994
X33.88380 Y89.32580
X34.17372 Y89.36289
X34.37191 Y89.42956
X34.55408 Y89.53223
X34.77559 Y89.72285
X34.92307 Y89.92583
X35.01009 Y90.11594
X35.07943 Y90.44218
G04 P0 ( dwell for no time -- G64 should not smooth over this point )
G00 Z5.00000 ( retract )

G00 X34.98380 Y79.73080 ( rapid move to begin. )
F300.00000
G01 Z-0.15000
G04 P0 ( dwell for no time -- G64 should not smooth over this point )
F600.00000
G01 X34.98380 Y79.73080
X34.96630 Y79.54342
X34.90371 Y79.32252
X34.74737 Y79.05176
X34.61984 Y78.91338
X34.39655 Y78.75922
X34.22375 Y78.68467
X34.04014 Y78.64340
X33.72749 Y78.64340
X33.54387 Y78.68467
X33.37108 Y78.75922
X33.11817 Y78.94299
X32.97113 Y79.11935
X32.87893 Y79.28340
X32.80133 Y79.54342
X32.78380 Y79.73080
X32.81870 Y79.99991
X32.87893 Y80.17822
X32.98383 Y80.35973
X32.98380 Y86.87305
X32.77105 Y87.08580
X32.53138 Y87.08583
X32.39495 Y86.97950
X32.25342 Y86.90094
X31.94532 Y86.80424
X31.74192 Y86.78583
X30.86102 Y86.78994
X30.62381 Y86.83071
X30.39785 Y86.91875
X30.13283 Y87.10323
X29.97174 Y87.28456
X29.88612 Y87.42192
X29.79427 Y87.64640
X29.74947 Y87.88473
X29.76582 Y88.20719
X29.83451 Y88.43980
X29.90580 Y88.58514
X30.04766 Y88.78178
X30.22628 Y88.94592
X30.43420 Y89.07068
X30.66300 Y89.15108
X30.90334 Y89.18376
X31.82660 Y89.18168
X32.14100 Y89.11671
X32.36059 Y89.01356
X32.53453 Y88.88582
X33.18301 Y88.88389
X33.45129 Y88.83055
X33.61019 Y88.75433
X33.78024 Y88.62222
X34.52022 Y87.88224
X34.60877 Y87.77739
X34.69853 Y87.62575
X34.75700 Y87.45949
X34.78380 Y87.24582
X34.78382 Y80.35973
X34.88870 Y80.17822
X34.94892 Y79.99991
X34.98380 Y79.73080
G04 P0 ( dwell for no time -- G64 should not smooth over this point )
G00 Z5.00000 ( retract )

G00 X32.94225 Y77.21104 ( rapid move to begin. )
F300.00000
G01 Z-0.15000
G04 P0 ( dwell for no time -- G64 should not smooth over this point )
F600.00000
G01 X32.94225 Y77.21104
X32.91365 Y77.45189
X32.80151 Y77.75470
X32.66633 Y77.95608
X32.55480 Y78.07340
X32.36059 Y78.21856
X32.14100 Y78.32171
X31.90527 Y78.37850
X30.94568 Y78.39080
X30.74230 Y78.37238
X30.50857 Y78.30761
X30.29267 Y78.19712
X30.10344 Y78.04548
X29.94860 Y77.85879
X29.83451 Y77.64480
X29.76582 Y77.41219
X29.74538 Y77.17058
X29.77398 Y76.92974
X29.88612 Y76.62692
X30.02130 Y76.42555
X30.13283 Y76.30823
X30.32704 Y76.16306
X30.54662 Y76.05992
X30.78236 Y76.00312
X31.74192 Y75.99083
X31.94532 Y76.00924
X32.17905 Y76.07401
X32.39495 Y76.18450
X32.58418 Y76.33614
X32.73902 Y76.52283
X32.85312 Y76.73683
X32.92180 Y76.96944
X32.94225 Y77.21104
G04 P0 ( dwell for no time -- G64 should not smooth over this point )
G00 Z5.00000 ( retract )

G00 X32.94225 Y74.67104 ( rapid move to begin. )
F300.00000
G01 Z-0.15000
G04 P0 ( dwell for no time -- G64 should not smooth over this point )
F600.00000
G01 X32.94225 Y74.67104
X32.91365 Y74.91189
X32.80151 Y75.21470
X32.71588 Y75.35207
X32.55480 Y75.53340
X32.28977 Y75.71788
X32.06381 Y75.80592
X31.82660 Y75.84668
X29.88162 Y75.85080
X29.83334 Y76.02476
X29.74380 Y76.20853
X29.74380 Y80.90997
X29.87141 Y80.93933
X30.10149 Y81.03938
X30.40517 Y81.26003
X30.59420 Y81.48302
X30.71777 Y81.70138
X30.80855 Y81.98144
X30.82224 Y82.09856
X32.12165 Y83.39800
X32.27860 Y83.59836
X32.37334 Y83.79185
X32.42846 Y84.00008
X32.44382 Y84.47351
X32.58418 Y84.59114
X32.73902 Y84.77783
X32.85312 Y84.99183
X32.92180 Y85.22444
X32.93816 Y85.54689
X32.91365 Y85.70689
X32.83714 Y85.93701
X32.71588 Y86.14707
X32.49343 Y86.38108
X32.28977 Y86.51288
X32.14100 Y86.57671
X31.90527 Y86.63350
X31.34723 Y86.64580
X28.82384 Y86.64580
X28.53398 Y86.60876
X28.33578 Y86.54209
X28.15361 Y86.43942
X27.93210 Y86.24877
X27.76563 Y86.00851
X27.67177 Y85.77620
X27.63045 Y85.57128
X27.63045 Y85.32037
X27.69760 Y85.03594
X27.80746 Y84.81067
X27.93210 Y84.64285
X28.15361 Y84.45223
X28.33578 Y84.34956
X28.53398 Y84.28289
X28.82384 Y84.24580
X29.85815 Y84.24580
X29.27103 Y83.65868
X29.00621 Y83.60229
X28.77614 Y83.50224
X28.47246 Y83.28159
X28.28343 Y83.05861
X28.15986 Y82.84024
X28.06908 Y82.56018
X28.05539 Y82.44306
X27.75260 Y82.11850
X27.64434 Y81.93227
X27.57449 Y81.72848
X27.54381 Y81.47580
X27.54381 Y75.80076
X27.57449 Y75.54813
X27.61432 Y75.41681
X27.70383 Y75.23309
X27.70383 Y75.11968
X27.65173 Y74.98120
X27.60820 Y74.73444
X27.61041 Y74.52537
X27.67756 Y74.24094
X27.78742 Y74.01567
X27.91206 Y73.84785
X28.06598 Y73.70635
X28.31574 Y73.55456
X28.59565 Y73.47051
X28.80380 Y73.45080
X31.78426 Y73.45286
X31.94532 Y73.46924
X32.17905 Y73.53401
X32.39495 Y73.64450
X32.58418 Y73.79614
X32.73902 Y73.98283
X32.85312 Y74.19683
X32.92180 Y74.42944
X32.94225 Y74.67104
G04 P0 ( dwell for no time -- G64 should not smooth over this point )
G00 Z5.00000 ( retract )

G00 X35.07943 Y72.02718 ( rapid move to begin. )
F300.00000
G01 Z-0.15000
G04 P0 ( dwell for no time -- G64 should not smooth over this point )
F600.00000
G01 X35.07943 Y72.02718
X35.07724 Y72.23628
X35.01009 Y72.52073
X34.90026 Y72.74590
X34.77559 Y72.91377
X34.55408 Y73.10442
X34.37191 Y73.20709
X34.09195 Y73.29114
X33.88380 Y73.31080
X30.94380 Y73.31080
X30.66300 Y73.27608
X30.50857 Y73.22761
X30.29267 Y73.11712
X30.04766 Y72.90678
X29.90580 Y72.71014
X29.80639 Y72.48888
X29.76582 Y72.33219
X29.74538 Y72.09058
X29.77398 Y71.84974
X29.85048 Y71.61961
X30.02130 Y71.34555
X30.19420 Y71.17555
X30.39785 Y71.04375
X30.62381 Y70.95571
X30.86102 Y70.91494
X33.88380 Y70.91080
X34.17372 Y70.94789
X34.37191 Y71.01456
X34.55408 Y71.11723
X34.77559 Y71.30785
X34.92307 Y71.51083
X35.01009 Y71.70094
X35.07943 Y72.02718
G04 P0 ( dwell for no time -- G64 should not smooth over this point )
G00 Z5.00000 ( retract )

G00 X35.05941 Y64.40718 ( rapid move to begin. )
F300.00000
G01 Z-0.15000
G04 P0 ( dwell for no time -- G64 should not smooth over this point )
F600.00000
G01 X35.05941 Y64.40718
X35.05723 Y64.61628
X34.99007 Y64.90073
X34.88024 Y65.12590
X34.75558 Y65.29377
X34.53407 Y65.48442
X34.35190 Y65.58709
X34.07194 Y65.67114
X33.86378 Y65.69080
X30.94380 Y65.69080
X30.66300 Y65.65608
X30.50857 Y65.60761
X30.29267 Y65.49712
X30.04766 Y65.28678
X29.90580 Y65.09014
X29.80639 Y64.86888
X29.76582 Y64.71219
X29.74538 Y64.47058
X29.77398 Y64.22974
X29.85048 Y63.99961
X30.02130 Y63.72555
X30.19420 Y63.55555
X30.39785 Y63.42375
X30.62381 Y63.33571
X30.86102 Y63.29494
X33.86378 Y63.29080
X34.15370 Y63.32789
X34.35190 Y63.39456
X34.53407 Y63.49723
X34.75558 Y63.68785
X34.90305 Y63.89083
X34.99007 Y64.08094
X35.05941 Y64.40718
G04 P0 ( dwell for no time -- G64 should not smooth over this point )
G00 Z5.00000 ( retract )

G00 X34.98380 Y53.69582 ( rapid move to begin. )
F300.00000
G01 Z-0.15000
G04 P0 ( dwell for no time -- G64 should not smooth over this point )
F600.00000
G01 X34.98380 Y53.69582
X34.96630 Y53.50845
X34.90371 Y53.28755
X34.74737 Y53.01678
X34.61984 Y52.87840
X34.39655 Y52.72425
X34.22375 Y52.64970
X34.04014 Y52.60843
X33.72749 Y52.60843
X33.54387 Y52.64970
X33.37108 Y52.72425
X33.11817 Y52.90802
X32.97113 Y53.08437
X32.87893 Y53.24843
X32.80133 Y53.50845
X32.78380 Y53.69582
X32.81870 Y53.96494
X32.87893 Y54.14325
X32.98383 Y54.32475
X32.98380 Y60.75080
X30.78236 Y60.76312
X30.54662 Y60.81992
X30.39785 Y60.88375
X30.13283 Y61.06823
X29.97174 Y61.24956
X29.88612 Y61.38692
X29.79427 Y61.61140
X29.74947 Y61.84973
X29.76582 Y62.17219
X29.83451 Y62.40480
X29.90580 Y62.55014
X30.04766 Y62.74678
X30.22628 Y62.91092
X30.43420 Y63.03568
X30.66300 Y63.11608
X30.94380 Y63.15080
X33.14382 Y63.15080
X33.35197 Y63.13114
X33.59279 Y63.06210
X33.81410 Y62.94442
X34.06198 Y62.72121
X34.20209 Y62.51351
X34.27011 Y62.36073
X34.33943 Y62.02802
X34.54659 Y61.81816
X34.69853 Y61.59075
X34.75700 Y61.42449
X34.78380 Y61.21082
X34.78382 Y54.32475
X34.88870 Y54.14325
X34.94892 Y53.96494
X34.98380 Y53.69582
G04 P0 ( dwell for no time -- G64 should not smooth over this point )
G00 Z5.00000 ( retract )

G00 X32.94225 Y51.17604 ( rapid move to begin. )
F300.00000
G01 Z-0.15000
G04 P0 ( dwell for no time -- G64 should not smooth over this point )
F600.00000
G01 X32.94225 Y51.17604
X32.91365 Y51.41689
X32.80151 Y51.71970
X32.66633 Y51.92108
X32.55480 Y52.03840
X32.36059 Y52.18356
X32.14100 Y52.28671
X31.90527 Y52.34350
X30.94568 Y52.35580
X30.74230 Y52.33738
X30.50857 Y52.27261
X30.29267 Y52.16212
X30.10344 Y52.01048
X29.94860 Y51.82379
X29.83451 Y51.60980
X29.76582 Y51.37719
X29.74538 Y51.13558
X29.77398 Y50.89474
X29.88612 Y50.59192
X30.02130 Y50.39055
X30.13283 Y50.27323
X30.32704 Y50.12806
X30.54662 Y50.02492
X30.78236 Y49.96812
X31.74192 Y49.95583
X31.94532 Y49.97424
X32.17905 Y50.03901
X32.39495 Y50.14950
X32.58418 Y50.30114
X32.73902 Y50.48783
X32.85312 Y50.70183
X32.92180 Y50.93444
X32.94225 Y51.17604
G04 P0 ( dwell for no time -- G64 should not smooth over this point )
G00 Z5.00000 ( retract )

G00 X32.94225 Y48.63604 ( rapid move to begin. )
F300.00000
G01 Z-0.15000
G04 P0 ( dwell for no time -- G64 should not smooth over this point )
F600.00000
G01 X32.94225 Y48.63604
X32.91365 Y48.87689
X32.80151 Y49.17970
X32.71588 Y49.31707
X32.55480 Y49.49840
X32.28977 Y49.68288
X32.06381 Y49.77092
X31.82660 Y49.81168
X29.88162 Y49.81580
X29.83334 Y49.98976
X29.74380 Y50.17353
X29.74380 Y54.89199
X30.02150 Y55.00438
X30.32518 Y55.22503
X30.51421 Y55.44802
X30.63778 Y55.66638
X30.72856 Y55.94644
X30.74225 Y56.06356
X32.12165 Y57.44301
X32.27860 Y57.64337
X32.37334 Y57.83686
X32.41317 Y57.96818
X32.44189 Y58.18164
X32.44382 Y58.43851
X32.58418 Y58.55614
X32.73902 Y58.74283
X32.85312 Y58.95683
X32.92180 Y59.18944
X32.93816 Y59.51189
X32.91365 Y59.67189
X32.83714 Y59.90201
X32.71588 Y60.11207
X32.49343 Y60.34608
X32.28977 Y60.47788
X32.14100 Y60.54171
X31.90527 Y60.59850
X31.34723 Y60.61080
X28.80380 Y60.61080
X28.51394 Y60.57376
X28.31574 Y60.50709
X28.13357 Y60.40442
X27.91206 Y60.21377
X27.78739 Y60.04590
X27.67756 Y59.82073
X27.61041 Y59.53628
X27.61041 Y59.28537
X27.65173 Y59.08045
X27.76458 Y58.81083
X27.91206 Y58.60785
X28.06598 Y58.46635
X28.31574 Y58.31456
X28.51394 Y58.24789
X28.80380 Y58.21080
X29.77817 Y58.21080
X29.19105 Y57.62368
X28.92623 Y57.56729
X28.69615 Y57.46724
X28.45460 Y57.30255
X28.25259 Y57.09125
X28.06486 Y56.76613
X28.00027 Y56.56729
X27.96527 Y56.31792
X27.83964 Y56.18957
X27.70903 Y56.01830
X27.61432 Y55.82480
X27.57449 Y55.69348
X27.54381 Y55.44080
X27.54381 Y49.76576
X27.57449 Y49.51313
X27.61432 Y49.38181
X27.70383 Y49.19809
X27.70383 Y49.08468
X27.65173 Y48.94620
X27.60820 Y48.69944
X27.61041 Y48.49037
X27.67756 Y48.20594
X27.78742 Y47.98067
X27.91206 Y47.81285
X28.06598 Y47.67135
X28.31574 Y47.51956
X28.59565 Y47.43551
X28.80380 Y47.41580
X31.78426 Y47.41786
X31.94532 Y47.43424
X32.17905 Y47.49901
X32.39495 Y47.60950
X32.58418 Y47.76114
X32.73902 Y47.94783
X32.85312 Y48.16183
X32.92180 Y48.39444
X32.94225 Y48.63604
G04 P0 ( dwell for no time -- G64 should not smooth over this point )
G00 Z5.00000 ( retract )

G00 X34.98380 Y46.07580 ( rapid move to begin. )
F300.00000
G01 Z-0.15000
G04 P0 ( dwell for no time -- G64 should not smooth over this point )
F600.00000
G01 X34.98380 Y46.07580
X34.96630 Y45.88842
X34.88870 Y45.62840
X34.79650 Y45.46435
X34.61984 Y45.25838
X34.46889 Y45.14601
X34.15190 Y44.97956
X33.87199 Y44.89551
X33.66379 Y44.87580
X30.86102 Y44.87994
X30.62381 Y44.92071
X30.32704 Y45.04806
X30.13283 Y45.19323
X29.97174 Y45.37456
X29.88612 Y45.51192
X29.79427 Y45.73640
X29.74538 Y46.05558
X29.76582 Y46.29719
X29.83451 Y46.52980
X29.94860 Y46.74379
X30.10344 Y46.93048
X30.29267 Y47.08212
X30.50857 Y47.19261
X30.74230 Y47.25738
X30.94380 Y47.27580
X33.66379 Y47.27580
X33.95370 Y47.23876
X34.15190 Y47.17209
X34.46889 Y47.00562
X34.61984 Y46.89325
X34.74737 Y46.75487
X34.90371 Y46.48410
X34.96630 Y46.26320
X34.98380 Y46.07580
G04 P0 ( dwell for no time -- G64 should not smooth over this point )
G00 Z5.00000 ( retract )

G00 X36.88880 Y43.53580 ( rapid move to begin. )
F300.00000
G01 Z-0.15000
G04 P0 ( dwell for no time -- G64 should not smooth over this point )
F600.00000
G01 X36.88880 Y43.53580
X36.85392 Y43.26671
X36.79370 Y43.08840
X36.68882 Y42.90690
X36.68661 Y39.17602
X36.65834 Y38.99034
X36.62606 Y38.89093
X36.48880 Y38.65430
X36.48880 Y38.00335
X36.62606 Y37.76672
X36.67569 Y37.58557
X36.68880 Y37.43980
X36.68880 Y28.29580
X36.67569 Y28.15008
X36.62606 Y27.96893
X36.48880 Y27.73230
X36.48880 Y27.33535
X36.62606 Y27.09872
X36.67569 Y26.91757
X36.68880 Y26.77180
X36.68880 Y21.18380
X36.67569 Y21.03808
X36.62606 Y20.85693
X36.48880 Y20.62030
X36.48882 Y19.46003
X36.59070 Y19.30649
X36.65817 Y19.13074
X36.68758 Y18.90311
X36.66904 Y18.71611
X36.61204 Y18.53709
X36.56459 Y18.44395
X36.45326 Y18.29257
X35.58740 Y17.42361
X35.51809 Y17.09094
X35.43107 Y16.90083
X35.30993 Y16.73039
X35.12967 Y16.55635
X34.87991 Y16.40456
X34.60000 Y16.32051
X34.39180 Y16.30080
X30.85947 Y16.30494
X30.62381 Y16.34571
X30.32704 Y16.47306
X30.13283 Y16.61823
X30.02130 Y16.73555
X29.88612 Y16.93692
X29.77398 Y17.23974
X29.74947 Y17.39973
X29.75358 Y17.64223
X29.83451 Y17.95480
X29.90580 Y18.10014
X30.04766 Y18.29678
X30.22628 Y18.46092
X30.50857 Y18.61761
X30.74230 Y18.68238
X30.90334 Y18.69876
X34.31903 Y18.70082
X35.08883 Y19.47059
X35.08883 Y20.62033
X34.95159 Y20.85693
X34.90196 Y21.03798
X34.88880 Y21.18380
X34.88880 Y26.77180
X34.90196 Y26.91767
X34.95159 Y27.09872
X35.08883 Y27.33532
X35.08883 Y27.73233
X34.95159 Y27.96893
X34.90196 Y28.14998
X34.88880 Y28.29580
X34.88880 Y37.43980
X34.90196 Y37.58567
X34.95159 Y37.76672
X35.08883 Y38.00332
X35.08883 Y38.65433
X34.95159 Y38.89093
X34.90196 Y39.07198
X34.88880 Y39.21780
X34.88880 Y42.33580
X30.85947 Y42.33994
X30.62381 Y42.38071
X30.32704 Y42.50806
X30.13283 Y42.65323
X29.97174 Y42.83456
X29.88612 Y42.97192
X29.79427 Y43.19640
X29.74538 Y43.51558
X29.76582 Y43.75719
X29.80639 Y43.91388
X29.90580 Y44.13514
X30.04766 Y44.33178
X30.29267 Y44.54212
X30.50857 Y44.65261
X30.66300 Y44.70108
X30.94380 Y44.73580
X34.88880 Y44.73580
X34.88883 Y45.11271
X34.87054 Y45.21461
X34.86945 Y45.40260
X34.90745 Y45.58660
X34.94491 Y45.68418
X35.06383 Y45.87943
X35.06383 Y47.03633
X34.92660 Y47.27293
X34.87697 Y47.45398
X34.86381 Y47.59980
X34.86381 Y52.93380
X34.87697 Y53.07967
X34.92660 Y53.26072
X35.06383 Y53.49732
X35.06383 Y54.14833
X34.92660 Y54.38493
X34.87697 Y54.56598
X34.86381 Y54.71180
X34.86381 Y62.33180
X34.87697 Y62.47767
X34.92660 Y62.65872
X35.06383 Y62.89532
X35.06383 Y65.57998
X34.99355 Y65.67843
X34.91778 Y65.83807
X34.86559 Y66.10718
X34.87537 Y68.37083
X30.85947 Y68.37494
X30.62381 Y68.41571
X30.32704 Y68.54306
X30.13283 Y68.68823
X29.97174 Y68.86956
X29.88612 Y69.00692
X29.79427 Y69.23140
X29.74538 Y69.55058
X29.76582 Y69.79219
X29.80639 Y69.94888
X29.94860 Y70.23879
X30.10344 Y70.42548
X30.22628 Y70.53092
X30.50857 Y70.68761
X30.74230 Y70.75238
X30.94380 Y70.77080
X34.88781 Y70.77082
X34.88885 Y70.97245
X34.90948 Y71.15947
X34.98771 Y71.37529
X35.08883 Y71.53158
X35.08883 Y72.69033
X34.95159 Y72.92693
X34.90196 Y73.10798
X34.88880 Y73.25380
X34.88880 Y78.33380
X34.90196 Y78.47967
X34.95159 Y78.66072
X35.08883 Y78.89732
X35.08883 Y91.23233
X34.95159 Y91.46893
X34.91931 Y91.56834
X34.89101 Y91.75391
X34.88880 Y93.32803
X33.81103 Y94.40583
X31.34380 Y94.40580
X30.78236 Y94.41812
X30.54662 Y94.47492
X30.39785 Y94.53875
X30.19420 Y94.67055
X30.02130 Y94.84055
X29.88612 Y95.04192
X29.77398 Y95.34474
X29.74538 Y95.58558
X29.76582 Y95.82719
X29.80639 Y95.98388
X29.90580 Y96.20514
X30.10344 Y96.46048
X30.22628 Y96.56592
X30.43420 Y96.69068
X30.74230 Y96.78738
X30.94380 Y96.80580
X33.88380 Y96.80580
X34.09195 Y96.78614
X34.37191 Y96.70209
X34.62167 Y96.55030
X34.80196 Y96.37621
X34.94207 Y96.16851
X35.01009 Y96.01573
X35.07940 Y95.68302
X36.45159 Y94.30814
X36.59586 Y94.09737
X36.67729 Y93.83755
X36.68880 Y93.70080
X36.68661 Y91.75402
X36.65834 Y91.56834
X36.62606 Y91.46893
X36.48880 Y91.23230
X36.48880 Y78.89735
X36.62606 Y78.66072
X36.67569 Y78.47957
X36.68880 Y78.33380
X36.68880 Y73.25380
X36.67569 Y73.10808
X36.62606 Y72.92693
X36.48880 Y72.69030
X36.48880 Y71.53097
X36.59406 Y71.36706
X36.67645 Y71.10902
X36.68880 Y70.96318
X36.68415 Y70.06018
X36.73472 Y69.94278
X36.78070 Y69.73763
X36.78943 Y69.48718
X36.74592 Y69.24045
X36.67902 Y69.07197
X36.66756 Y66.86044
X36.68880 Y66.67482
X36.68689 Y66.12773
X36.63360 Y65.85958
X36.55745 Y65.70075
X36.46380 Y65.57441
X36.46380 Y62.89535
X36.60107 Y62.65872
X36.65070 Y62.47757
X36.66380 Y62.33180
X36.66380 Y54.71180
X36.65070 Y54.56608
X36.60107 Y54.38493
X36.46380 Y54.14830
X36.46380 Y53.49735
X36.60107 Y53.26072
X36.65070 Y53.07957
X36.66380 Y52.93380
X36.66380 Y47.59980
X36.65070 Y47.45408
X36.60107 Y47.27293
X36.46380 Y47.03630
X36.46380 Y45.88124
X36.60353 Y45.66874
X36.67729 Y45.42556
X36.68880 Y45.28881
X36.68882 Y44.16473
X36.79370 Y43.98322
X36.85392 Y43.80491
X36.88880 Y43.53580
G04 P0 ( dwell for no time -- G64 should not smooth over this point )
G00 Z5.00000 ( retract )

G00 X34.98380 Y38.45580 ( rapid move to begin. )
F300.00000
G01 Z-0.15000
G04 P0 ( dwell for no time -- G64 should not smooth over this point )
F600.00000
G01 X34.98380 Y38.45580
X34.96630 Y38.26842
X34.88870 Y38.00840
X34.79650 Y37.84435
X34.61984 Y37.63838
X34.46889 Y37.52601
X34.17692 Y37.35956
X33.89701 Y37.27551
X33.68880 Y37.25580
X30.86102 Y37.25994
X30.62381 Y37.30071
X30.32704 Y37.42806
X30.13283 Y37.57323
X29.97174 Y37.75456
X29.88612 Y37.89192
X29.79427 Y38.11640
X29.74538 Y38.43558
X29.76582 Y38.67719
X29.83451 Y38.90980
X29.94860 Y39.12379
X30.10344 Y39.31048
X30.29267 Y39.46212
X30.50857 Y39.57261
X30.74230 Y39.63738
X30.94380 Y39.65580
X33.68880 Y39.65580
X33.97872 Y39.61876
X34.17692 Y39.55209
X34.43376 Y39.40845
X34.61984 Y39.27325
X34.74737 Y39.13487
X34.90371 Y38.86410
X34.96630 Y38.64320
X34.98380 Y38.45580
G04 P0 ( dwell for no time -- G64 should not smooth over this point )
G00 Z5.00000 ( retract )

G00 X44.27618 Y43.55858 ( rapid move to begin. )
F300.00000
G01 Z-0.15000
G04 P0 ( dwell for no time -- G64 should not smooth over this point )
F600.00000
G01 X44.27618 Y43.55858
X44.24603 Y43.80946
X44.16605 Y44.04901
X43.98988 Y44.33166
X43.80997 Y44.50905
X43.66882 Y44.60730
X43.36278 Y44.73862
X43.04812 Y44.78528
X42.81619 Y44.76630
X42.69166 Y44.73580
X39.72580 Y44.73580
X39.43594 Y44.69876
X39.23774 Y44.63209
X39.05557 Y44.52942
X38.83406 Y44.33877
X38.70939 Y44.17090
X38.59956 Y43.94573
X38.53241 Y43.66128
X38.53020 Y43.45218
X38.59956 Y43.12594
X38.68658 Y42.93583
X38.83406 Y42.73285
X39.05557 Y42.54223
X39.23774 Y42.43956
X39.43594 Y42.37289
X39.72580 Y42.33580
X42.68391 Y42.33580
X42.86130 Y42.29839
X43.00751 Y42.28635
X43.23943 Y42.30532
X43.48269 Y42.37304
X43.70748 Y42.48843
X43.90443 Y42.64672
X44.06544 Y42.84134
X44.18401 Y43.06450
X44.25520 Y43.30679
X44.27618 Y43.55858
G04 P0 ( dwell for no time -- G64 should not smooth over this point )
G00 Z5.00000 ( retract )

G00 X44.27618 Y46.09858 ( rapid move to begin. )
F300.00000
G01 Z-0.15000
G04 P0 ( dwell for no time -- G64 should not smooth over this point )
F600.00000
G01 X44.27618 Y46.09858
X44.24603 Y46.34946
X44.16605 Y46.58901
X43.98988 Y46.87166
X43.80997 Y47.04905
X43.66882 Y47.14730
X43.36278 Y47.27862
X43.04812 Y47.32528
X42.81619 Y47.30630
X42.69166 Y47.27582
X38.59380 Y47.27580
X38.59189 Y50.66500
X38.53855 Y50.93327
X38.46233 Y51.09217
X38.37180 Y51.21457
X38.37180 Y62.73782
X38.34879 Y62.91267
X38.30177 Y63.04115
X38.23048 Y63.15826
X38.08882 Y63.31079
X38.08885 Y65.20556
X38.26352 Y65.31671
X38.42192 Y65.48282
X38.53106 Y65.68495
X38.56334 Y65.78437
X38.59161 Y65.97004
X38.59382 Y71.48190
X38.69870 Y71.66340
X38.75892 Y71.84171
X38.79380 Y72.11080
X38.75892 Y72.37991
X38.69870 Y72.55822
X38.59380 Y72.73973
X38.59380 Y97.35528
X38.73307 Y97.54583
X38.84592 Y97.81545
X38.88943 Y98.06218
X38.88724 Y98.27128
X38.84592 Y98.47620
X38.71026 Y98.78090
X38.58559 Y98.94877
X38.43167 Y99.09030
X38.14277 Y99.25710
X37.90195 Y99.32614
X37.73561 Y99.34361
X30.94380 Y99.34580
X30.66300 Y99.31108
X30.50857 Y99.26261
X30.29267 Y99.15212
X30.04766 Y98.94178
X29.90580 Y98.74514
X29.80639 Y98.52388
X29.76582 Y98.36719
X29.74538 Y98.12558
X29.79427 Y97.80640
X29.88612 Y97.58192
X29.97174 Y97.44456
X30.19420 Y97.21055
X30.39785 Y97.07875
X30.54662 Y97.01492
X30.85947 Y96.94994
X36.79380 Y96.94580
X36.79380 Y72.73973
X36.68893 Y72.55822
X36.62870 Y72.37991
X36.59380 Y72.11080
X36.62870 Y71.84171
X36.68893 Y71.66340
X36.79380 Y71.48190
X36.79380 Y66.45785
X36.71186 Y66.26562
X36.68882 Y66.09082
X36.68882 Y63.02080
X36.71189 Y62.84600
X36.75890 Y62.71752
X36.83020 Y62.60040
X36.97183 Y62.44790
X36.97183 Y51.21343
X36.89083 Y51.09260
X36.81544 Y50.92060
X36.77305 Y50.69492
X36.79380 Y50.45788
X36.79380 Y46.70473
X36.68893 Y46.52322
X36.62870 Y46.34491
X36.59380 Y46.07580
X36.62870 Y45.80671
X36.68893 Y45.62840
X36.79380 Y45.44690
X36.79380 Y44.48769
X36.77749 Y44.20862
X36.80262 Y44.06440
X36.85311 Y43.92701
X36.97183 Y43.73227
X36.97183 Y42.57532
X36.83459 Y42.33872
X36.78496 Y42.15767
X36.77181 Y42.01180
X36.77181 Y20.66973
X36.66693 Y20.48822
X36.60671 Y20.30991
X36.57181 Y20.04080
X36.58933 Y19.85342
X36.65192 Y19.63252
X36.80825 Y19.36176
X36.93579 Y19.22338
X37.08674 Y19.11101
X37.37234 Y18.98383
X37.55684 Y18.94685
X37.82814 Y18.95340
X38.05087 Y19.00969
X38.18455 Y19.06922
X38.37528 Y19.19701
X38.53538 Y19.36176
X38.67670 Y19.59340
X38.75430 Y19.85342
X38.77180 Y20.04080
X38.73693 Y20.30991
X38.67670 Y20.48822
X38.57180 Y20.66973
X38.57180 Y42.01180
X38.55870 Y42.15757
X38.50906 Y42.33872
X38.37180 Y42.57535
X38.37180 Y43.73107
X38.50866 Y43.94024
X38.58232 Y44.18327
X38.59380 Y44.87580
X42.68388 Y44.87583
X42.86130 Y44.83839
X43.00751 Y44.82635
X43.31860 Y44.86158
X43.55711 Y44.94497
X43.70748 Y45.02843
X43.90443 Y45.18672
X44.06544 Y45.38134
X44.21207 Y45.68030
X44.25520 Y45.84679
X44.27618 Y46.09858
G04 P0 ( dwell for no time -- G64 should not smooth over this point )
G00 Z5.00000 ( retract )

G00 X44.27618 Y48.63858 ( rapid move to begin. )
F300.00000
G01 Z-0.15000
G04 P0 ( dwell for no time -- G64 should not smooth over this point )
F600.00000
G01 X44.27618 Y48.63858
X44.24603 Y48.88946
X44.16605 Y49.12901
X43.98988 Y49.41166
X43.80997 Y49.58905
X43.59803 Y49.72659
X43.43997 Y49.79441
X43.13410 Y49.86091
X42.81619 Y49.84630
X42.69166 Y49.81582
X41.89857 Y49.81580
X40.10822 Y51.60614
X39.89580 Y51.76073
X39.89580 Y63.51747
X40.05938 Y63.68476
X40.20070 Y63.91640
X40.27830 Y64.17642
X40.29362 Y64.40568
X40.26093 Y64.63291
X40.18168 Y64.84856
X40.10850 Y64.97528
X39.96146 Y65.15163
X39.78089 Y65.29362
X39.53576 Y65.40995
X39.31079 Y65.45778
X39.08084 Y65.45778
X38.85588 Y65.40995
X38.68308 Y65.33540
X38.49235 Y65.20761
X38.28313 Y64.97528
X38.19093 Y64.81122
X38.13071 Y64.63291
X38.09581 Y64.36380
X38.11333 Y64.17642
X38.19093 Y63.91640
X38.33225 Y63.68476
X38.49583 Y63.51747
X38.49580 Y51.24574
X38.51882 Y51.07112
X38.57574 Y50.92400
X38.61866 Y50.68704
X38.71701 Y50.47958
X38.83543 Y50.33335
X40.63017 Y48.53863
X40.69948 Y48.20594
X40.78650 Y48.01583
X40.93398 Y47.81285
X41.15549 Y47.62223
X41.37680 Y47.50455
X41.61757 Y47.43551
X41.78389 Y47.41801
X42.68391 Y47.41580
X42.86130 Y47.37839
X43.00751 Y47.36635
X43.23943 Y47.38532
X43.48269 Y47.45304
X43.77392 Y47.61468
X43.90443 Y47.72672
X44.06544 Y47.92134
X44.21207 Y48.22030
X44.25520 Y48.38679
X44.27618 Y48.63858
G04 P0 ( dwell for no time -- G64 should not smooth over this point )
G00 Z5.00000 ( retract )

G00 X44.27618 Y51.17858 ( rapid move to begin. )
F300.00000
G01 Z-0.15000
G04 P0 ( dwell for no time -- G64 should not smooth over this point )
F600.00000
G01 X44.27618 Y51.17858
X44.24603 Y51.42946
X44.13036 Y51.74173
X43.98988 Y51.95166
X43.87138 Y52.07632
X43.66882 Y52.22730
X43.43997 Y52.33441
X43.19432 Y52.39324
X42.98729 Y52.40373
X42.71185 Y52.36215
X42.47362 Y52.48823
X42.27223 Y52.54447
X42.02265 Y52.56631
X41.89852 Y52.55552
X41.88528 Y53.07980
X41.82056 Y53.30009
X41.69831 Y53.49748
X41.69816 Y54.28488
X41.81856 Y54.48033
X41.86588 Y54.61889
X41.89735 Y54.93529
X41.89633 Y63.09385
X41.88323 Y63.23957
X41.83359 Y63.42072
X41.69623 Y63.65748
X41.69593 Y65.07043
X41.83306 Y65.30693
X41.88269 Y65.48808
X41.89580 Y65.63380
X41.89580 Y89.89690
X42.00070 Y90.07840
X42.06092 Y90.25671
X42.09580 Y90.52580
X42.07830 Y90.71320
X42.00070 Y90.97322
X41.90850 Y91.13728
X41.73184 Y91.34325
X41.50855 Y91.49740
X41.33575 Y91.57195
X41.11079 Y91.61978
X40.88084 Y91.61978
X40.65587 Y91.57195
X40.48308 Y91.49740
X40.23017 Y91.31363
X40.08313 Y91.13728
X39.99093 Y90.97322
X39.91333 Y90.71320
X39.89580 Y90.52580
X39.93070 Y90.25671
X39.99093 Y90.07840
X40.09580 Y89.89690
X40.09580 Y65.63380
X40.10896 Y65.48798
X40.15859 Y65.30693
X40.29595 Y65.07017
X40.29626 Y63.65722
X40.15912 Y63.42072
X40.10949 Y63.23967
X40.09634 Y63.09380
X40.09634 Y54.84634
X40.10949 Y54.70052
X40.15912 Y54.51947
X40.29819 Y54.28084
X40.29834 Y53.49720
X40.17614 Y53.29966
X40.11152 Y53.07937
X40.09847 Y52.93362
X40.10081 Y51.94714
X40.11147 Y51.84442
X40.16006 Y51.66512
X40.24439 Y51.49974
X40.36085 Y51.35527
X40.53903 Y51.21478
X40.90499 Y50.99740
X40.94022 Y50.89974
X41.06166 Y50.68059
X41.19491 Y50.51950
X41.40703 Y50.30736
X41.55734 Y50.18148
X41.83334 Y50.03393
X42.06026 Y49.97315
X42.25559 Y49.95580
X42.68388 Y49.95583
X42.92153 Y49.91072
X43.06834 Y49.90790
X43.31860 Y49.94158
X43.55711 Y50.02497
X43.77392 Y50.15468
X43.90443 Y50.26672
X44.06544 Y50.46134
X44.21207 Y50.76030
X44.25520 Y50.92679
X44.27618 Y51.17858
G04 P0 ( dwell for no time -- G64 should not smooth over this point )
G00 Z5.00000 ( retract )

G00 X46.81618 Y53.71858 ( rapid move to begin. )
F300.00000
G01 Z-0.15000
G04 P0 ( dwell for no time -- G64 should not smooth over this point )
F600.00000
G01 X46.81618 Y53.71858
X46.76780 Y54.03982
X46.76780 Y54.71180
X46.74814 Y54.91995
X46.66409 Y55.19991
X46.56142 Y55.38208
X46.46780 Y55.49910
X46.46780 Y96.87582
X46.45629 Y97.01258
X46.38253 Y97.25576
X46.29277 Y97.40740
X46.20422 Y97.51225
X40.62580 Y103.09065
X40.62580 Y114.40180
X40.61429 Y114.53855
X40.57055 Y114.70927
X40.45077 Y114.93337
X40.36222 Y115.03822
X39.02951 Y116.37093
X38.93368 Y116.66456
X38.81137 Y116.85887
X38.68384 Y116.99725
X38.46055 Y117.15140
X38.28775 Y117.22595
X38.06279 Y117.27378
X37.83284 Y117.27378
X37.60787 Y117.22595
X37.43508 Y117.15140
X37.21178 Y116.99725
X37.08425 Y116.85887
X36.92791 Y116.58810
X36.86533 Y116.36720
X36.85001 Y116.13794
X36.88270 Y115.91071
X36.94293 Y115.73240
X37.03513 Y115.56835
X37.18217 Y115.39199
X37.43508 Y115.20822
X37.60787 Y115.13367
X37.75463 Y115.10022
X38.82580 Y114.02903
X38.82580 Y102.71780
X38.83738 Y102.58099
X38.88110 Y102.41038
X38.95732 Y102.25148
X39.08943 Y102.08143
X44.66780 Y96.50305
X44.66780 Y55.49907
X44.57423 Y55.38208
X44.47156 Y55.19991
X44.38751 Y54.92000
X44.36780 Y54.71180
X44.36783 Y54.03062
X44.32815 Y53.84477
X44.31944 Y53.67304
X44.34959 Y53.42217
X44.42958 Y53.18262
X44.55624 Y52.96395
X44.72424 Y52.77530
X44.92681 Y52.62433
X45.15566 Y52.51721
X45.40130 Y52.45839
X45.54751 Y52.44635
X45.77943 Y52.46532
X46.02269 Y52.53304
X46.24748 Y52.64843
X46.44443 Y52.80672
X46.60544 Y53.00134
X46.72401 Y53.22450
X46.79520 Y53.46679
X46.81618 Y53.71858
G04 P0 ( dwell for no time -- G64 should not smooth over this point )
G00 Z5.00000 ( retract )

G00 X48.41781 Y52.10373 ( rapid move to begin. )
F300.00000
G01 Z-0.15000
G04 P0 ( dwell for no time -- G64 should not smooth over this point )
F600.00000
G01 X48.41781 Y52.10373
X48.41781 Y106.91782
X48.37770 Y107.14893
X48.32007 Y107.27301
X48.23917 Y107.38373
X46.48764 Y109.13798
X46.50882 Y109.32180
X46.50882 Y134.93480
X46.49731 Y135.07156
X46.42355 Y135.31474
X46.33379 Y135.46637
X46.24524 Y135.57123
X41.51274 Y140.30370
X41.53380 Y140.42580
X41.53380 Y142.22580
X41.50337 Y142.37888
X41.41665 Y142.50865
X41.28688 Y142.59537
X41.13380 Y142.62580
X39.25577 Y142.61813
X39.18074 Y142.59537
X39.05097 Y142.50865
X38.96426 Y142.37888
X38.94150 Y142.30385
X38.93380 Y140.42580
X38.96426 Y140.27274
X39.00124 Y140.20358
X39.05097 Y140.14297
X39.18074 Y140.05626
X39.25577 Y140.03350
X39.38201 Y140.02580
X39.46532 Y139.84348
X39.59743 Y139.67343
X44.70882 Y134.56203
X44.71103 Y109.27991
X44.73933 Y109.09434
X44.77161 Y108.99493
X44.90712 Y108.76026
X45.11388 Y108.53186
X47.01781 Y106.62790
X47.01781 Y52.39367
X46.96198 Y52.33784
X46.76991 Y52.35580
X45.91174 Y52.35580
X45.67410 Y52.40091
X45.52729 Y52.40373
X45.27702 Y52.37005
X45.11294 Y52.31859
X44.88815 Y52.20319
X44.63547 Y51.98628
X44.53018 Y51.85029
X44.41162 Y51.62712
X44.34042 Y51.38483
X44.31944 Y51.13304
X44.36986 Y50.80391
X44.46526 Y50.56990
X44.60575 Y50.35997
X44.72424 Y50.23530
X44.99760 Y50.04503
X45.23285 Y49.95301
X45.54751 Y49.90635
X45.77943 Y49.92532
X45.90397 Y49.95580
X46.76991 Y49.95580
X47.05982 Y49.99289
X47.25802 Y50.05956
X47.50778 Y50.21135
X47.66170 Y50.35285
X47.80917 Y50.55583
X47.89619 Y50.74594
X47.95680 Y50.98902
X47.96553 Y51.23944
X47.95151 Y51.34747
X48.21280 Y51.60878
X48.32002 Y51.74846
X48.39485 Y51.92910
X48.41781 Y52.10373
G04 P0 ( dwell for no time -- G64 should not smooth over this point )
G00 Z5.00000 ( retract )

G00 X49.82380 Y49.63182 ( rapid move to begin. )
F300.00000
G01 Z-0.15000
G04 P0 ( dwell for no time -- G64 should not smooth over this point )
F600.00000
G01 X49.82380 Y49.63182
X49.82380 Y108.05180
X49.78369 Y108.28291
X49.68247 Y108.47225
X48.50051 Y109.66505
X48.50882 Y121.65723
X48.52182 Y121.78982
X48.51991 Y135.88200
X48.46657 Y136.15027
X48.34679 Y136.37437
X48.25824 Y136.47923
X46.39554 Y138.34196
X46.29970 Y138.63556
X46.22652 Y138.76228
X46.07948 Y138.93863
X45.89891 Y139.08062
X45.65378 Y139.19695
X45.42881 Y139.24478
X45.24067 Y139.24696
X44.97390 Y139.19695
X44.80110 Y139.12240
X44.57781 Y138.96825
X44.40115 Y138.76228
X44.29394 Y138.55910
X44.23135 Y138.33820
X44.21604 Y138.19268
X44.23135 Y137.96342
X44.30895 Y137.70340
X44.40115 Y137.53935
X44.57781 Y137.33338
X44.80110 Y137.17922
X44.97390 Y137.10467
X45.12066 Y137.07122
X46.72185 Y135.47003
X46.71103 Y109.72327
X46.73932 Y109.53770
X46.77161 Y109.43828
X46.90712 Y109.20361
X47.03915 Y109.07003
X47.23589 Y108.94984
X48.42380 Y107.76191
X48.42380 Y49.92177
X48.29990 Y49.79784
X48.10780 Y49.81580
X45.91174 Y49.81580
X45.73432 Y49.85324
X45.58812 Y49.86528
X45.35619 Y49.84630
X45.11294 Y49.77859
X44.82170 Y49.61694
X44.63547 Y49.44628
X44.48733 Y49.24153
X44.38355 Y49.01133
X44.32815 Y48.76477
X44.32353 Y48.51217
X44.34959 Y48.34217
X44.46526 Y48.02990
X44.60575 Y47.81997
X44.72424 Y47.69530
X44.99760 Y47.50503
X45.23285 Y47.41301
X45.54751 Y47.36635
X45.77943 Y47.38532
X45.90397 Y47.41580
X48.10780 Y47.41580
X48.39772 Y47.45289
X48.59591 Y47.51956
X48.77808 Y47.62223
X48.99959 Y47.81285
X49.12423 Y47.98067
X49.23409 Y48.20594
X49.29469 Y48.44902
X49.30343 Y48.69944
X49.28941 Y48.80747
X49.61880 Y49.13688
X49.72601 Y49.27655
X49.80084 Y49.45720
X49.82380 Y49.63182
G04 P0 ( dwell for no time -- G64 should not smooth over this point )
G00 Z5.00000 ( retract )

G00 X46.81618 Y46.09858 ( rapid move to begin. )
F300.00000
G01 Z-0.15000
G04 P0 ( dwell for no time -- G64 should not smooth over this point )
F600.00000
G01 X46.81618 Y46.09858
X46.78603 Y46.34946
X46.70605 Y46.58901
X46.57938 Y46.80767
X46.41138 Y46.99632
X46.20882 Y47.14730
X45.97997 Y47.25441
X45.73432 Y47.31324
X45.58812 Y47.32528
X45.35619 Y47.30630
X45.11294 Y47.23859
X44.88815 Y47.12319
X44.69120 Y46.96490
X44.53018 Y46.77029
X44.41162 Y46.54712
X44.34042 Y46.30483
X44.31944 Y46.05304
X44.34959 Y45.80217
X44.42958 Y45.56262
X44.55624 Y45.34395
X44.72424 Y45.15530
X44.92681 Y45.00433
X45.15566 Y44.89721
X45.40130 Y44.83839
X45.54751 Y44.82635
X45.77943 Y44.84532
X46.02269 Y44.91304
X46.24748 Y45.02843
X46.44443 Y45.18672
X46.60544 Y45.38134
X46.72401 Y45.60450
X46.79520 Y45.84679
X46.81618 Y46.09858
G04 P0 ( dwell for no time -- G64 should not smooth over this point )
G00 Z5.00000 ( retract )

G00 X46.81618 Y41.01858 ( rapid move to begin. )
F300.00000
G01 Z-0.15000
G04 P0 ( dwell for no time -- G64 should not smooth over this point )
F600.00000
G01 X46.81618 Y41.01858
X46.78603 Y41.26946
X46.70605 Y41.50901
X46.52988 Y41.79166
X46.34997 Y41.96905
X46.20882 Y42.06730
X45.90278 Y42.19862
X45.67410 Y42.24091
X45.52729 Y42.24373
X45.27702 Y42.21005
X45.11294 Y42.15859
X44.82170 Y41.99694
X44.63547 Y41.82628
X44.48733 Y41.62153
X44.41162 Y41.46712
X44.34042 Y41.22483
X44.31944 Y40.97304
X44.36780 Y40.65183
X44.36780 Y38.45580
X44.38751 Y38.24765
X44.47156 Y37.96774
X44.57423 Y37.78557
X44.76486 Y37.56406
X45.00514 Y37.39758
X45.23745 Y37.30373
X45.44237 Y37.26241
X45.69328 Y37.26241
X45.97773 Y37.32956
X46.20290 Y37.43939
X46.37077 Y37.56406
X46.56142 Y37.78557
X46.66409 Y37.96774
X46.73076 Y38.16593
X46.76780 Y38.45580
X46.76780 Y40.66100
X46.80747 Y40.84685
X46.81618 Y41.01858
G04 P0 ( dwell for no time -- G64 should not smooth over this point )
G00 Z5.00000 ( retract )

G00 X48.61781 Y36.79581 ( rapid move to begin. )
F300.00000
G01 Z-0.15000
G04 P0 ( dwell for no time -- G64 should not smooth over this point )
F600.00000
G01 X48.61781 Y36.79581
X48.61781 Y42.58790
X48.59101 Y42.80156
X48.53254 Y42.96783
X48.44278 Y43.11947
X48.35423 Y43.22432
X47.40633 Y44.17222
X47.30148 Y44.26077
X47.14984 Y44.35053
X46.90666 Y44.42429
X46.43087 Y44.43580
X46.34997 Y44.50905
X46.13803 Y44.64659
X45.97997 Y44.71441
X45.73432 Y44.77324
X45.58812 Y44.78528
X45.35619 Y44.76630
X45.03851 Y44.66666
X44.82170 Y44.53694
X44.69120 Y44.42490
X44.53018 Y44.23029
X44.41162 Y44.00712
X44.34042 Y43.76483
X44.31944 Y43.51304
X44.34959 Y43.26217
X44.42958 Y43.02262
X44.55624 Y42.80395
X44.72424 Y42.61530
X44.92681 Y42.46433
X45.15566 Y42.35721
X45.46153 Y42.29072
X45.77943 Y42.30532
X46.02269 Y42.37304
X46.24748 Y42.48843
X46.41311 Y42.61985
X46.81781 Y42.21513
X46.81781 Y37.16860
X41.88343 Y32.23422
X41.75132 Y32.06417
X41.64665 Y31.81146
X41.61980 Y31.59780
X41.61980 Y18.25462
X36.68600 Y13.32080
X34.41710 Y13.32080
X34.30008 Y13.41442
X34.07877 Y13.53210
X33.83795 Y13.60114
X33.62980 Y13.62080
X30.94380 Y13.62080
X30.66300 Y13.58608
X30.43420 Y13.50568
X30.22628 Y13.38092
X30.10344 Y13.27548
X29.90580 Y13.02014
X29.83451 Y12.87480
X29.76582 Y12.64219
X29.74947 Y12.31973
X29.77398 Y12.15974
X29.85048 Y11.92961
X29.97174 Y11.71956
X30.19420 Y11.48555
X30.39785 Y11.35375
X30.54662 Y11.28992
X30.86102 Y11.22494
X33.62980 Y11.22080
X33.83800 Y11.24051
X34.07877 Y11.30955
X34.30008 Y11.42723
X34.41707 Y11.52083
X37.05880 Y11.52080
X37.27246 Y11.54765
X37.43873 Y11.60612
X37.59037 Y11.69588
X37.69522 Y11.78443
X43.15622 Y17.24543
X43.24482 Y17.35036
X43.36453 Y17.57438
X43.40829 Y17.74510
X43.41980 Y17.88180
X43.41982 Y31.22500
X48.35423 Y36.15944
X48.44283 Y36.26436
X48.53254 Y36.41595
X48.59098 Y36.58217
X48.61781 Y36.79581
G04 P0 ( dwell for no time -- G64 should not smooth over this point )
G00 Z5.00000 ( retract )

G00 X34.98380 Y27.66080 ( rapid move to begin. )
F300.00000
G01 Z-0.15000
G04 P0 ( dwell for no time -- G64 should not smooth over this point )
F600.00000
G01 X34.98380 Y27.66080
X34.96630 Y27.47342
X34.90371 Y27.25252
X34.74737 Y26.98176
X34.61984 Y26.84338
X34.39655 Y26.68922
X34.22375 Y26.61467
X34.04014 Y26.57340
X33.72749 Y26.57340
X33.54387 Y26.61467
X33.37108 Y26.68922
X33.11817 Y26.87299
X32.97113 Y27.04935
X32.87893 Y27.21340
X32.80133 Y27.47342
X32.78380 Y27.66080
X32.81870 Y27.92991
X32.87893 Y28.10822
X32.98383 Y28.28973
X32.98380 Y34.71580
X30.78236 Y34.72812
X30.54662 Y34.78492
X30.39785 Y34.84875
X30.13283 Y35.03323
X29.97174 Y35.21456
X29.88612 Y35.35192
X29.79427 Y35.57640
X29.74947 Y35.81473
X29.76582 Y36.13719
X29.83451 Y36.36980
X29.90580 Y36.51514
X30.04766 Y36.71178
X30.22628 Y36.87592
X30.43420 Y37.00068
X30.66300 Y37.08108
X30.94380 Y37.11580
X33.12180 Y37.11580
X33.32995 Y37.09614
X33.57077 Y37.02710
X33.79208 Y36.90942
X34.03996 Y36.68621
X34.18007 Y36.47851
X34.24809 Y36.32573
X34.31740 Y35.99302
X34.54659 Y35.76114
X34.69853 Y35.53373
X34.75700 Y35.36746
X34.78380 Y35.15380
X34.78382 Y28.28973
X34.88870 Y28.10822
X34.94892 Y27.92991
X34.98380 Y27.66080
G04 P0 ( dwell for no time -- G64 should not smooth over this point )
G00 Z5.00000 ( retract )

G00 X32.94225 Y25.14104 ( rapid move to begin. )
F300.00000
G01 Z-0.15000
G04 P0 ( dwell for no time -- G64 should not smooth over this point )
F600.00000
G01 X32.94225 Y25.14104
X32.91365 Y25.38189
X32.80151 Y25.68470
X32.66633 Y25.88608
X32.55480 Y26.00340
X32.36059 Y26.14856
X32.14100 Y26.25171
X31.90527 Y26.30850
X30.94568 Y26.32080
X30.74230 Y26.30238
X30.50857 Y26.23761
X30.29267 Y26.12712
X30.10344 Y25.97548
X29.94860 Y25.78879
X29.83451 Y25.57480
X29.76582 Y25.34219
X29.74538 Y25.10058
X29.77398 Y24.85974
X29.88612 Y24.55692
X30.02130 Y24.35555
X30.13283 Y24.23823
X30.32704 Y24.09306
X30.54662 Y23.98992
X30.78236 Y23.93312
X31.74192 Y23.92083
X31.94532 Y23.93924
X32.17905 Y24.00401
X32.39495 Y24.11450
X32.58418 Y24.26614
X32.73902 Y24.45283
X32.85312 Y24.66683
X32.92180 Y24.89944
X32.94225 Y25.14104
G04 P0 ( dwell for no time -- G64 should not smooth over this point )
G00 Z5.00000 ( retract )

G00 X32.94225 Y22.60104 ( rapid move to begin. )
F300.00000
G01 Z-0.15000
G04 P0 ( dwell for no time -- G64 should not smooth over this point )
F600.00000
G01 X32.94225 Y22.60104
X32.91365 Y22.84189
X32.80151 Y23.14470
X32.71588 Y23.28207
X32.55480 Y23.46340
X32.28977 Y23.64788
X32.06381 Y23.73592
X31.82660 Y23.77668
X29.88173 Y23.78042
X29.83334 Y23.95476
X29.74380 Y24.13853
X29.74380 Y28.85699
X30.02150 Y28.96938
X30.32518 Y29.19003
X30.51421 Y29.41302
X30.63778 Y29.63138
X30.72856 Y29.91144
X30.74225 Y30.02856
X32.12165 Y31.40801
X32.27860 Y31.60837
X32.37334 Y31.80186
X32.41317 Y31.93318
X32.44189 Y32.14664
X32.44382 Y32.40351
X32.58418 Y32.52114
X32.73902 Y32.70783
X32.85312 Y32.92183
X32.92180 Y33.15444
X32.93816 Y33.47689
X32.91365 Y33.63689
X32.83714 Y33.86701
X32.71588 Y34.07707
X32.49343 Y34.31108
X32.28977 Y34.44288
X32.14100 Y34.50671
X31.90527 Y34.56350
X31.34723 Y34.57580
X28.80380 Y34.57580
X28.51394 Y34.53876
X28.31574 Y34.47209
X28.13357 Y34.36942
X27.91206 Y34.17877
X27.78739 Y34.01090
X27.67756 Y33.78573
X27.61041 Y33.50128
X27.61041 Y33.25037
X27.65173 Y33.04545
X27.76458 Y32.77583
X27.91206 Y32.57285
X28.06598 Y32.43135
X28.31574 Y32.27956
X28.51394 Y32.21289
X28.80380 Y32.17580
X29.77817 Y32.17580
X29.19105 Y31.58868
X28.92623 Y31.53229
X28.69615 Y31.43224
X28.45460 Y31.26755
X28.25259 Y31.05625
X28.06486 Y30.73113
X28.00027 Y30.53229
X27.96527 Y30.28292
X27.83964 Y30.15457
X27.70903 Y29.98330
X27.61432 Y29.78980
X27.57449 Y29.65848
X27.54381 Y29.40580
X27.54381 Y23.73076
X27.57449 Y23.47813
X27.61432 Y23.34681
X27.70383 Y23.16309
X27.70383 Y23.04968
X27.65173 Y22.91120
X27.60820 Y22.66444
X27.61041 Y22.45537
X27.67756 Y22.17094
X27.78742 Y21.94567
X27.91206 Y21.77785
X28.06598 Y21.63635
X28.31574 Y21.48456
X28.59565 Y21.40051
X28.80380 Y21.38080
X31.78426 Y21.38286
X31.94532 Y21.39924
X32.17905 Y21.46401
X32.39495 Y21.57450
X32.58418 Y21.72614
X32.73902 Y21.91283
X32.85312 Y22.12683
X32.92180 Y22.35944
X32.94225 Y22.60104
G04 P0 ( dwell for no time -- G64 should not smooth over this point )
G00 Z5.00000 ( retract )

G00 X35.07943 Y19.95718 ( rapid move to begin. )
F300.00000
G01 Z-0.15000
G04 P0 ( dwell for no time -- G64 should not smooth over this point )
F600.00000
G01 X35.07943 Y19.95718
X35.07724 Y20.16628
X35.01009 Y20.45073
X34.90026 Y20.67590
X34.77559 Y20.84377
X34.55408 Y21.03442
X34.37191 Y21.13709
X34.09195 Y21.22114
X33.88380 Y21.24080
X30.94380 Y21.24080
X30.66300 Y21.20608
X30.50857 Y21.15761
X30.29267 Y21.04712
X30.04766 Y20.83678
X29.90580 Y20.64014
X29.80639 Y20.41888
X29.76582 Y20.26219
X29.74538 Y20.02058
X29.77398 Y19.77974
X29.85048 Y19.54961
X30.02130 Y19.27555
X30.19420 Y19.10555
X30.39785 Y18.97375
X30.62381 Y18.88571
X30.86102 Y18.84494
X33.88380 Y18.84080
X34.17372 Y18.87789
X34.37191 Y18.94456
X34.55408 Y19.04723
X34.77559 Y19.23785
X34.92307 Y19.44083
X35.01009 Y19.63094
X35.07943 Y19.95718
G04 P0 ( dwell for no time -- G64 should not smooth over this point )
G00 Z5.00000 ( retract )

G00 X48.22180 Y6.70580 ( rapid move to begin. )
F300.00000
G01 Z-0.15000
G04 P0 ( dwell for no time -- G64 should not smooth over this point )
F600.00000
G01 X48.22180 Y6.70580
X48.15852 Y6.16640
X48.01430 Y5.72965
X47.78624 Y5.33024
X47.45733 Y4.95188
X47.05687 Y4.65018
X46.60252 Y4.43829
X46.03084 Y4.31678
X45.52962 Y4.32554
X45.08020 Y4.42328
X44.58670 Y4.65018
X44.21591 Y4.92229
X43.85739 Y5.33024
X43.62932 Y5.72965
X43.48510 Y6.16640
X43.42180 Y6.70580
X43.48510 Y7.24522
X43.62932 Y7.68197
X43.85739 Y8.08139
X44.18629 Y8.45975
X44.58675 Y8.76145
X45.04111 Y8.97333
X45.61276 Y9.09482
X46.11400 Y9.08608
X46.56343 Y8.98834
X47.05693 Y8.76145
X47.42771 Y8.48934
X47.78624 Y8.08139
X48.01430 Y7.68197
X48.15852 Y7.24522
X48.22180 Y6.70580
G04 P0 ( dwell for no time -- G64 should not smooth over this point )
G00 Z5.00000 ( retract )

G00 X36.55380 Y9.88080 ( rapid move to begin. )
F300.00000
G01 Z-0.15000
G04 P0 ( dwell for no time -- G64 should not smooth over this point )
F600.00000
G01 X36.55380 Y9.88080
X36.51237 Y9.54933
X36.43277 Y9.31138
X36.35380 Y9.17026
X36.35380 Y8.46660
X36.33653 Y8.27135
X36.27572 Y8.04438
X36.17178 Y7.83366
X36.02873 Y7.64720
X35.75865 Y7.37440
X35.63744 Y7.16186
X35.51158 Y7.01154
X34.96333 Y6.46597
X34.77689 Y6.32289
X34.56609 Y6.21893
X34.33917 Y6.15815
X34.14382 Y6.14080
X28.76197 Y6.14301
X28.59565 Y6.16051
X28.35488 Y6.22955
X28.13357 Y6.34723
X27.88572 Y6.57039
X27.76458 Y6.74083
X27.67756 Y6.93094
X27.61041 Y7.21537
X27.61041 Y7.46628
X27.65173 Y7.67120
X27.74559 Y7.90351
X27.91206 Y8.14377
X28.06598 Y8.28530
X28.31574 Y8.43709
X28.51394 Y8.50376
X28.80380 Y8.54080
X33.60874 Y8.54082
X33.68868 Y8.67402
X33.95383 Y8.96366
X33.95383 Y9.17026
X33.87486 Y9.31138
X33.79526 Y9.54933
X33.75601 Y9.83897
X33.77788 Y10.13056
X33.87486 Y10.45024
X34.04758 Y10.73625
X34.24959 Y10.94755
X34.49114 Y11.11224
X34.72121 Y11.21229
X35.04928 Y11.27531
X35.34151 Y11.26657
X35.62550 Y11.19728
X35.88895 Y11.07041
X36.05807 Y10.94752
X36.26005 Y10.73625
X36.41374 Y10.48755
X36.51237 Y10.21229
X36.55380 Y9.88080
G04 P0 ( dwell for no time -- G64 should not smooth over this point )
G00 Z5.00000 ( retract )

G00 X32.94225 Y9.90104 ( rapid move to begin. )
F300.00000
G01 Z-0.15000
G04 P0 ( dwell for no time -- G64 should not smooth over this point )
F600.00000
G01 X32.94225 Y9.90104
X32.91365 Y10.14189
X32.83714 Y10.37201
X32.66633 Y10.64608
X32.49343 Y10.81608
X32.28977 Y10.94788
X32.14100 Y11.01171
X31.90527 Y11.06850
X30.94568 Y11.08080
X30.74230 Y11.06238
X30.43420 Y10.96568
X30.29267 Y10.88712
X30.15625 Y10.78080
X26.89880 Y10.78080
X26.76210 Y10.76929
X26.59138 Y10.72553
X26.43251 Y10.64933
X26.29156 Y10.54364
X25.62743 Y9.88222
X25.49532 Y9.71217
X25.39065 Y9.45946
X25.36380 Y9.24580
X25.36380 Y5.91360
X25.15103 Y5.70082
X19.88888 Y5.70080
X19.86336 Y5.80387
X19.77664 Y5.93364
X19.64687 Y6.02035
X19.57184 Y6.04311
X17.71579 Y6.04311
X17.64075 Y6.02035
X17.51099 Y5.93364
X17.42427 Y5.80387
X17.40151 Y5.72884
X17.39382 Y3.95081
X17.42427 Y3.79775
X17.51099 Y3.66798
X17.64075 Y3.58127
X17.71579 Y3.55851
X19.49379 Y3.55081
X19.64687 Y3.58127
X19.77664 Y3.66798
X19.86336 Y3.79775
X19.88888 Y3.90083
X25.52382 Y3.90080
X25.66068 Y3.91238
X25.83129 Y3.95610
X25.99019 Y4.03232
X26.13116 Y4.13806
X26.90022 Y4.90443
X27.03233 Y5.07451
X27.13698 Y5.32716
X27.16380 Y5.54080
X27.16382 Y8.87300
X27.27162 Y8.98080
X30.15310 Y8.98083
X30.39785 Y8.81375
X30.54662 Y8.74992
X30.78236 Y8.69312
X31.74192 Y8.68083
X31.94532 Y8.69924
X32.17905 Y8.76401
X32.39495 Y8.87450
X32.63996 Y9.08484
X32.78182 Y9.28149
X32.88124 Y9.50275
X32.92180 Y9.65944
X32.94225 Y9.90104
G04 P0 ( dwell for no time -- G64 should not smooth over this point )
G00 Z5.00000 ( retract )

G00 X25.32225 Y14.98104 ( rapid move to begin. )
F300.00000
G01 Z-0.15000
G04 P0 ( dwell for no time -- G64 should not smooth over this point )
F600.00000
G01 X25.32225 Y14.98104
X25.29365 Y15.22189
X25.21714 Y15.45201
X25.04633 Y15.72608
X24.87343 Y15.89608
X24.66977 Y16.02788
X24.52100 Y16.09171
X24.28527 Y16.14850
X23.32568 Y16.16080
X23.12230 Y16.14238
X22.81420 Y16.04568
X22.67267 Y15.96712
X22.53625 Y15.86080
X19.70666 Y15.86080
X19.54380 Y16.02366
X19.54382 Y16.25574
X19.64687 Y16.28127
X19.77664 Y16.36798
X19.86336 Y16.49775
X19.89378 Y16.65081
X19.89378 Y18.35078
X19.86336 Y18.50387
X19.77664 Y18.63364
X19.64687 Y18.72035
X19.49379 Y18.75078
X17.79381 Y18.75078
X17.64075 Y18.72035
X17.57159 Y18.68337
X17.51099 Y18.63364
X17.42427 Y18.50387
X17.39382 Y18.35078
X17.40151 Y16.57278
X17.42427 Y16.49775
X17.51099 Y16.36798
X17.64075 Y16.28127
X17.74380 Y16.25574
X17.74576 Y15.61155
X17.79910 Y15.34340
X17.87532 Y15.18450
X18.00743 Y15.01444
X18.69744 Y14.32443
X18.80230 Y14.23588
X18.95393 Y14.14612
X19.12020 Y14.08765
X19.33382 Y14.06080
X22.53310 Y14.06083
X22.77785 Y13.89375
X22.92662 Y13.82992
X23.16236 Y13.77312
X24.12192 Y13.76083
X24.32532 Y13.77924
X24.55905 Y13.84401
X24.77495 Y13.95450
X25.01996 Y14.16484
X25.16182 Y14.36149
X25.26124 Y14.58275
X25.30180 Y14.73944
X25.32225 Y14.98104
G04 P0 ( dwell for no time -- G64 should not smooth over this point )
G00 Z5.00000 ( retract )

G00 X25.32225 Y12.44104 ( rapid move to begin. )
F300.00000
G01 Z-0.15000
G04 P0 ( dwell for no time -- G64 should not smooth over this point )
F600.00000
G01 X25.32225 Y12.44104
X25.29365 Y12.68189
X25.21714 Y12.91201
X25.04633 Y13.18608
X24.87343 Y13.35608
X24.66977 Y13.48788
X24.52100 Y13.55171
X24.28527 Y13.60850
X23.32568 Y13.62080
X23.12230 Y13.60238
X22.81420 Y13.50568
X22.67267 Y13.42712
X22.53625 Y13.32080
X19.50687 Y13.32080
X19.28482 Y13.49230
X19.05597 Y13.59941
X18.81032 Y13.65824
X18.66412 Y13.67028
X18.43219 Y13.65130
X18.18894 Y13.58359
X17.96415 Y13.46819
X17.76720 Y13.30990
X17.60618 Y13.11529
X17.48762 Y12.89212
X17.41642 Y12.64983
X17.39544 Y12.39804
X17.42559 Y12.14717
X17.50558 Y11.90762
X17.63224 Y11.68895
X17.80024 Y11.50030
X18.00281 Y11.34933
X18.23166 Y11.24221
X18.47730 Y11.18339
X18.62351 Y11.17135
X18.85543 Y11.19032
X19.09869 Y11.25804
X19.32348 Y11.37343
X19.50773 Y11.52080
X22.53310 Y11.52083
X22.77785 Y11.35375
X22.92662 Y11.28992
X23.16236 Y11.23312
X24.12192 Y11.22083
X24.32532 Y11.23924
X24.55905 Y11.30401
X24.77495 Y11.41450
X25.01996 Y11.62484
X25.16182 Y11.82149
X25.26124 Y12.04275
X25.30180 Y12.19944
X25.32225 Y12.44104
G04 P0 ( dwell for no time -- G64 should not smooth over this point )
G00 Z5.00000 ( retract )

G00 X25.32225 Y9.90104 ( rapid move to begin. )
F300.00000
G01 Z-0.15000
G04 P0 ( dwell for no time -- G64 should not smooth over this point )
F600.00000
G01 X25.32225 Y9.90104
X25.29365 Y10.14189
X25.21714 Y10.37201
X25.04633 Y10.64608
X24.87343 Y10.81608
X24.66977 Y10.94788
X24.52100 Y11.01171
X24.28527 Y11.06850
X23.32568 Y11.08080
X23.12230 Y11.06238
X22.81420 Y10.96568
X22.67267 Y10.88712
X22.53625 Y10.78080
X19.50687 Y10.78080
X19.28482 Y10.95230
X19.05597 Y11.05941
X18.81032 Y11.11824
X18.66412 Y11.13028
X18.43219 Y11.11130
X18.18894 Y11.04359
X17.96415 Y10.92819
X17.76720 Y10.76990
X17.60618 Y10.57529
X17.48762 Y10.35212
X17.41642 Y10.10983
X17.39544 Y9.85804
X17.42559 Y9.60717
X17.50558 Y9.36762
X17.63224 Y9.14895
X17.80024 Y8.96030
X18.00281 Y8.80933
X18.23166 Y8.70221
X18.47730 Y8.64339
X18.62351 Y8.63135
X18.85543 Y8.65032
X19.09869 Y8.71804
X19.32348 Y8.83343
X19.50773 Y8.98080
X22.53310 Y8.98083
X22.77785 Y8.81375
X22.92662 Y8.74992
X23.16236 Y8.69312
X24.12192 Y8.68083
X24.32532 Y8.69924
X24.55905 Y8.76401
X24.77495 Y8.87450
X25.01996 Y9.08484
X25.16182 Y9.28149
X25.26124 Y9.50275
X25.30180 Y9.65944
X25.32225 Y9.90104
G04 P0 ( dwell for no time -- G64 should not smooth over this point )
G00 Z5.00000 ( retract )

G00 X25.32380 Y6.54080 ( rapid move to begin. )
F300.00000
G01 Z-0.15000
G04 P0 ( dwell for no time -- G64 should not smooth over this point )
F600.00000
G01 X25.32380 Y6.54080
X25.31613 Y8.21885
X25.29337 Y8.29388
X25.20665 Y8.42365
X25.07688 Y8.51037
X25.00185 Y8.53313
X22.44577 Y8.53313
X22.37074 Y8.51037
X22.24097 Y8.42365
X22.19124 Y8.36305
X22.13815 Y8.24082
X19.50687 Y8.24080
X19.28482 Y8.41230
X18.97878 Y8.54362
X18.66412 Y8.59028
X18.43219 Y8.57130
X18.11451 Y8.47166
X17.89770 Y8.34194
X17.71147 Y8.17128
X17.60618 Y8.03529
X17.48762 Y7.81212
X17.40415 Y7.48977
X17.39953 Y7.23717
X17.44586 Y6.98891
X17.54126 Y6.75490
X17.68175 Y6.54497
X17.86166 Y6.36757
X18.07360 Y6.23003
X18.30885 Y6.13801
X18.53753 Y6.09572
X18.85543 Y6.11032
X19.09869 Y6.17804
X19.32348 Y6.29343
X19.50773 Y6.44080
X22.13815 Y6.44080
X22.19124 Y6.31858
X22.24097 Y6.25797
X22.37074 Y6.17126
X22.44577 Y6.14850
X24.92380 Y6.14080
X25.07688 Y6.17126
X25.20665 Y6.25797
X25.29337 Y6.38774
X25.32380 Y6.54080
G04 P0 ( dwell for no time -- G64 should not smooth over this point )
G00 Z5.00000 ( retract )

G00 X17.35218 Y4.82358 ( rapid move to begin. )
F300.00000
G01 Z-0.15000
G04 P0 ( dwell for no time -- G64 should not smooth over this point )
F600.00000
G01 X17.35218 Y4.82358
X17.32203 Y5.07446
X17.24205 Y5.31401
X17.06588 Y5.59666
X16.88597 Y5.77405
X16.67403 Y5.91159
X16.51597 Y5.97941
X16.27032 Y6.03824
X16.12412 Y6.05028
X15.89219 Y6.03130
X15.64894 Y5.96359
X15.42415 Y5.84819
X15.23990 Y5.70080
X12.03165 Y5.70082
X11.92382 Y5.80865
X11.92382 Y6.54956
X12.02235 Y6.67717
X12.13312 Y6.88683
X12.20376 Y7.12739
X12.22159 Y7.41210
X12.18234 Y7.65307
X12.11272 Y7.84347
X12.04869 Y7.96384
X11.96357 Y8.08670
X11.82426 Y8.23409
X11.59083 Y8.39810
X11.29187 Y8.51019
X11.02380 Y8.54080
X7.21380 Y8.54080
X7.01230 Y8.52238
X6.69188 Y8.42005
X6.49628 Y8.30092
X6.37344 Y8.19548
X6.19206 Y7.96998
X6.06379 Y7.68040
X6.02152 Y7.47580
X6.01942 Y7.22617
X6.05536 Y7.02833
X6.14258 Y6.80036
X6.27420 Y6.59475
X6.41327 Y6.44763
X6.61050 Y6.30410
X6.74705 Y6.23580
X6.94593 Y6.17143
X7.19351 Y6.14134
X10.12380 Y6.14080
X10.13538 Y5.29899
X10.17910 Y5.12838
X10.25532 Y4.96948
X10.38743 Y4.79943
X11.05151 Y4.13806
X11.27892 Y3.98612
X11.44519 Y3.92765
X11.65880 Y3.90080
X15.24076 Y3.90083
X15.46281 Y3.72933
X15.76885 Y3.59801
X16.08351 Y3.55135
X16.31543 Y3.57032
X16.63311 Y3.66997
X16.84992 Y3.79968
X17.03616 Y3.97035
X17.14144 Y4.10634
X17.26001 Y4.32950
X17.33120 Y4.57179
X17.35218 Y4.82358
G04 P0 ( dwell for no time -- G64 should not smooth over this point )
G00 Z5.00000 ( retract )

G00 X17.35218 Y7.36358 ( rapid move to begin. )
F300.00000
G01 Z-0.15000
G04 P0 ( dwell for no time -- G64 should not smooth over this point )
F600.00000
G01 X17.35218 Y7.36358
X17.32203 Y7.61446
X17.24205 Y7.85401
X17.06588 Y8.13666
X16.88597 Y8.31405
X16.74482 Y8.41230
X16.43878 Y8.54362
X16.12412 Y8.59028
X15.81302 Y8.55505
X15.57451 Y8.47166
X15.42415 Y8.38819
X15.23990 Y8.24080
X14.50464 Y8.24080
X12.19916 Y10.54359
X12.05819 Y10.64933
X11.86258 Y10.73668
X11.74224 Y10.84171
X11.59083 Y10.93810
X11.29187 Y11.05019
X11.02380 Y11.08080
X7.21380 Y11.08080
X7.01230 Y11.06238
X6.69188 Y10.96005
X6.49628 Y10.84092
X6.37344 Y10.73548
X6.19206 Y10.50998
X6.06379 Y10.22040
X6.02152 Y10.01580
X6.01606 Y9.80927
X6.05536 Y9.56833
X6.12488 Y9.37829
X6.24911 Y9.16818
X6.33984 Y9.05934
X6.49559 Y8.91979
X6.70984 Y8.79205
X6.94593 Y8.71143
X7.21380 Y8.68080
X11.02380 Y8.68080
X11.22532 Y8.69924
X11.44138 Y8.75847
X13.49545 Y6.70443
X13.66550 Y6.57232
X13.91821 Y6.46765
X14.13182 Y6.44080
X15.24076 Y6.44083
X15.46281 Y6.26933
X15.76885 Y6.13801
X16.08351 Y6.09135
X16.39460 Y6.12658
X16.63311 Y6.20997
X16.78348 Y6.29343
X16.98043 Y6.45172
X17.14144 Y6.64634
X17.28807 Y6.94530
X17.33120 Y7.11179
X17.35218 Y7.36358
G04 P0 ( dwell for no time -- G64 should not smooth over this point )
G00 Z5.00000 ( retract )

G00 X17.35218 Y9.90358 ( rapid move to begin. )
F300.00000
G01 Z-0.15000
G04 P0 ( dwell for no time -- G64 should not smooth over this point )
F600.00000
G01 X17.35218 Y9.90358
X17.30177 Y10.23272
X17.24205 Y10.39401
X17.11538 Y10.61267
X16.88597 Y10.85405
X16.67403 Y10.99159
X16.51597 Y11.05941
X16.27032 Y11.11824
X16.12412 Y11.13028
X15.81302 Y11.09505
X15.57451 Y11.01166
X15.42415 Y10.92819
X15.23990 Y10.78080
X15.20662 Y10.78080
X12.93022 Y13.05722
X12.76017 Y13.18933
X12.50746 Y13.29400
X12.29380 Y13.32080
X11.81658 Y13.32080
X11.62700 Y13.45760
X11.49047 Y13.52590
X11.29187 Y13.59019
X11.12504 Y13.61617
X7.17334 Y13.61876
X7.01230 Y13.60238
X6.77857 Y13.53761
X6.47999 Y13.36888
X6.31766 Y13.21678
X6.21860 Y13.08879
X6.10451 Y12.87480
X6.06379 Y12.76040
X6.02152 Y12.55580
X6.01942 Y12.30617
X6.06897 Y12.06164
X6.16801 Y11.83266
X6.31230 Y11.62913
X6.49559 Y11.45979
X6.70984 Y11.33205
X6.94593 Y11.25143
X7.21380 Y11.22080
X11.06566 Y11.22301
X11.23200 Y11.24051
X11.47277 Y11.30955
X11.69408 Y11.42723
X11.81247 Y11.52083
X11.92103 Y11.52080
X14.19743 Y9.24443
X14.30228 Y9.15588
X14.52638 Y9.03610
X14.69700 Y8.99238
X15.24076 Y8.98083
X15.46281 Y8.80933
X15.76885 Y8.67801
X16.08351 Y8.63135
X16.31543 Y8.65032
X16.63311 Y8.74997
X16.84992 Y8.87968
X17.03616 Y9.05035
X17.18429 Y9.25510
X17.26001 Y9.40950
X17.33120 Y9.65179
X17.35218 Y9.90358
G04 P0 ( dwell for no time -- G64 should not smooth over this point )
G00 Z5.00000 ( retract )

G00 X17.35218 Y12.44358 ( rapid move to begin. )
F300.00000
G01 Z-0.15000
G04 P0 ( dwell for no time -- G64 should not smooth over this point )
F600.00000
G01 X17.35218 Y12.44358
X17.32203 Y12.69446
X17.24205 Y12.93401
X17.11538 Y13.15267
X17.00382 Y13.28196
X17.00189 Y14.36499
X16.97700 Y14.53946
X16.91853 Y14.70573
X16.82877 Y14.85737
X16.74022 Y14.96222
X16.10522 Y15.59722
X15.93517 Y15.72933
X15.68246 Y15.83400
X15.46880 Y15.86080
X11.81658 Y15.86080
X11.62700 Y15.99760
X11.49047 Y16.06590
X11.29187 Y16.13019
X11.04412 Y16.16029
X7.17334 Y16.15876
X7.01230 Y16.14238
X6.77857 Y16.07761
X6.49628 Y15.92092
X6.37344 Y15.81548
X6.21860 Y15.62879
X6.10451 Y15.41480
X6.06379 Y15.30040
X6.02152 Y15.09580
X6.02460 Y14.80596
X6.08228 Y14.56339
X6.18891 Y14.33784
X6.33984 Y14.13934
X6.52853 Y13.97637
X6.74705 Y13.85580
X6.87278 Y13.81064
X7.07095 Y13.76974
X11.02380 Y13.76080
X11.23200 Y13.78051
X11.47277 Y13.84955
X11.69408 Y13.96723
X11.81247 Y14.06083
X15.09603 Y14.06080
X15.20380 Y13.95303
X15.20380 Y13.28531
X15.02333 Y13.04653
X14.91955 Y12.81633
X14.86415 Y12.56977
X14.85953 Y12.31717
X14.88559 Y12.14717
X15.00126 Y11.83490
X15.14175 Y11.62497
X15.26024 Y11.50030
X15.53360 Y11.31003
X15.76885 Y11.21801
X16.08351 Y11.17135
X16.31543 Y11.19032
X16.63311 Y11.28997
X16.84992 Y11.41968
X17.03616 Y11.59035
X17.18429 Y11.79510
X17.26001 Y11.94950
X17.33120 Y12.19179
X17.35218 Y12.44358
G04 P0 ( dwell for no time -- G64 should not smooth over this point )
G00 Z5.00000 ( retract )

G00 X17.35218 Y17.52358 ( rapid move to begin. )
F300.00000
G01 Z-0.15000
G04 P0 ( dwell for no time -- G64 should not smooth over this point )
F600.00000
G01 X17.35218 Y17.52358
X17.32203 Y17.77446
X17.24205 Y18.01401
X17.11538 Y18.23267
X16.94738 Y18.42132
X16.74482 Y18.57230
X16.51597 Y18.67941
X16.27032 Y18.73824
X16.12412 Y18.75028
X15.89219 Y18.73130
X15.64894 Y18.66359
X15.42415 Y18.54819
X15.23990 Y18.40080
X11.81658 Y18.40080
X11.62700 Y18.53760
X11.49047 Y18.60590
X11.29187 Y18.67019
X11.04412 Y18.70029
X7.21380 Y18.70080
X7.01230 Y18.68238
X6.77857 Y18.61761
X6.56267 Y18.50712
X6.31766 Y18.29678
X6.17580 Y18.10014
X6.08581 Y17.91002
X6.02638 Y17.67329
X6.01500 Y17.47111
X6.04576 Y17.22907
X6.08228 Y17.10339
X6.16801 Y16.91266
X6.31230 Y16.70913
X6.44471 Y16.58000
X6.64697 Y16.44342
X6.87278 Y16.35064
X7.07095 Y16.30974
X11.02380 Y16.30080
X11.23200 Y16.32051
X11.47277 Y16.38955
X11.69408 Y16.50723
X11.81247 Y16.60083
X15.24076 Y16.60083
X15.46281 Y16.42933
X15.69166 Y16.32221
X15.93730 Y16.26339
X16.08351 Y16.25135
X16.31543 Y16.27032
X16.55869 Y16.33804
X16.78348 Y16.45343
X16.98043 Y16.61172
X17.14144 Y16.80634
X17.26001 Y17.02950
X17.33120 Y17.27179
X17.35218 Y17.52358
G04 P0 ( dwell for no time -- G64 should not smooth over this point )
G00 Z5.00000 ( retract )

G00 X17.35218 Y20.06358 ( rapid move to begin. )
F300.00000
G01 Z-0.15000
G04 P0 ( dwell for no time -- G64 should not smooth over this point )
F600.00000
G01 X17.35218 Y20.06358
X17.32203 Y20.31446
X17.24205 Y20.55401
X17.11538 Y20.77267
X16.94738 Y20.96132
X16.74482 Y21.11230
X16.51597 Y21.21941
X16.27032 Y21.27824
X16.12412 Y21.29028
X15.89219 Y21.27130
X15.64894 Y21.20359
X15.42415 Y21.08819
X15.23990 Y20.94080
X11.81658 Y20.94080
X11.62700 Y21.07760
X11.49047 Y21.14590
X11.29187 Y21.21019
X11.04412 Y21.24029
X7.21380 Y21.24080
X7.01230 Y21.22238
X6.77857 Y21.15761
X6.56267 Y21.04712
X6.31766 Y20.83678
X6.17580 Y20.64014
X6.08581 Y20.45002
X6.02638 Y20.21329
X6.01500 Y20.01111
X6.04576 Y19.76907
X6.08228 Y19.64339
X6.16801 Y19.45266
X6.31230 Y19.24913
X6.44471 Y19.12000
X6.64697 Y18.98342
X6.87278 Y18.89064
X7.07095 Y18.84974
X11.02380 Y18.84080
X11.23200 Y18.86051
X11.47277 Y18.92955
X11.69408 Y19.04723
X11.81247 Y19.14083
X15.24076 Y19.14083
X15.46281 Y18.96933
X15.69166 Y18.86221
X15.93730 Y18.80339
X16.08351 Y18.79135
X16.31543 Y18.81032
X16.55869 Y18.87804
X16.78348 Y18.99343
X16.98043 Y19.15172
X17.14144 Y19.34634
X17.26001 Y19.56950
X17.33120 Y19.81179
X17.35218 Y20.06358
G04 P0 ( dwell for no time -- G64 should not smooth over this point )
G00 Z5.00000 ( retract )

G00 X17.35218 Y22.60358 ( rapid move to begin. )
F300.00000
G01 Z-0.15000
G04 P0 ( dwell for no time -- G64 should not smooth over this point )
F600.00000
G01 X17.35218 Y22.60358
X17.32203 Y22.85446
X17.24205 Y23.09401
X17.11538 Y23.31267
X16.94738 Y23.50132
X16.74482 Y23.65230
X16.51597 Y23.75941
X16.27032 Y23.81824
X16.12412 Y23.83028
X15.89219 Y23.81130
X15.64894 Y23.74359
X15.42415 Y23.62819
X15.23990 Y23.48080
X11.81658 Y23.48080
X11.62700 Y23.61760
X11.49047 Y23.68590
X11.29187 Y23.75019
X11.04412 Y23.78029
X7.21380 Y23.78080
X7.01230 Y23.76238
X6.77857 Y23.69761
X6.56267 Y23.58712
X6.31766 Y23.37678
X6.17580 Y23.18014
X6.08581 Y22.99002
X6.02638 Y22.75329
X6.01500 Y22.55111
X6.04576 Y22.30907
X6.08228 Y22.18339
X6.16801 Y21.99266
X6.31230 Y21.78913
X6.44471 Y21.66000
X6.64697 Y21.52342
X6.87278 Y21.43064
X7.07095 Y21.38974
X11.02380 Y21.38080
X11.23200 Y21.40051
X11.47277 Y21.46955
X11.69408 Y21.58723
X11.81247 Y21.68083
X15.24076 Y21.68083
X15.46281 Y21.50933
X15.69166 Y21.40221
X15.93730 Y21.34339
X16.08351 Y21.33135
X16.31543 Y21.35032
X16.55869 Y21.41804
X16.78348 Y21.53343
X16.98043 Y21.69172
X17.14144 Y21.88634
X17.26001 Y22.10950
X17.33120 Y22.35179
X17.35218 Y22.60358
G04 P0 ( dwell for no time -- G64 should not smooth over this point )
G00 Z5.00000 ( retract )

G00 X17.35218 Y25.14358 ( rapid move to begin. )
F300.00000
G01 Z-0.15000
G04 P0 ( dwell for no time -- G64 should not smooth over this point )
F600.00000
G01 X17.35218 Y25.14358
X17.32203 Y25.39446
X17.24205 Y25.63401
X17.11538 Y25.85267
X16.94738 Y26.04132
X16.74482 Y26.19230
X16.51597 Y26.29941
X16.27032 Y26.35824
X16.12412 Y26.37028
X15.89219 Y26.35130
X15.64894 Y26.28359
X15.42415 Y26.16819
X15.23990 Y26.02080
X11.81658 Y26.02080
X11.62700 Y26.15760
X11.49047 Y26.22590
X11.29187 Y26.29019
X11.04412 Y26.32029
X7.21380 Y26.32080
X7.01230 Y26.30238
X6.77857 Y26.23761
X6.56267 Y26.12712
X6.31766 Y25.91678
X6.17580 Y25.72014
X6.08581 Y25.53002
X6.02638 Y25.29329
X6.01500 Y25.09111
X6.04576 Y24.84907
X6.08228 Y24.72339
X6.16801 Y24.53266
X6.31230 Y24.32913
X6.44471 Y24.20000
X6.64697 Y24.06342
X6.87278 Y23.97064
X7.07095 Y23.92974
X11.02380 Y23.92080
X11.23200 Y23.94051
X11.47277 Y24.00955
X11.69408 Y24.12723
X11.81247 Y24.22083
X15.24076 Y24.22083
X15.46281 Y24.04933
X15.69166 Y23.94221
X15.93730 Y23.88339
X16.08351 Y23.87135
X16.31543 Y23.89032
X16.55869 Y23.95804
X16.78348 Y24.07343
X16.98043 Y24.23172
X17.14144 Y24.42634
X17.26001 Y24.64950
X17.33120 Y24.89179
X17.35218 Y25.14358
G04 P0 ( dwell for no time -- G64 should not smooth over this point )
G00 Z5.00000 ( retract )

G00 X21.82866 Y21.94440 ( rapid move to begin. )
F300.00000
G01 Z-0.15000
G04 P0 ( dwell for no time -- G64 should not smooth over this point )
F600.00000
G01 X21.82866 Y21.94440
X22.70691 Y21.06615
X22.88857 Y21.15761
X23.12230 Y21.22238
X23.32568 Y21.24080
X24.28527 Y21.22850
X24.52100 Y21.17171
X24.74059 Y21.06856
X24.93480 Y20.92340
X25.04633 Y20.80608
X25.18151 Y20.60470
X25.27335 Y20.38022
X25.31816 Y20.14189
X25.30180 Y19.81944
X25.23312 Y19.58683
X25.16182 Y19.44149
X24.96418 Y19.18614
X24.84135 Y19.08070
X24.63342 Y18.95594
X24.32532 Y18.85924
X24.12192 Y18.84083
X23.24102 Y18.84494
X22.92662 Y18.90992
X22.70704 Y19.01306
X22.53310 Y19.14083
X22.24580 Y19.16765
X22.07953 Y19.22612
X21.92789 Y19.31588
X21.82304 Y19.40443
X20.55022 Y20.67722
X22.70330 Y18.52414
X22.88857 Y18.61761
X23.12230 Y18.68238
X23.32568 Y18.70080
X24.20660 Y18.69668
X24.44381 Y18.65592
X24.66977 Y18.56788
X24.93480 Y18.38340
X25.09588 Y18.20207
X25.18151 Y18.06470
X25.27335 Y17.84022
X25.31816 Y17.60189
X25.30180 Y17.27944
X25.23312 Y17.04683
X25.16182 Y16.90149
X25.01996 Y16.70484
X24.84135 Y16.54070
X24.63342 Y16.41594
X24.40462 Y16.33555
X24.16426 Y16.30286
X23.16236 Y16.31312
X22.92662 Y16.36992
X22.77785 Y16.43375
X22.53310 Y16.60083
X22.31700 Y16.61238
X22.07392 Y16.68612
X21.92228 Y16.77588
X21.81743 Y16.86443
X19.54103 Y19.14080
X19.50773 Y19.14080
X19.32348 Y18.99343
X19.09869 Y18.87804
X18.85543 Y18.81032
X18.62351 Y18.79135
X18.47730 Y18.80339
X18.23166 Y18.86221
X18.00281 Y18.96933
X17.80024 Y19.12030
X17.68175 Y19.24497
X17.54126 Y19.45490
X17.44586 Y19.68891
X17.39953 Y19.93717
X17.40415 Y20.18977
X17.48762 Y20.51212
X17.60618 Y20.73529
X17.76720 Y20.92990
X17.96415 Y21.08819
X18.18894 Y21.20359
X18.35302 Y21.25505
X18.60329 Y21.28873
X18.75010 Y21.28591
X18.97878 Y21.24362
X19.28482 Y21.11230
X19.50687 Y20.94080
X19.91380 Y20.94080
X20.12746 Y20.91400
X20.38017 Y20.80933
X20.55022 Y20.67722
X19.54664 Y21.68080
X19.50773 Y21.68080
X19.32348 Y21.53343
X19.09869 Y21.41804
X18.85543 Y21.35032
X18.53753 Y21.33572
X18.23166 Y21.40221
X18.00281 Y21.50933
X17.80024 Y21.66030
X17.63224 Y21.84895
X17.50558 Y22.06762
X17.42559 Y22.30717
X17.39953 Y22.47717
X17.40415 Y22.72977
X17.45955 Y22.97633
X17.60618 Y23.27529
X17.76720 Y23.46990
X17.96415 Y23.62819
X18.18894 Y23.74359
X18.43219 Y23.81130
X18.66412 Y23.83028
X18.81032 Y23.81824
X19.05597 Y23.75941
X19.21403 Y23.69159
X19.42597 Y23.55405
X19.50687 Y23.48080
X20.05617 Y23.46929
X20.29935 Y23.39553
X20.45098 Y23.30577
X20.55584 Y23.21722
X21.82866 Y21.94440
X21.93348 Y21.85588
X22.08512 Y21.76612
X22.25139 Y21.70765
X22.53310 Y21.68083
X22.77785 Y21.51375
X22.92662 Y21.44992
X23.16236 Y21.39312
X24.16426 Y21.38286
X24.40462 Y21.41555
X24.63342 Y21.49594
X24.84135 Y21.62070
X25.01996 Y21.78484
X25.16182 Y21.98149
X25.23312 Y22.12683
X25.30180 Y22.35944
X25.31816 Y22.68189
X25.29365 Y22.84189
X25.21714 Y23.07201
X25.09588 Y23.28207
X24.87343 Y23.51608
X24.66977 Y23.64788
X24.52100 Y23.71171
X24.20660 Y23.77668
X23.32568 Y23.78080
X23.12230 Y23.76238
X22.88857 Y23.69761
X22.71052 Y23.60813
X20.56142 Y25.75722
X20.45657 Y25.84577
X20.30493 Y25.93553
X20.06175 Y26.00929
X19.50687 Y26.02080
X19.28482 Y26.19230
X19.05597 Y26.29941
X18.81032 Y26.35824
X18.66412 Y26.37028
X18.43219 Y26.35130
X18.18894 Y26.28359
X17.96415 Y26.16819
X17.76720 Y26.00990
X17.60618 Y25.81529
X17.48762 Y25.59212
X17.41642 Y25.34983
X17.39544 Y25.09804
X17.42559 Y24.84717
X17.50558 Y24.60762
X17.63224 Y24.38895
X17.80024 Y24.20030
X18.00281 Y24.04933
X18.23166 Y23.94221
X18.47730 Y23.88339
X18.62351 Y23.87135
X18.85543 Y23.89032
X19.09869 Y23.95804
X19.32348 Y24.07343
X19.50773 Y24.22080
X19.55223 Y24.22080
X20.55584 Y23.21722
G04 P0 ( dwell for no time -- G64 should not smooth over this point )
G00 Z5.00000 ( retract )

G00 X22.28382 Y27.53380 ( rapid move to begin. )
F300.00000
G01 Z-0.15000
G04 P0 ( dwell for no time -- G64 should not smooth over this point )
F600.00000
G01 X22.28382 Y27.53380
X22.26632 Y27.34642
X22.20374 Y27.12552
X22.04740 Y26.85476
X21.91987 Y26.71638
X21.76891 Y26.60401
X21.48332 Y26.47683
X21.29881 Y26.43985
X21.02751 Y26.44640
X20.80478 Y26.50269
X20.67110 Y26.56222
X20.55772 Y26.63383
X19.46082 Y26.63380
X19.32401 Y26.64538
X19.15340 Y26.68910
X18.92930 Y26.80888
X18.82444 Y26.89743
X18.00743 Y27.71444
X17.87532 Y27.88450
X17.79910 Y28.04340
X17.74576 Y28.31155
X17.74380 Y28.95574
X17.64075 Y28.98127
X17.51099 Y29.06798
X17.42427 Y29.19775
X17.40151 Y29.27278
X17.39382 Y31.05078
X17.42427 Y31.20387
X17.46125 Y31.27303
X17.51099 Y31.33364
X17.64075 Y31.42035
X17.79381 Y31.45078
X19.49379 Y31.45078
X19.57184 Y31.44311
X19.71604 Y31.38337
X19.77664 Y31.33364
X19.86336 Y31.20387
X19.89378 Y31.05078
X19.89378 Y29.35081
X19.86336 Y29.19775
X19.77664 Y29.06798
X19.64687 Y28.98127
X19.54382 Y28.95574
X19.54382 Y28.72366
X19.83366 Y28.43382
X20.55772 Y28.43380
X20.67110 Y28.50540
X20.84390 Y28.57995
X21.06886 Y28.62778
X21.29881 Y28.62778
X21.56289 Y28.56494
X21.69658 Y28.50540
X21.88730 Y28.37761
X22.09652 Y28.14528
X22.18873 Y27.98122
X22.24895 Y27.80291
X22.28382 Y27.53380
G04 P0 ( dwell for no time -- G64 should not smooth over this point )
G00 Z5.00000 ( retract )

G00 X17.35218 Y30.22358 ( rapid move to begin. )
F300.00000
G01 Z-0.15000
G04 P0 ( dwell for no time -- G64 should not smooth over this point )
F600.00000
G01 X17.35218 Y30.22358
X17.32203 Y30.47446
X17.24205 Y30.71401
X17.06588 Y30.99666
X16.88597 Y31.17405
X16.67403 Y31.31159
X16.43878 Y31.40362
X16.12412 Y31.45028
X15.81302 Y31.41505
X15.57451 Y31.33166
X15.42415 Y31.24819
X15.22720 Y31.08990
X15.02333 Y30.82653
X14.94762 Y30.67212
X14.87642 Y30.42983
X14.85953 Y30.09717
X14.90586 Y29.84891
X15.00126 Y29.61490
X15.09224 Y29.46895
X15.20380 Y29.33966
X15.20380 Y28.66862
X15.09600 Y28.56082
X11.95974 Y28.56080
X11.75283 Y28.73532
X11.55258 Y28.84843
X11.29408 Y28.93240
X11.02380 Y28.96080
X7.21380 Y28.96080
X6.98492 Y28.93895
X6.68507 Y28.84843
X6.48482 Y28.73532
X6.24776 Y28.53070
X6.11080 Y28.34594
X5.97745 Y28.06255
X5.92752 Y27.83804
X5.91876 Y27.56674
X5.96663 Y27.29956
X6.11080 Y26.97571
X6.24776 Y26.79095
X6.41721 Y26.63545
X6.72416 Y26.45821
X6.98487 Y26.38270
X7.21380 Y26.36080
X11.02380 Y26.36080
X11.33454 Y26.40007
X11.55258 Y26.47322
X11.75283 Y26.58633
X11.95971 Y26.76083
X15.46880 Y26.76080
X15.68246 Y26.78765
X15.93517 Y26.89232
X16.10522 Y27.02443
X16.74022 Y27.65943
X16.82882 Y27.76436
X16.91853 Y27.91594
X16.97698 Y28.08216
X17.00189 Y28.25663
X17.00382 Y29.33631
X17.14144 Y29.50634
X17.26001 Y29.72950
X17.33120 Y29.97179
X17.35218 Y30.22358
G04 P0 ( dwell for no time -- G64 should not smooth over this point )
G00 Z5.00000 ( retract )

G00 X14.85887 Y31.37674 ( rapid move to begin. )
F300.00000
G01 Z-0.15000
G04 P0 ( dwell for no time -- G64 should not smooth over this point )
F600.00000
G01 X14.85887 Y31.37674
X14.85013 Y31.64804
X14.80020 Y31.87255
X14.70865 Y32.08352
X14.53151 Y32.33872
X14.29283 Y32.54532
X14.06126 Y32.67044
X12.97129 Y33.75736
X12.80741 Y33.88723
X12.62212 Y33.98408
X12.34158 Y34.06607
X12.13289 Y34.07918
X11.88422 Y34.04865
X11.59306 Y33.94080
X11.51265 Y33.94080
X11.42555 Y33.97720
X11.20104 Y34.02713
X10.92974 Y34.03587
X10.66256 Y33.98802
X10.53503 Y33.94082
X10.22380 Y33.94080
X10.07074 Y33.91037
X9.94097 Y33.82365
X9.85426 Y33.69388
X9.82380 Y33.54080
X9.82380 Y33.23724
X9.74570 Y32.96978
X9.72380 Y32.74080
X9.72380 Y30.26082
X9.74570 Y30.03189
X9.82380 Y29.76443
X9.83150 Y29.32277
X9.85426 Y29.24774
X9.94097 Y29.11797
X10.07074 Y29.03126
X10.22380 Y29.00080
X10.72291 Y29.00080
X10.92974 Y28.96578
X11.11788 Y28.96578
X11.32474 Y29.00080
X11.82380 Y29.00080
X11.90185 Y29.00850
X11.99268 Y29.03971
X12.18936 Y29.00685
X12.43985 Y29.01122
X12.76207 Y29.09755
X12.98123 Y29.21899
X13.11122 Y29.32425
X14.06215 Y30.27207
X14.29283 Y30.39633
X14.52989 Y30.60095
X14.66685 Y30.78571
X14.78518 Y31.03001
X14.85887 Y31.37674
G04 P0 ( dwell for no time -- G64 should not smooth over this point )
G00 Z5.00000 ( retract )

G00 X14.77452 Y34.64425 ( rapid move to begin. )
F300.00000
G01 Z-0.15000
G04 P0 ( dwell for no time -- G64 should not smooth over this point )
F600.00000
G01 X14.77452 Y34.64425
X15.55689 Y33.86188
X15.81302 Y33.95505
X16.06329 Y33.98873
X16.21010 Y33.98591
X16.43878 Y33.94362
X16.74482 Y33.81230
X16.94738 Y33.66132
X17.11538 Y33.47267
X17.24205 Y33.25401
X17.32203 Y33.01446
X17.34810 Y32.84446
X17.34347 Y32.59185
X17.28807 Y32.34530
X17.18429 Y32.11510
X17.03616 Y31.91035
X16.84992 Y31.73968
X16.63311 Y31.60997
X16.39460 Y31.52658
X16.14434 Y31.49290
X15.99753 Y31.49572
X15.76885 Y31.53801
X15.53360 Y31.63003
X15.32166 Y31.76757
X15.22057 Y31.86206
X15.09768 Y31.89610
X14.93878 Y31.97232
X14.76873 Y32.10443
X12.49233 Y34.38080
X11.81247 Y34.38083
X11.69408 Y34.28723
X11.51191 Y34.18456
X11.31372 Y34.11789
X11.06566 Y34.08301
X7.11258 Y34.08545
X6.83295 Y34.14334
X6.64697 Y34.22342
X6.52853 Y34.29637
X6.31230 Y34.48913
X6.14258 Y34.74036
X6.05536 Y34.96833
X6.01606 Y35.20927
X6.02638 Y35.45329
X6.08581 Y35.69002
X6.21860 Y35.94879
X6.37037 Y36.13282
X6.54598 Y36.27579
X6.77857 Y36.39761
X7.01230 Y36.46238
X7.21380 Y36.48080
X11.04412 Y36.48029
X11.29187 Y36.45019
X11.49047 Y36.38590
X11.62700 Y36.31760
X11.81658 Y36.18080
X12.90429 Y36.17889
X13.07876 Y36.15400
X13.24503 Y36.09553
X13.39667 Y36.00577
X13.50152 Y35.91722
X14.77431 Y34.64443
X14.87916 Y34.55588
X15.03080 Y34.46612
X15.21937 Y34.40331
X15.32166 Y34.30757
X15.46281 Y34.20933
X15.69166 Y34.10221
X15.99753 Y34.03572
X16.31543 Y34.05032
X16.63311 Y34.14997
X16.84992 Y34.27968
X17.03616 Y34.45035
X17.18429 Y34.65510
X17.28807 Y34.88530
X17.34347 Y35.13185
X17.34810 Y35.38446
X17.30177 Y35.63272
X17.20636 Y35.86673
X17.06588 Y36.07666
X16.88597 Y36.25405
X16.74482 Y36.35230
X16.43878 Y36.48362
X16.21010 Y36.52591
X16.06329 Y36.52873
X15.81302 Y36.49505
X15.56049 Y36.40386
X13.50711 Y38.45722
X13.33705 Y38.58933
X13.17815 Y38.66555
X12.90988 Y38.71889
X11.95974 Y38.72080
X11.75283 Y38.89532
X11.55258 Y39.00843
X11.29408 Y39.09240
X11.06561 Y39.11861
X7.21380 Y39.12080
X6.94357 Y39.09240
X6.72416 Y39.02344
X6.41721 Y38.84620
X6.24776 Y38.69070
X6.11080 Y38.50594
X5.97745 Y38.22255
X5.92752 Y37.99804
X5.91876 Y37.72674
X5.97745 Y37.41910
X6.06900 Y37.20813
X6.24776 Y36.95095
X6.41721 Y36.79545
X6.68507 Y36.63322
X6.90311 Y36.56007
X7.21380 Y36.52080
X11.06566 Y36.52301
X11.33454 Y36.56007
X11.55258 Y36.63322
X11.75283 Y36.74633
X11.95971 Y36.92083
X12.49791 Y36.92080
X13.50152 Y35.91722
G04 P0 ( dwell for no time -- G64 should not smooth over this point )
G00 Z5.00000 ( retract )

G00 X17.35218 Y37.84358 ( rapid move to begin. )
F300.00000
G01 Z-0.15000
G04 P0 ( dwell for no time -- G64 should not smooth over this point )
F600.00000
G01 X17.35218 Y37.84358
X17.32203 Y38.09446
X17.24205 Y38.33401
X17.11538 Y38.55267
X17.00382 Y38.68196
X17.00189 Y39.76499
X16.97700 Y39.93946
X16.91853 Y40.10573
X16.82877 Y40.25737
X16.74022 Y40.36222
X16.10522 Y40.99722
X15.93517 Y41.12933
X15.68246 Y41.23400
X15.46880 Y41.26080
X11.81658 Y41.26080
X11.62700 Y41.39760
X11.49047 Y41.46590
X11.29187 Y41.53019
X11.04412 Y41.56029
X7.17334 Y41.55876
X7.01230 Y41.54238
X6.77857 Y41.47761
X6.49628 Y41.32092
X6.37344 Y41.21548
X6.21860 Y41.02879
X6.10451 Y40.81480
X6.06379 Y40.70040
X6.02152 Y40.49580
X6.02460 Y40.20596
X6.08228 Y39.96339
X6.18891 Y39.73784
X6.33984 Y39.53934
X6.52853 Y39.37637
X6.74705 Y39.25580
X6.87278 Y39.21064
X7.07095 Y39.16974
X11.02380 Y39.16080
X11.23200 Y39.18051
X11.47277 Y39.24955
X11.69408 Y39.36723
X11.81247 Y39.46083
X15.09603 Y39.46080
X15.20380 Y39.35303
X15.20380 Y38.68531
X15.02333 Y38.44653
X14.91955 Y38.21633
X14.86415 Y37.96977
X14.85953 Y37.71717
X14.88559 Y37.54717
X15.00126 Y37.23490
X15.14175 Y37.02497
X15.26024 Y36.90030
X15.53360 Y36.71003
X15.76885 Y36.61801
X16.08351 Y36.57135
X16.31543 Y36.59032
X16.63311 Y36.68997
X16.84992 Y36.81968
X17.03616 Y36.99035
X17.18429 Y37.19510
X17.26001 Y37.34950
X17.33120 Y37.59179
X17.35218 Y37.84358
G04 P0 ( dwell for no time -- G64 should not smooth over this point )
G00 Z5.00000 ( retract )

G00 X25.32380 Y32.57580 ( rapid move to begin. )
F300.00000
G01 Z-0.15000
G04 P0 ( dwell for no time -- G64 should not smooth over this point )
F600.00000
G01 X25.32380 Y32.57580
X25.31600 Y34.25428
X25.25639 Y34.39805
X25.14605 Y34.50839
X25.00185 Y34.56813
X24.92380 Y34.57580
X22.52380 Y34.57580
X22.37074 Y34.54537
X22.24097 Y34.45865
X22.15426 Y34.32888
X22.13150 Y34.25385
X22.12380 Y33.64080
X19.50687 Y33.64080
X19.28482 Y33.81230
X18.97878 Y33.94362
X18.66412 Y33.99028
X18.35302 Y33.95505
X18.11451 Y33.87166
X17.96415 Y33.78819
X17.76720 Y33.62990
X17.60618 Y33.43529
X17.45955 Y33.13633
X17.41642 Y32.96983
X17.39544 Y32.71804
X17.42559 Y32.46717
X17.50558 Y32.22762
X17.63224 Y32.00895
X17.80024 Y31.82030
X18.00281 Y31.66933
X18.23166 Y31.56221
X18.47730 Y31.50339
X18.62351 Y31.49135
X18.85543 Y31.51032
X19.09869 Y31.57804
X19.32348 Y31.69343
X19.50773 Y31.84080
X23.08880 Y31.84080
X23.22566 Y31.85238
X23.39627 Y31.89610
X23.55517 Y31.97232
X23.79662 Y32.17583
X24.92380 Y32.17580
X25.07688 Y32.20626
X25.20665 Y32.29297
X25.25639 Y32.35358
X25.29337 Y32.42274
X25.32380 Y32.57580
G04 P0 ( dwell for no time -- G64 should not smooth over this point )
G00 Z5.00000 ( retract )

G00 X25.32225 Y35.93604 ( rapid move to begin. )
F300.00000
G01 Z-0.15000
G04 P0 ( dwell for no time -- G64 should not smooth over this point )
F600.00000
G01 X25.32225 Y35.93604
X25.29365 Y36.17689
X25.18151 Y36.47970
X25.04633 Y36.68108
X24.93480 Y36.79840
X24.74059 Y36.94356
X24.52100 Y37.04671
X24.28527 Y37.10350
X23.28334 Y37.11376
X23.12230 Y37.09738
X22.88857 Y37.03261
X22.67267 Y36.92212
X22.53625 Y36.81580
X21.52380 Y36.81580
X21.38710 Y36.80429
X21.21639 Y36.76053
X21.05751 Y36.68433
X20.91657 Y36.57864
X20.51601 Y36.18080
X19.50687 Y36.18080
X19.42597 Y36.25405
X19.21403 Y36.39159
X18.97878 Y36.48362
X18.75010 Y36.52591
X18.43219 Y36.51130
X18.18894 Y36.44359
X17.89770 Y36.28194
X17.76720 Y36.16990
X17.60618 Y35.97529
X17.48762 Y35.75212
X17.41642 Y35.50983
X17.39953 Y35.17717
X17.42559 Y35.00717
X17.50558 Y34.76762
X17.63224 Y34.54895
X17.80024 Y34.36030
X18.00281 Y34.20933
X18.23166 Y34.10221
X18.47730 Y34.04339
X18.68434 Y34.03290
X18.93460 Y34.06658
X19.09869 Y34.11804
X19.32348 Y34.23343
X19.50773 Y34.38080
X20.88880 Y34.38080
X21.02566 Y34.39238
X21.19627 Y34.43610
X21.35517 Y34.51232
X21.49614 Y34.61806
X21.89663 Y35.01583
X22.53310 Y35.01583
X22.77785 Y34.84875
X22.92662 Y34.78492
X23.16236 Y34.72812
X24.12192 Y34.71583
X24.40462 Y34.75055
X24.55905 Y34.79901
X24.77495 Y34.90950
X25.01996 Y35.11984
X25.16182 Y35.31649
X25.26124 Y35.53775
X25.30180 Y35.69444
X25.32225 Y35.93604
G04 P0 ( dwell for no time -- G64 should not smooth over this point )
G00 Z5.00000 ( retract )

G00 X25.32225 Y38.47604 ( rapid move to begin. )
F300.00000
G01 Z-0.15000
G04 P0 ( dwell for no time -- G64 should not smooth over this point )
F600.00000
G01 X25.32225 Y38.47604
X25.29365 Y38.71689
X25.21714 Y38.94701
X25.04633 Y39.22108
