( pcb2gcode 1.3.2 )
( Software-independent Gcode )
( This file uses a mill head of 0.80000mm to drill the 4 bit sizes. )
( Bit sizes: [0.01600] [0.02800] [0.03100] [0.03900] )

G94       (Millimeters per minute feed rate.)
G21       (Units == Millimeters.)
G91.1     (Incremental arc distance mode.)
G90       (Absolute coordinates.)
S10000    (RPM spindle speed.)
F600.00000 (Feedrate)
M3        (Spindle on clockwise.)
G04 P1.00000
G00 Z5.00000

G0 X17.52081 Y23.63380
G1 Z-2.00000
G0 Z5.00000

G0 X9.90081 Y27.57080
G1 Z-2.00000
G0 Z5.00000

G0 X17.52081 Y49.79580
G1 Z-2.00000
G0 Z5.00000

G0 X17.52081 Y75.83080
G1 Z-2.00000
G0 Z5.00000

G0 X9.90081 Y83.45080
G1 Z-2.00000
G0 Z5.00000

G0 X9.90081 Y85.99080
G1 Z-2.00000
G0 Z5.00000

G0 X17.52081 Y101.86580
G1 Z-2.00000
G0 Z5.00000

G0 X25.14081 Y107.58080
G1 Z-2.00000
G0 Z5.00000

G0 X34.28481 Y112.27980
G1 Z-2.00000
G0 Z5.00000

G0 X30.22081 Y117.74080
G1 Z-2.00000
G0 Z5.00000

G0 X32.12581 Y120.28080
G1 Z-2.00000
G0 Z5.00000

G0 X25.14081 Y122.82080
G1 Z-2.00000
G0 Z5.00000

G0 X9.90081 Y137.42580
G1 Z-2.00000
G0 Z5.00000

G0 X21.33081 Y134.25080
G1 Z-2.00000
G0 Z5.00000

G0 X29.20481 Y130.44080
G1 Z-2.00000
G0 Z5.00000

G0 X41.65081 Y134.25080
G1 Z-2.00000
G0 Z5.00000

G0 X43.94697 Y105.86630
G1 Z-2.00000
G0 Z5.00000

G0 X28.31581 Y101.86580
G1 Z-2.00000
G0 Z5.00000

G0 X25.14081 Y96.78580
G1 Z-2.00000
G0 Z5.00000

G0 X30.22081 Y91.70580
G1 Z-2.00000
G0 Z5.00000

G0 X34.03081 Y94.24580
G1 Z-2.00000
G0 Z5.00000

G0 X37.33281 Y86.62580
G1 Z-2.00000
G0 Z5.00000

G0 X30.22081 Y86.62580
G1 Z-2.00000
G0 Z5.00000

G0 X25.14081 Y81.54580
G1 Z-2.00000
G0 Z5.00000

G0 X30.22081 Y75.83080
G1 Z-2.00000
G0 Z5.00000

G0 X25.14081 Y70.75080
G1 Z-2.00000
G0 Z5.00000

G0 X30.22081 Y68.21080
G1 Z-2.00000
G0 Z5.00000

G0 X34.03081 Y68.21080
G1 Z-2.00000
G0 Z5.00000

G0 X35.53195 Y60.46380
G1 Z-2.00000
G0 Z5.00000

G0 X30.22081 Y60.59080
G1 Z-2.00000
G0 Z5.00000

G0 X25.14081 Y55.51080
G1 Z-2.00000
G0 Z5.00000

G0 X30.22081 Y49.79580
G1 Z-2.00000
G0 Z5.00000

G0 X25.14081 Y44.71580
G1 Z-2.00000
G0 Z5.00000

G0 X30.22081 Y42.17580
G1 Z-2.00000
G0 Z5.00000

G0 X34.03081 Y42.17580
G1 Z-2.00000
G0 Z5.00000

G0 X44.44481 Y44.71580
G1 Z-2.00000
G0 Z5.00000

G0 X41.90481 Y34.55580
G1 Z-2.00000
G0 Z5.00000

G0 X36.06281 Y39.63580
G1 Z-2.00000
G0 Z5.00000

G0 X32.12581 Y39.63580
G1 Z-2.00000
G0 Z5.00000

G0 X30.22081 Y34.55580
G1 Z-2.00000
G0 Z5.00000

G0 X25.14081 Y29.47580
G1 Z-2.00000
G0 Z5.00000

G0 X30.22081 Y23.76080
G1 Z-2.00000
G0 Z5.00000

G0 X25.14081 Y18.68080
G1 Z-2.00000
G0 Z5.00000

G0 X30.22081 Y16.14080
G1 Z-2.00000
G0 Z5.00000

G0 X34.00795 Y16.14080
G1 Z-2.00000
G0 Z5.00000

G0 X25.14081 Y3.44080
G1 Z-2.00000
G0 Z5.00000

G0 X39.70517 Y119.64580
G1 Z-2.00000
G0 Z5.00000

G0 X37.20581 Y119.64580
G1 Z-2.00000
G0 Z5.00000

G0 X3.55081 Y3.44080
G1 Z-2.00000
G0 Z5.00000

G0 X3.55081 Y5.98080
G1 Z-2.00000
G0 Z5.00000

G0 X3.55081 Y8.52080
G1 Z-2.00000
G0 Z5.00000

G0 X3.55081 Y11.06080
G1 Z-2.00000
G0 Z5.00000

G0 X3.55081 Y13.60080
G1 Z-2.00000
G0 Z5.00000

G0 X3.55081 Y16.14080
G1 Z-2.00000
G0 Z5.00000

G0 X3.55081 Y18.68080
G1 Z-2.00000
G0 Z5.00000

G0 X3.55081 Y21.22080
G1 Z-2.00000
G0 Z5.00000

G0 X3.55081 Y23.76080
G1 Z-2.00000
G0 Z5.00000

G0 X3.55081 Y26.30080
G1 Z-2.00000
G0 Z5.00000

G0 X3.55081 Y28.84080
G1 Z-2.00000
G0 Z5.00000

G0 X3.55081 Y31.38080
G1 Z-2.00000
G0 Z5.00000

G0 X3.55081 Y33.92080
G1 Z-2.00000
G0 Z5.00000

G0 X3.55081 Y36.46080
G1 Z-2.00000
G0 Z5.00000

G0 X3.55081 Y39.00080
G1 Z-2.00000
G0 Z5.00000

G0 X3.55081 Y41.54080
G1 Z-2.00000
G0 Z5.00000

G0 X3.55081 Y44.08080
G1 Z-2.00000
G0 Z5.00000

G0 X3.55081 Y46.62080
G1 Z-2.00000
G0 Z5.00000

G0 X3.55081 Y49.16080
G1 Z-2.00000
G0 Z5.00000

G0 X3.55081 Y51.70080
G1 Z-2.00000
G0 Z5.00000

G0 X7.36081 Y51.70080
G1 Z-2.00000
G0 Z5.00000

G0 X7.36081 Y49.16080
G1 Z-2.00000
G0 Z5.00000

G0 X7.36081 Y46.62080
G1 Z-2.00000
G0 Z5.00000

G0 X7.36081 Y44.08080
G1 Z-2.00000
G0 Z5.00000

G0 X7.36081 Y41.54080
G1 Z-2.00000
G0 Z5.00000

G0 X7.36081 Y39.00080
G1 Z-2.00000
G0 Z5.00000

G0 X7.36081 Y36.46080
G1 Z-2.00000
G0 Z5.00000

G0 X7.36081 Y33.92080
G1 Z-2.00000
G0 Z5.00000

G0 X7.36081 Y31.38080
G1 Z-2.00000
G0 Z5.00000

G0 X7.36081 Y28.84080
G1 Z-2.00000
G0 Z5.00000

G0 X7.36081 Y26.30080
G1 Z-2.00000
G0 Z5.00000

G0 X7.36081 Y23.76080
G1 Z-2.00000
G0 Z5.00000

G0 X7.36081 Y21.22080
G1 Z-2.00000
G0 Z5.00000

G0 X7.36081 Y18.68080
G1 Z-2.00000
G0 Z5.00000

G0 X7.36081 Y16.14080
G1 Z-2.00000
G0 Z5.00000

G0 X7.36081 Y13.60080
G1 Z-2.00000
G0 Z5.00000

G0 X7.36081 Y11.06080
G1 Z-2.00000
G0 Z5.00000

G0 X7.36081 Y8.52080
G1 Z-2.00000
G0 Z5.00000

G0 X7.36081 Y5.98080
G1 Z-2.00000
G0 Z5.00000

G0 X7.36081 Y3.44080
G1 Z-2.00000
G0 Z5.00000

G0 X20.06081 Y16.14080
G1 Z-2.00000
G0 Z5.00000

G0 X20.06081 Y13.60080
G1 Z-2.00000
G0 Z5.00000

G0 X20.06081 Y11.06080
G1 Z-2.00000
G0 Z5.00000

G0 X20.06081 Y8.52080
G1 Z-2.00000
G0 Z5.00000

G0 X20.06081 Y5.98080
G1 Z-2.00000
G0 Z5.00000

G0 X20.06081 Y3.44080
G1 Z-2.00000
G0 Z5.00000

G0 X27.68081 Y3.44080
G1 Z-2.00000
G0 Z5.00000

G0 X27.68081 Y5.98080
G1 Z-2.00000
G0 Z5.00000

G0 X27.68081 Y8.52080
G1 Z-2.00000
G0 Z5.00000

G0 X27.68081 Y11.06080
G1 Z-2.00000
G0 Z5.00000

G0 X27.68081 Y13.60080
G1 Z-2.00000
G0 Z5.00000

G0 X27.68081 Y16.14080
G1 Z-2.00000
G0 Z5.00000

G0 X27.68081 Y18.68080
G1 Z-2.00000
G0 Z5.00000

G0 X27.68081 Y21.22080
G1 Z-2.00000
G0 Z5.00000

G0 X20.06081 Y18.68080
G1 Z-2.00000
G0 Z5.00000

G0 X20.06081 Y21.22080
G1 Z-2.00000
G0 Z5.00000

G0 X20.06081 Y29.47580
G1 Z-2.00000
G0 Z5.00000

G0 X20.06081 Y32.01580
G1 Z-2.00000
G0 Z5.00000

G0 X20.06081 Y34.55580
G1 Z-2.00000
G0 Z5.00000

G0 X20.06081 Y37.09580
G1 Z-2.00000
G0 Z5.00000

G0 X27.68081 Y29.47580
G1 Z-2.00000
G0 Z5.00000

G0 X27.68081 Y32.01580
G1 Z-2.00000
G0 Z5.00000

G0 X27.68081 Y34.55580
G1 Z-2.00000
G0 Z5.00000

G0 X27.68081 Y37.09580
G1 Z-2.00000
G0 Z5.00000

G0 X27.68081 Y39.63580
G1 Z-2.00000
G0 Z5.00000

G0 X27.68081 Y42.17580
G1 Z-2.00000
G0 Z5.00000

G0 X20.06081 Y39.63580
G1 Z-2.00000
G0 Z5.00000

G0 X20.06081 Y42.17580
G1 Z-2.00000
G0 Z5.00000

G0 X20.06081 Y44.71580
G1 Z-2.00000
G0 Z5.00000

G0 X20.06081 Y47.25580
G1 Z-2.00000
G0 Z5.00000

G0 X27.68081 Y44.71580
G1 Z-2.00000
G0 Z5.00000

G0 X27.68081 Y47.25580
G1 Z-2.00000
G0 Z5.00000

G0 X27.68081 Y55.51080
G1 Z-2.00000
G0 Z5.00000

G0 X27.68081 Y58.05080
G1 Z-2.00000
G0 Z5.00000

G0 X27.68081 Y60.59080
G1 Z-2.00000
G0 Z5.00000

G0 X27.68081 Y63.13080
G1 Z-2.00000
G0 Z5.00000

G0 X27.68081 Y65.67080
G1 Z-2.00000
G0 Z5.00000

G0 X27.68081 Y68.21080
G1 Z-2.00000
G0 Z5.00000

G0 X27.68081 Y70.75080
G1 Z-2.00000
G0 Z5.00000

G0 X20.06081 Y63.13080
G1 Z-2.00000
G0 Z5.00000

G0 X20.06081 Y60.59080
G1 Z-2.00000
G0 Z5.00000

G0 X20.06081 Y58.05080
G1 Z-2.00000
G0 Z5.00000

G0 X20.06081 Y55.51080
G1 Z-2.00000
G0 Z5.00000

G0 X7.36081 Y59.32080
G1 Z-2.00000
G0 Z5.00000

G0 X3.55081 Y59.32080
G1 Z-2.00000
G0 Z5.00000

G0 X3.55081 Y61.86080
G1 Z-2.00000
G0 Z5.00000

G0 X3.55081 Y64.40080
G1 Z-2.00000
G0 Z5.00000

G0 X3.55081 Y66.94080
G1 Z-2.00000
G0 Z5.00000

G0 X3.55081 Y69.48080
G1 Z-2.00000
G0 Z5.00000

G0 X3.55081 Y72.02080
G1 Z-2.00000
G0 Z5.00000

G0 X3.55081 Y74.56080
G1 Z-2.00000
G0 Z5.00000

G0 X3.55081 Y77.10080
G1 Z-2.00000
G0 Z5.00000

G0 X3.55081 Y79.64080
G1 Z-2.00000
G0 Z5.00000

G0 X3.55081 Y82.18080
G1 Z-2.00000
G0 Z5.00000

G0 X3.55081 Y84.72080
G1 Z-2.00000
G0 Z5.00000

G0 X3.55081 Y87.26080
G1 Z-2.00000
G0 Z5.00000

G0 X3.55081 Y89.80080
G1 Z-2.00000
G0 Z5.00000

G0 X3.55081 Y92.34080
G1 Z-2.00000
G0 Z5.00000

G0 X3.55081 Y94.88080
G1 Z-2.00000
G0 Z5.00000

G0 X3.55081 Y97.42080
G1 Z-2.00000
G0 Z5.00000

G0 X3.55081 Y99.96080
G1 Z-2.00000
G0 Z5.00000

G0 X3.55081 Y102.50080
G1 Z-2.00000
G0 Z5.00000

G0 X3.55081 Y105.04080
G1 Z-2.00000
G0 Z5.00000

G0 X3.55081 Y107.58080
G1 Z-2.00000
G0 Z5.00000

G0 X3.55081 Y110.12080
G1 Z-2.00000
G0 Z5.00000

G0 X3.55081 Y112.66080
G1 Z-2.00000
G0 Z5.00000

G0 X3.55081 Y115.20080
G1 Z-2.00000
G0 Z5.00000

G0 X3.55081 Y117.74080
G1 Z-2.00000
G0 Z5.00000

G0 X3.55081 Y120.28080
G1 Z-2.00000
G0 Z5.00000

G0 X3.55081 Y122.82080
G1 Z-2.00000
G0 Z5.00000

G0 X3.55081 Y125.36080
G1 Z-2.00000
G0 Z5.00000

G0 X3.55081 Y127.90080
G1 Z-2.00000
G0 Z5.00000

G0 X3.55081 Y130.44080
G1 Z-2.00000
G0 Z5.00000

G0 X3.55081 Y132.98080
G1 Z-2.00000
G0 Z5.00000

G0 X7.36081 Y132.98080
G1 Z-2.00000
G0 Z5.00000

G0 X7.36081 Y130.44080
G1 Z-2.00000
G0 Z5.00000

G0 X7.36081 Y127.90080
G1 Z-2.00000
G0 Z5.00000

G0 X7.36081 Y125.36080
G1 Z-2.00000
G0 Z5.00000

G0 X7.36081 Y122.82080
G1 Z-2.00000
G0 Z5.00000

G0 X7.36081 Y120.28080
G1 Z-2.00000
G0 Z5.00000

G0 X7.36081 Y117.74080
G1 Z-2.00000
G0 Z5.00000

G0 X7.36081 Y115.20080
G1 Z-2.00000
G0 Z5.00000

G0 X7.36081 Y112.66080
G1 Z-2.00000
G0 Z5.00000

G0 X7.36081 Y110.12080
G1 Z-2.00000
G0 Z5.00000

G0 X7.36081 Y107.58080
G1 Z-2.00000
G0 Z5.00000

G0 X7.36081 Y105.04080
G1 Z-2.00000
G0 Z5.00000

G0 X7.36081 Y102.50080
G1 Z-2.00000
G0 Z5.00000

G0 X7.36081 Y99.96080
G1 Z-2.00000
G0 Z5.00000

G0 X7.36081 Y97.42080
G1 Z-2.00000
G0 Z5.00000

G0 X7.36081 Y94.88080
G1 Z-2.00000
G0 Z5.00000

G0 X7.36081 Y92.34080
G1 Z-2.00000
G0 Z5.00000

G0 X7.36081 Y89.80080
G1 Z-2.00000
G0 Z5.00000

G0 X7.36081 Y87.26080
G1 Z-2.00000
G0 Z5.00000

G0 X7.36081 Y84.72080
G1 Z-2.00000
G0 Z5.00000

G0 X7.36081 Y82.18080
G1 Z-2.00000
G0 Z5.00000

G0 X7.36081 Y79.64080
G1 Z-2.00000
G0 Z5.00000

G0 X7.36081 Y77.10080
G1 Z-2.00000
G0 Z5.00000

G0 X7.36081 Y74.56080
G1 Z-2.00000
G0 Z5.00000

G0 X7.36081 Y72.02080
G1 Z-2.00000
G0 Z5.00000

G0 X7.36081 Y69.48080
G1 Z-2.00000
G0 Z5.00000

G0 X7.36081 Y66.94080
G1 Z-2.00000
G0 Z5.00000

G0 X7.36081 Y64.40080
G1 Z-2.00000
G0 Z5.00000

G0 X7.36081 Y61.86080
G1 Z-2.00000
G0 Z5.00000

G0 X20.06081 Y65.67080
G1 Z-2.00000
G0 Z5.00000

G0 X20.06081 Y68.21080
G1 Z-2.00000
G0 Z5.00000

G0 X20.06081 Y70.75080
G1 Z-2.00000
G0 Z5.00000

G0 X20.06081 Y73.29080
G1 Z-2.00000
G0 Z5.00000

G0 X27.68081 Y73.29080
G1 Z-2.00000
G0 Z5.00000

G0 X27.68081 Y81.54580
G1 Z-2.00000
G0 Z5.00000

G0 X27.68081 Y84.08580
G1 Z-2.00000
G0 Z5.00000

G0 X20.06081 Y81.54580
G1 Z-2.00000
G0 Z5.00000

G0 X20.06081 Y84.08580
G1 Z-2.00000
G0 Z5.00000

G0 X20.06081 Y86.62580
G1 Z-2.00000
G0 Z5.00000

G0 X20.06081 Y89.16580
G1 Z-2.00000
G0 Z5.00000

G0 X20.06081 Y91.70580
G1 Z-2.00000
G0 Z5.00000

G0 X20.06081 Y94.24580
G1 Z-2.00000
G0 Z5.00000

G0 X20.06081 Y96.78580
G1 Z-2.00000
G0 Z5.00000

G0 X20.06081 Y99.32580
G1 Z-2.00000
G0 Z5.00000

G0 X27.68081 Y86.62580
G1 Z-2.00000
G0 Z5.00000

G0 X27.68081 Y89.16580
G1 Z-2.00000
G0 Z5.00000

G0 X27.68081 Y91.70580
G1 Z-2.00000
G0 Z5.00000

G0 X27.68081 Y94.24580
G1 Z-2.00000
G0 Z5.00000

G0 X27.68081 Y96.78580
G1 Z-2.00000
G0 Z5.00000

G0 X27.68081 Y99.32580
G1 Z-2.00000
G0 Z5.00000

G0 X27.68081 Y107.58080
G1 Z-2.00000
G0 Z5.00000

G0 X27.68081 Y110.12080
G1 Z-2.00000
G0 Z5.00000

G0 X20.06081 Y107.58080
G1 Z-2.00000
G0 Z5.00000

G0 X20.06081 Y110.12080
G1 Z-2.00000
G0 Z5.00000

G0 X20.06081 Y112.66080
G1 Z-2.00000
G0 Z5.00000

G0 X20.06081 Y115.20080
G1 Z-2.00000
G0 Z5.00000

G0 X20.06081 Y117.74080
G1 Z-2.00000
G0 Z5.00000

G0 X20.06081 Y120.28080
G1 Z-2.00000
G0 Z5.00000

G0 X27.68081 Y112.66080
G1 Z-2.00000
G0 Z5.00000

G0 X27.68081 Y115.20080
G1 Z-2.00000
G0 Z5.00000

G0 X27.68081 Y117.74080
G1 Z-2.00000
G0 Z5.00000

G0 X27.68081 Y120.28080
G1 Z-2.00000
G0 Z5.00000

G0 X27.68081 Y122.82080
G1 Z-2.00000
G0 Z5.00000

G0 X27.68081 Y125.36080
G1 Z-2.00000
G0 Z5.00000

G0 X20.06081 Y122.82080
G1 Z-2.00000
G0 Z5.00000

G0 X20.06081 Y125.36080
G1 Z-2.00000
G0 Z5.00000

G0 X26.41081 Y130.44080
G1 Z-2.00000
G0 Z5.00000

G0 X26.41081 Y138.06080
G1 Z-2.00000
G0 Z5.00000

G0 X12.53611 Y8.52080
G1 Z-2.00000
G2  X12.53611 Y8.52080 I-0.09530 J0.00000
G0 Z5.00000

G0 X12.53611 Y5.98080
G1 Z-2.00000
G2  X12.53611 Y5.98080 I-0.09530 J0.00000
G0 Z5.00000

G0 X12.53611 Y3.44080
G1 Z-2.00000
G2  X12.53611 Y3.44080 I-0.09530 J0.00000
G0 Z5.00000

G0 X12.53611 Y0.90080
G1 Z-2.00000
G2  X12.53611 Y0.90080 I-0.09530 J0.00000
G0 Z5.00000

G0 X15.07611 Y0.90080
G1 Z-2.00000
G2  X15.07611 Y0.90080 I-0.09530 J0.00000
G0 Z5.00000

G0 X15.07611 Y3.44080
G1 Z-2.00000
G2  X15.07611 Y3.44080 I-0.09530 J0.00000
G0 Z5.00000

G0 X15.07611 Y5.98080
G1 Z-2.00000
G2  X15.07611 Y5.98080 I-0.09530 J0.00000
G0 Z5.00000

G0 X15.07611 Y8.52080
G1 Z-2.00000
G2  X15.07611 Y8.52080 I-0.09530 J0.00000
G0 Z5.00000

G0 X15.07611 Y13.60080
G1 Z-2.00000
G2  X15.07611 Y13.60080 I-0.09530 J0.00000
G0 Z5.00000

G0 X12.53611 Y13.60080
G1 Z-2.00000
G2  X12.53611 Y13.60080 I-0.09530 J0.00000
G0 Z5.00000

G0 X12.53611 Y16.14080
G1 Z-2.00000
G2  X12.53611 Y16.14080 I-0.09530 J0.00000
G0 Z5.00000

G0 X15.07611 Y16.14080
G1 Z-2.00000
G2  X15.07611 Y16.14080 I-0.09530 J0.00000
G0 Z5.00000

G0 X15.07611 Y18.68080
G1 Z-2.00000
G2  X15.07611 Y18.68080 I-0.09530 J0.00000
G0 Z5.00000

G0 X12.53611 Y18.68080
G1 Z-2.00000
G2  X12.53611 Y18.68080 I-0.09530 J0.00000
G0 Z5.00000

G0 X12.53611 Y21.22080
G1 Z-2.00000
G2  X12.53611 Y21.22080 I-0.09530 J0.00000
G0 Z5.00000

G0 X15.07611 Y21.22080
G1 Z-2.00000
G2  X15.07611 Y21.22080 I-0.09530 J0.00000
G0 Z5.00000

G0 X15.07611 Y26.30080
G1 Z-2.00000
G2  X15.07611 Y26.30080 I-0.09530 J0.00000
G0 Z5.00000

G0 X12.53611 Y26.30080
G1 Z-2.00000
G2  X12.53611 Y26.30080 I-0.09530 J0.00000
G0 Z5.00000

G0 X12.53611 Y28.84080
G1 Z-2.00000
G2  X12.53611 Y28.84080 I-0.09530 J0.00000
G0 Z5.00000

G0 X15.07611 Y28.84080
G1 Z-2.00000
G2  X15.07611 Y28.84080 I-0.09530 J0.00000
G0 Z5.00000

G0 X15.07611 Y31.38080
G1 Z-2.00000
G2  X15.07611 Y31.38080 I-0.09530 J0.00000
G0 Z5.00000

G0 X12.53611 Y31.38080
G1 Z-2.00000
G2  X12.53611 Y31.38080 I-0.09530 J0.00000
G0 Z5.00000

G0 X12.53611 Y33.92080
G1 Z-2.00000
G2  X12.53611 Y33.92080 I-0.09530 J0.00000
G0 Z5.00000

G0 X15.07611 Y33.92080
G1 Z-2.00000
G2  X15.07611 Y33.92080 I-0.09530 J0.00000
G0 Z5.00000

G0 X15.07611 Y39.00080
G1 Z-2.00000
G2  X15.07611 Y39.00080 I-0.09530 J0.00000
G0 Z5.00000

G0 X12.53611 Y39.00080
G1 Z-2.00000
G2  X12.53611 Y39.00080 I-0.09530 J0.00000
G0 Z5.00000

G0 X12.53611 Y41.54080
G1 Z-2.00000
G2  X12.53611 Y41.54080 I-0.09530 J0.00000
G0 Z5.00000

G0 X15.07611 Y41.54080
G1 Z-2.00000
G2  X15.07611 Y41.54080 I-0.09530 J0.00000
G0 Z5.00000

G0 X15.07611 Y44.08080
G1 Z-2.00000
G2  X15.07611 Y44.08080 I-0.09530 J0.00000
G0 Z5.00000

G0 X12.53611 Y44.08080
G1 Z-2.00000
G2  X12.53611 Y44.08080 I-0.09530 J0.00000
G0 Z5.00000

G0 X12.53611 Y46.62080
G1 Z-2.00000
G2  X12.53611 Y46.62080 I-0.09530 J0.00000
G0 Z5.00000

G0 X15.07611 Y46.62080
G1 Z-2.00000
G2  X15.07611 Y46.62080 I-0.09530 J0.00000
G0 Z5.00000

G0 X12.53611 Y51.70080
G1 Z-2.00000
G2  X12.53611 Y51.70080 I-0.09530 J0.00000
G0 Z5.00000

G0 X12.53611 Y54.24080
G1 Z-2.00000
G2  X12.53611 Y54.24080 I-0.09530 J0.00000
G0 Z5.00000

G0 X12.53611 Y56.78080
G1 Z-2.00000
G2  X12.53611 Y56.78080 I-0.09530 J0.00000
G0 Z5.00000

G0 X12.53611 Y59.32080
G1 Z-2.00000
G2  X12.53611 Y59.32080 I-0.09530 J0.00000
G0 Z5.00000

G0 X15.07611 Y59.32080
G1 Z-2.00000
G2  X15.07611 Y59.32080 I-0.09530 J0.00000
G0 Z5.00000

G0 X15.07611 Y56.78080
G1 Z-2.00000
G2  X15.07611 Y56.78080 I-0.09530 J0.00000
G0 Z5.00000

G0 X15.07611 Y54.24080
G1 Z-2.00000
G2  X15.07611 Y54.24080 I-0.09530 J0.00000
G0 Z5.00000

G0 X15.07611 Y51.70080
G1 Z-2.00000
G2  X15.07611 Y51.70080 I-0.09530 J0.00000
G0 Z5.00000

G0 X20.79111 Y52.33580
G1 Z-2.00000
G2  X20.79111 Y52.33580 I-0.09530 J0.00000
G0 Z5.00000

G0 X25.79237 Y52.33580
G1 Z-2.00000
G2  X25.79237 Y52.33580 I-0.09530 J0.00000
G0 Z5.00000

G0 X15.07611 Y64.40080
G1 Z-2.00000
G2  X15.07611 Y64.40080 I-0.09530 J0.00000
G0 Z5.00000

G0 X12.53611 Y64.40080
G1 Z-2.00000
G2  X12.53611 Y64.40080 I-0.09530 J0.00000
G0 Z5.00000

G0 X12.53611 Y66.94080
G1 Z-2.00000
G2  X12.53611 Y66.94080 I-0.09530 J0.00000
G0 Z5.00000

G0 X15.07611 Y66.94080
G1 Z-2.00000
G2  X15.07611 Y66.94080 I-0.09530 J0.00000
G0 Z5.00000

G0 X15.07611 Y69.48080
G1 Z-2.00000
G2  X15.07611 Y69.48080 I-0.09530 J0.00000
G0 Z5.00000

G0 X12.53611 Y69.48080
G1 Z-2.00000
G2  X12.53611 Y69.48080 I-0.09530 J0.00000
G0 Z5.00000

G0 X12.53611 Y72.02080
G1 Z-2.00000
G2  X12.53611 Y72.02080 I-0.09530 J0.00000
G0 Z5.00000

G0 X15.07611 Y72.02080
G1 Z-2.00000
G2  X15.07611 Y72.02080 I-0.09530 J0.00000
G0 Z5.00000

G0 X12.53611 Y77.10080
G1 Z-2.00000
G2  X12.53611 Y77.10080 I-0.09530 J0.00000
G0 Z5.00000

G0 X12.53611 Y79.64080
G1 Z-2.00000
G2  X12.53611 Y79.64080 I-0.09530 J0.00000
G0 Z5.00000

G0 X12.53611 Y82.18080
G1 Z-2.00000
G2  X12.53611 Y82.18080 I-0.09530 J0.00000
G0 Z5.00000

G0 X12.53611 Y84.72080
G1 Z-2.00000
G2  X12.53611 Y84.72080 I-0.09530 J0.00000
G0 Z5.00000

G0 X15.07611 Y84.72080
G1 Z-2.00000
G2  X15.07611 Y84.72080 I-0.09530 J0.00000
G0 Z5.00000

G0 X15.07611 Y82.18080
G1 Z-2.00000
G2  X15.07611 Y82.18080 I-0.09530 J0.00000
G0 Z5.00000

G0 X15.07611 Y79.64080
G1 Z-2.00000
G2  X15.07611 Y79.64080 I-0.09530 J0.00000
G0 Z5.00000

G0 X15.07611 Y77.10080
G1 Z-2.00000
G2  X15.07611 Y77.10080 I-0.09530 J0.00000
G0 Z5.00000

G0 X20.86985 Y78.37080
G1 Z-2.00000
G2  X20.86985 Y78.37080 I-0.09530 J0.00000
G0 Z5.00000

G0 X25.87111 Y78.37080
G1 Z-2.00000
G2  X25.87111 Y78.37080 I-0.09530 J0.00000
G0 Z5.00000

G0 X15.07611 Y89.80080
G1 Z-2.00000
G2  X15.07611 Y89.80080 I-0.09530 J0.00000
G0 Z5.00000

G0 X12.53611 Y89.80080
G1 Z-2.00000
G2  X12.53611 Y89.80080 I-0.09530 J0.00000
G0 Z5.00000

G0 X12.53611 Y92.34080
G1 Z-2.00000
G2  X12.53611 Y92.34080 I-0.09530 J0.00000
G0 Z5.00000

G0 X15.07611 Y92.34080
G1 Z-2.00000
G2  X15.07611 Y92.34080 I-0.09530 J0.00000
G0 Z5.00000

G0 X15.07611 Y94.88080
G1 Z-2.00000
G2  X15.07611 Y94.88080 I-0.09530 J0.00000
G0 Z5.00000

G0 X12.53611 Y94.88080
G1 Z-2.00000
G2  X12.53611 Y94.88080 I-0.09530 J0.00000
G0 Z5.00000

G0 X12.53611 Y97.42080
G1 Z-2.00000
G2  X12.53611 Y97.42080 I-0.09530 J0.00000
G0 Z5.00000

G0 X15.07611 Y97.42080
G1 Z-2.00000
G2  X15.07611 Y97.42080 I-0.09530 J0.00000
G0 Z5.00000

G0 X12.53611 Y102.50080
G1 Z-2.00000
G2  X12.53611 Y102.50080 I-0.09530 J0.00000
G0 Z5.00000

G0 X12.53611 Y105.04080
G1 Z-2.00000
G2  X12.53611 Y105.04080 I-0.09530 J0.00000
G0 Z5.00000

G0 X12.53611 Y107.58080
G1 Z-2.00000
G2  X12.53611 Y107.58080 I-0.09530 J0.00000
G0 Z5.00000

G0 X12.53611 Y110.12080
G1 Z-2.00000
G2  X12.53611 Y110.12080 I-0.09530 J0.00000
G0 Z5.00000

G0 X15.07611 Y110.12080
G1 Z-2.00000
G2  X15.07611 Y110.12080 I-0.09530 J0.00000
G0 Z5.00000

G0 X15.07611 Y107.58080
G1 Z-2.00000
G2  X15.07611 Y107.58080 I-0.09530 J0.00000
G0 Z5.00000

G0 X15.07611 Y105.04080
G1 Z-2.00000
G2  X15.07611 Y105.04080 I-0.09530 J0.00000
G0 Z5.00000

G0 X15.07611 Y102.50080
G1 Z-2.00000
G2  X15.07611 Y102.50080 I-0.09530 J0.00000
G0 Z5.00000

G0 X20.79111 Y104.40580
G1 Z-2.00000
G2  X20.79111 Y104.40580 I-0.09530 J0.00000
G0 Z5.00000

G0 X25.79237 Y104.40580
G1 Z-2.00000
G2  X25.79237 Y104.40580 I-0.09530 J0.00000
G0 Z5.00000

G0 X15.07611 Y115.20080
G1 Z-2.00000
G2  X15.07611 Y115.20080 I-0.09530 J0.00000
G0 Z5.00000

G0 X12.53611 Y115.20080
G1 Z-2.00000
G2  X12.53611 Y115.20080 I-0.09530 J0.00000
G0 Z5.00000

G0 X12.53611 Y117.74080
G1 Z-2.00000
G2  X12.53611 Y117.74080 I-0.09530 J0.00000
G0 Z5.00000

G0 X15.07611 Y117.74080
G1 Z-2.00000
G2  X15.07611 Y117.74080 I-0.09530 J0.00000
G0 Z5.00000

G0 X15.07611 Y120.28080
G1 Z-2.00000
G2  X15.07611 Y120.28080 I-0.09530 J0.00000
G0 Z5.00000

G0 X12.53611 Y120.28080
G1 Z-2.00000
G2  X12.53611 Y120.28080 I-0.09530 J0.00000
G0 Z5.00000

G0 X12.53611 Y122.82080
G1 Z-2.00000
G2  X12.53611 Y122.82080 I-0.09530 J0.00000
G0 Z5.00000

G0 X15.07611 Y122.82080
G1 Z-2.00000
G2  X15.07611 Y122.82080 I-0.09530 J0.00000
G0 Z5.00000

G0 X11.26611 Y129.17080
G1 Z-2.00000
G2  X11.26611 Y129.17080 I-0.09530 J0.00000
G0 Z5.00000

G0 X11.26611 Y131.71080
G1 Z-2.00000
G2  X11.26611 Y131.71080 I-0.09530 J0.00000
G0 Z5.00000

G0 X13.80611 Y131.71080
G1 Z-2.00000
G2  X13.80611 Y131.71080 I-0.09530 J0.00000
G0 Z5.00000

G0 X16.26737 Y129.17080
G1 Z-2.00000
G2  X16.26737 Y129.17080 I-0.09530 J0.00000
G0 Z5.00000

G0 X16.34611 Y131.71080
G1 Z-2.00000
G2  X16.34611 Y131.71080 I-0.09530 J0.00000
G0 Z5.00000

G0 X16.34611 Y137.42580
G1 Z-2.00000
G2  X16.34611 Y137.42580 I-0.09530 J0.00000
G0 Z5.00000

G0 X18.88611 Y137.42580
G1 Z-2.00000
G2  X18.88611 Y137.42580 I-0.09530 J0.00000
G0 Z5.00000

G0 X21.42611 Y137.42580
G1 Z-2.00000
G2  X21.42611 Y137.42580 I-0.09530 J0.00000
G0 Z5.00000

G0 X31.58611 Y137.42580
G1 Z-2.00000
G2  X31.58611 Y137.42580 I-0.09530 J0.00000
G0 Z5.00000

G0 X34.12611 Y137.42580
G1 Z-2.00000
G2  X34.12611 Y137.42580 I-0.09530 J0.00000
G0 Z5.00000

G0 X36.66611 Y137.42580
G1 Z-2.00000
G2  X36.66611 Y137.42580 I-0.09530 J0.00000
G0 Z5.00000

G0 X35.39611 Y130.44080
G1 Z-2.00000
G2  X35.39611 Y130.44080 I-0.09530 J0.00000
G0 Z5.00000

G0 X32.22111 Y130.44080
G1 Z-2.00000
G2  X32.22111 Y130.44080 I-0.09530 J0.00000
G0 Z5.00000

G0 X32.22111 Y125.43954
G1 Z-2.00000
G2  X32.22111 Y125.43954 I-0.09530 J0.00000
G0 Z5.00000

G0 X35.39611 Y125.43954
G1 Z-2.00000
G2  X35.39611 Y125.43954 I-0.09530 J0.00000
G0 Z5.00000

G0 X39.84111 Y129.80580
G1 Z-2.00000
G2  X39.84111 Y129.80580 I-0.09530 J0.00000
G0 Z5.00000

G0 X39.84111 Y127.26580
G1 Z-2.00000
G2  X39.84111 Y127.26580 I-0.09530 J0.00000
G0 Z5.00000

G0 X39.84111 Y124.72580
G1 Z-2.00000
G2  X39.84111 Y124.72580 I-0.09530 J0.00000
G0 Z5.00000

G0 X39.84111 Y115.83580
G1 Z-2.00000
G2  X39.84111 Y115.83580 I-0.09530 J0.00000
G0 Z5.00000

G0 X39.84111 Y113.29580
G1 Z-2.00000
G2  X39.84111 Y113.29580 I-0.09530 J0.00000
G0 Z5.00000

G0 X42.00011 Y49.79580
G1 Z-2.00000
G2  X42.00011 Y49.79580 I-0.09530 J0.00000
G0 Z5.00000

G0 X42.00011 Y47.25580
G1 Z-2.00000
G2  X42.00011 Y47.25580 I-0.09530 J0.00000
G0 Z5.00000

G0 X39.46011 Y49.79580
G1 Z-2.00000
G2  X39.46011 Y49.79580 I-0.09530 J0.00000
G0 Z5.00000

G0 X39.46011 Y47.25580
G1 Z-2.00000
G2  X39.46011 Y47.25580 I-0.09530 J0.00000
G0 Z5.00000

G0 X39.46011 Y44.71580
G1 Z-2.00000
G2  X39.46011 Y44.71580 I-0.09530 J0.00000
G0 Z5.00000

G0 X42.00011 Y44.71580
G1 Z-2.00000
G2  X42.00011 Y44.71580 I-0.09530 J0.00000
G0 Z5.00000

G0 X42.00011 Y42.17580
G1 Z-2.00000
G2  X42.00011 Y42.17580 I-0.09530 J0.00000
G0 Z5.00000

G0 X42.00011 Y39.63580
G1 Z-2.00000
G2  X42.00011 Y39.63580 I-0.09530 J0.00000
G0 Z5.00000

G0 X39.46011 Y42.17580
G1 Z-2.00000
G2  X39.46011 Y42.17580 I-0.09530 J0.00000
G0 Z5.00000

G0 X39.46011 Y39.63580
G1 Z-2.00000
G2  X39.46011 Y39.63580 I-0.09530 J0.00000
G0 Z5.00000

G0 X42.00011 Y37.09580
G1 Z-2.00000
G2  X42.00011 Y37.09580 I-0.09530 J0.00000
G0 Z5.00000

G0 X39.46011 Y37.09580
G1 Z-2.00000
G2  X39.46011 Y37.09580 I-0.09530 J0.00000
G0 Z5.00000

G0 X25.79237 Y26.30080
G1 Z-2.00000
G2  X25.79237 Y26.30080 I-0.09530 J0.00000
G0 Z5.00000

G0 X20.79111 Y26.30080
G1 Z-2.00000
G2  X20.79111 Y26.30080 I-0.09530 J0.00000
G0 Z5.00000

G0 X31.58611 Y10.98206
G1 Z-2.00000
G2  X31.58611 Y10.98206 I-0.09530 J0.00000
G0 Z5.00000

G0 X31.58611 Y5.98080
G1 Z-2.00000
G2  X31.58611 Y5.98080 I-0.09530 J0.00000
G0 Z5.00000

G00 Z10.000 ( All done -- retract )

M5      (Spindle off.)
G04 P1.000000
M9      (Coolant off.)
M2      (Program end.)

