( pcb2gcode 1.3.2 )
( Software-independent Gcode )
( This file uses a mill head of 0.80000mm to drill the 4 bit sizes. )
( Bit sizes: [0.01600] [0.02800] [0.03100] [0.03900] )

G94       (Millimeters per minute feed rate.)
G21       (Units == Millimeters.)
G91.1     (Incremental arc distance mode.)
G90       (Absolute coordinates.)
S10000    (RPM spindle speed.)
F600.00000 (Feedrate)
M3        (Spindle on clockwise.)
G04 P1.00000
G00 Z5.00000

G0 X30.32780 Y24.61280
G1 Z-2.00000
G0 Z5.00000

G0 X35.40780 Y22.07280
G1 Z-2.00000
G0 Z5.00000

G0 X39.19494 Y22.07280
G1 Z-2.00000
G0 Z5.00000

G0 X30.32780 Y9.37280
G1 Z-2.00000
G0 Z5.00000

G0 X22.70780 Y29.56580
G1 Z-2.00000
G0 Z5.00000

G0 X15.08780 Y33.50280
G1 Z-2.00000
G0 Z5.00000

G0 X22.70780 Y55.72780
G1 Z-2.00000
G0 Z5.00000

G0 X22.70780 Y81.76280
G1 Z-2.00000
G0 Z5.00000

G0 X15.08780 Y89.38280
G1 Z-2.00000
G0 Z5.00000

G0 X15.08780 Y91.92280
G1 Z-2.00000
G0 Z5.00000

G0 X22.70780 Y107.79780
G1 Z-2.00000
G0 Z5.00000

G0 X30.32780 Y113.51280
G1 Z-2.00000
G0 Z5.00000

G0 X39.47180 Y118.21180
G1 Z-2.00000
G0 Z5.00000

G0 X35.40780 Y123.67280
G1 Z-2.00000
G0 Z5.00000

G0 X37.31280 Y126.21280
G1 Z-2.00000
G0 Z5.00000

G0 X30.32780 Y128.75280
G1 Z-2.00000
G0 Z5.00000

G0 X15.08780 Y143.35780
G1 Z-2.00000
G0 Z5.00000

G0 X26.51780 Y140.18280
G1 Z-2.00000
G0 Z5.00000

G0 X34.39180 Y136.37280
G1 Z-2.00000
G0 Z5.00000

G0 X46.83780 Y140.18280
G1 Z-2.00000
G0 Z5.00000

G0 X49.13396 Y111.79830
G1 Z-2.00000
G0 Z5.00000

G0 X33.50280 Y107.79780
G1 Z-2.00000
G0 Z5.00000

G0 X30.32780 Y102.71780
G1 Z-2.00000
G0 Z5.00000

G0 X35.40780 Y97.63780
G1 Z-2.00000
G0 Z5.00000

G0 X39.21780 Y100.17780
G1 Z-2.00000
G0 Z5.00000

G0 X42.51980 Y92.55780
G1 Z-2.00000
G0 Z5.00000

G0 X35.40780 Y92.55780
G1 Z-2.00000
G0 Z5.00000

G0 X30.32780 Y87.47780
G1 Z-2.00000
G0 Z5.00000

G0 X35.40780 Y81.76280
G1 Z-2.00000
G0 Z5.00000

G0 X30.32780 Y76.68280
G1 Z-2.00000
G0 Z5.00000

G0 X35.40780 Y74.14280
G1 Z-2.00000
G0 Z5.00000

G0 X39.21780 Y74.14280
G1 Z-2.00000
G0 Z5.00000

G0 X40.71894 Y66.39580
G1 Z-2.00000
G0 Z5.00000

G0 X35.40780 Y66.52280
G1 Z-2.00000
G0 Z5.00000

G0 X30.32780 Y61.44280
G1 Z-2.00000
G0 Z5.00000

G0 X35.40780 Y55.72780
G1 Z-2.00000
G0 Z5.00000

G0 X30.32780 Y50.64780
G1 Z-2.00000
G0 Z5.00000

G0 X35.40780 Y48.10780
G1 Z-2.00000
G0 Z5.00000

G0 X39.21780 Y48.10780
G1 Z-2.00000
G0 Z5.00000

G0 X41.24980 Y45.56780
G1 Z-2.00000
G0 Z5.00000

G0 X37.31280 Y45.56780
G1 Z-2.00000
G0 Z5.00000

G0 X35.40780 Y40.48780
G1 Z-2.00000
G0 Z5.00000

G0 X30.32780 Y35.40780
G1 Z-2.00000
G0 Z5.00000

G0 X35.40780 Y29.69280
G1 Z-2.00000
G0 Z5.00000

G0 X47.09180 Y40.48780
G1 Z-2.00000
G0 Z5.00000

G0 X49.63180 Y50.64780
G1 Z-2.00000
G0 Z5.00000

G0 X44.89216 Y125.57780
G1 Z-2.00000
G0 Z5.00000

G0 X42.39280 Y125.57780
G1 Z-2.00000
G0 Z5.00000

G0 X12.54780 Y9.37280
G1 Z-2.00000
G0 Z5.00000

G0 X8.73780 Y9.37280
G1 Z-2.00000
G0 Z5.00000

G0 X8.73780 Y11.91280
G1 Z-2.00000
G0 Z5.00000

G0 X8.73780 Y14.45280
G1 Z-2.00000
G0 Z5.00000

G0 X8.73780 Y16.99280
G1 Z-2.00000
G0 Z5.00000

G0 X8.73780 Y19.53280
G1 Z-2.00000
G0 Z5.00000

G0 X8.73780 Y22.07280
G1 Z-2.00000
G0 Z5.00000

G0 X8.73780 Y24.61280
G1 Z-2.00000
G0 Z5.00000

G0 X8.73780 Y27.15280
G1 Z-2.00000
G0 Z5.00000

G0 X8.73780 Y29.69280
G1 Z-2.00000
G0 Z5.00000

G0 X8.73780 Y32.23280
G1 Z-2.00000
G0 Z5.00000

G0 X8.73780 Y34.77280
G1 Z-2.00000
G0 Z5.00000

G0 X8.73780 Y37.31280
G1 Z-2.00000
G0 Z5.00000

G0 X8.73780 Y39.85280
G1 Z-2.00000
G0 Z5.00000

G0 X8.73780 Y42.39280
G1 Z-2.00000
G0 Z5.00000

G0 X8.73780 Y44.93280
G1 Z-2.00000
G0 Z5.00000

G0 X8.73780 Y47.47280
G1 Z-2.00000
G0 Z5.00000

G0 X8.73780 Y50.01280
G1 Z-2.00000
G0 Z5.00000

G0 X8.73780 Y52.55280
G1 Z-2.00000
G0 Z5.00000

G0 X8.73780 Y55.09280
G1 Z-2.00000
G0 Z5.00000

G0 X8.73780 Y57.63280
G1 Z-2.00000
G0 Z5.00000

G0 X12.54780 Y57.63280
G1 Z-2.00000
G0 Z5.00000

G0 X12.54780 Y55.09280
G1 Z-2.00000
G0 Z5.00000

G0 X12.54780 Y52.55280
G1 Z-2.00000
G0 Z5.00000

G0 X12.54780 Y50.01280
G1 Z-2.00000
G0 Z5.00000

G0 X12.54780 Y47.47280
G1 Z-2.00000
G0 Z5.00000

G0 X12.54780 Y44.93280
G1 Z-2.00000
G0 Z5.00000

G0 X12.54780 Y42.39280
G1 Z-2.00000
G0 Z5.00000

G0 X12.54780 Y39.85280
G1 Z-2.00000
G0 Z5.00000

G0 X12.54780 Y37.31280
G1 Z-2.00000
G0 Z5.00000

G0 X12.54780 Y34.77280
G1 Z-2.00000
G0 Z5.00000

G0 X12.54780 Y32.23280
G1 Z-2.00000
G0 Z5.00000

G0 X12.54780 Y29.69280
G1 Z-2.00000
G0 Z5.00000

G0 X12.54780 Y27.15280
G1 Z-2.00000
G0 Z5.00000

G0 X12.54780 Y24.61280
G1 Z-2.00000
G0 Z5.00000

G0 X12.54780 Y22.07280
G1 Z-2.00000
G0 Z5.00000

G0 X12.54780 Y19.53280
G1 Z-2.00000
G0 Z5.00000

G0 X12.54780 Y16.99280
G1 Z-2.00000
G0 Z5.00000

G0 X12.54780 Y14.45280
G1 Z-2.00000
G0 Z5.00000

G0 X12.54780 Y11.91280
G1 Z-2.00000
G0 Z5.00000

G0 X25.24780 Y27.15280
G1 Z-2.00000
G0 Z5.00000

G0 X25.24780 Y24.61280
G1 Z-2.00000
G0 Z5.00000

G0 X25.24780 Y22.07280
G1 Z-2.00000
G0 Z5.00000

G0 X25.24780 Y19.53280
G1 Z-2.00000
G0 Z5.00000

G0 X25.24780 Y16.99280
G1 Z-2.00000
G0 Z5.00000

G0 X25.24780 Y14.45280
G1 Z-2.00000
G0 Z5.00000

G0 X25.24780 Y11.91280
G1 Z-2.00000
G0 Z5.00000

G0 X25.24780 Y9.37280
G1 Z-2.00000
G0 Z5.00000

G0 X32.86780 Y9.37280
G1 Z-2.00000
G0 Z5.00000

G0 X32.86780 Y11.91280
G1 Z-2.00000
G0 Z5.00000

G0 X32.86780 Y14.45280
G1 Z-2.00000
G0 Z5.00000

G0 X32.86780 Y16.99280
G1 Z-2.00000
G0 Z5.00000

G0 X32.86780 Y19.53280
G1 Z-2.00000
G0 Z5.00000

G0 X32.86780 Y22.07280
G1 Z-2.00000
G0 Z5.00000

G0 X32.86780 Y24.61280
G1 Z-2.00000
G0 Z5.00000

G0 X32.86780 Y27.15280
G1 Z-2.00000
G0 Z5.00000

G0 X32.86780 Y35.40780
G1 Z-2.00000
G0 Z5.00000

G0 X32.86780 Y37.94780
G1 Z-2.00000
G0 Z5.00000

G0 X25.24780 Y35.40780
G1 Z-2.00000
G0 Z5.00000

G0 X25.24780 Y37.94780
G1 Z-2.00000
G0 Z5.00000

G0 X25.24780 Y40.48780
G1 Z-2.00000
G0 Z5.00000

G0 X25.24780 Y43.02780
G1 Z-2.00000
G0 Z5.00000

G0 X25.24780 Y45.56780
G1 Z-2.00000
G0 Z5.00000

G0 X25.24780 Y48.10780
G1 Z-2.00000
G0 Z5.00000

G0 X25.24780 Y50.64780
G1 Z-2.00000
G0 Z5.00000

G0 X25.24780 Y53.18780
G1 Z-2.00000
G0 Z5.00000

G0 X32.86780 Y40.48780
G1 Z-2.00000
G0 Z5.00000

G0 X32.86780 Y43.02780
G1 Z-2.00000
G0 Z5.00000

G0 X32.86780 Y45.56780
G1 Z-2.00000
G0 Z5.00000

G0 X32.86780 Y48.10780
G1 Z-2.00000
G0 Z5.00000

G0 X32.86780 Y50.64780
G1 Z-2.00000
G0 Z5.00000

G0 X32.86780 Y53.18780
G1 Z-2.00000
G0 Z5.00000

G0 X32.86780 Y61.44280
G1 Z-2.00000
G0 Z5.00000

G0 X32.86780 Y63.98280
G1 Z-2.00000
G0 Z5.00000

G0 X32.86780 Y66.52280
G1 Z-2.00000
G0 Z5.00000

G0 X32.86780 Y69.06280
G1 Z-2.00000
G0 Z5.00000

G0 X32.86780 Y71.60280
G1 Z-2.00000
G0 Z5.00000

G0 X32.86780 Y74.14280
G1 Z-2.00000
G0 Z5.00000

G0 X32.86780 Y76.68280
G1 Z-2.00000
G0 Z5.00000

G0 X25.24780 Y69.06280
G1 Z-2.00000
G0 Z5.00000

G0 X25.24780 Y66.52280
G1 Z-2.00000
G0 Z5.00000

G0 X25.24780 Y63.98280
G1 Z-2.00000
G0 Z5.00000

G0 X25.24780 Y61.44280
G1 Z-2.00000
G0 Z5.00000

G0 X12.54780 Y65.25280
G1 Z-2.00000
G0 Z5.00000

G0 X8.73780 Y65.25280
G1 Z-2.00000
G0 Z5.00000

G0 X8.73780 Y67.79280
G1 Z-2.00000
G0 Z5.00000

G0 X8.73780 Y70.33280
G1 Z-2.00000
G0 Z5.00000

G0 X8.73780 Y72.87280
G1 Z-2.00000
G0 Z5.00000

G0 X8.73780 Y75.41280
G1 Z-2.00000
G0 Z5.00000

G0 X8.73780 Y77.95280
G1 Z-2.00000
G0 Z5.00000

G0 X8.73780 Y80.49280
G1 Z-2.00000
G0 Z5.00000

G0 X8.73780 Y83.03280
G1 Z-2.00000
G0 Z5.00000

G0 X8.73780 Y85.57280
G1 Z-2.00000
G0 Z5.00000

G0 X8.73780 Y88.11280
G1 Z-2.00000
G0 Z5.00000

G0 X8.73780 Y90.65280
G1 Z-2.00000
G0 Z5.00000

G0 X8.73780 Y93.19280
G1 Z-2.00000
G0 Z5.00000

G0 X8.73780 Y95.73280
G1 Z-2.00000
G0 Z5.00000

G0 X8.73780 Y98.27280
G1 Z-2.00000
G0 Z5.00000

G0 X8.73780 Y100.81280
G1 Z-2.00000
G0 Z5.00000

G0 X8.73780 Y103.35280
G1 Z-2.00000
G0 Z5.00000

G0 X8.73780 Y105.89280
G1 Z-2.00000
G0 Z5.00000

G0 X8.73780 Y108.43280
G1 Z-2.00000
G0 Z5.00000

G0 X8.73780 Y110.97280
G1 Z-2.00000
G0 Z5.00000

G0 X8.73780 Y113.51280
G1 Z-2.00000
G0 Z5.00000

G0 X8.73780 Y116.05280
G1 Z-2.00000
G0 Z5.00000

G0 X8.73780 Y118.59280
G1 Z-2.00000
G0 Z5.00000

G0 X8.73780 Y121.13280
G1 Z-2.00000
G0 Z5.00000

G0 X8.73780 Y123.67280
G1 Z-2.00000
G0 Z5.00000

G0 X8.73780 Y126.21280
G1 Z-2.00000
G0 Z5.00000

G0 X8.73780 Y128.75280
G1 Z-2.00000
G0 Z5.00000

G0 X8.73780 Y131.29280
G1 Z-2.00000
G0 Z5.00000

G0 X8.73780 Y133.83280
G1 Z-2.00000
G0 Z5.00000

G0 X8.73780 Y136.37280
G1 Z-2.00000
G0 Z5.00000

G0 X8.73780 Y138.91280
G1 Z-2.00000
G0 Z5.00000

G0 X12.54780 Y138.91280
G1 Z-2.00000
G0 Z5.00000

G0 X12.54780 Y136.37280
G1 Z-2.00000
G0 Z5.00000

G0 X12.54780 Y133.83280
G1 Z-2.00000
G0 Z5.00000

G0 X12.54780 Y131.29280
G1 Z-2.00000
G0 Z5.00000

G0 X12.54780 Y128.75280
G1 Z-2.00000
G0 Z5.00000

G0 X12.54780 Y126.21280
G1 Z-2.00000
G0 Z5.00000

G0 X12.54780 Y123.67280
G1 Z-2.00000
G0 Z5.00000

G0 X12.54780 Y121.13280
G1 Z-2.00000
G0 Z5.00000

G0 X12.54780 Y118.59280
G1 Z-2.00000
G0 Z5.00000

G0 X12.54780 Y116.05280
G1 Z-2.00000
G0 Z5.00000

G0 X12.54780 Y113.51280
G1 Z-2.00000
G0 Z5.00000

G0 X12.54780 Y110.97280
G1 Z-2.00000
G0 Z5.00000

G0 X12.54780 Y108.43280
G1 Z-2.00000
G0 Z5.00000

G0 X12.54780 Y105.89280
G1 Z-2.00000
G0 Z5.00000

G0 X12.54780 Y103.35280
G1 Z-2.00000
G0 Z5.00000

G0 X12.54780 Y100.81280
G1 Z-2.00000
G0 Z5.00000

G0 X12.54780 Y98.27280
G1 Z-2.00000
G0 Z5.00000

G0 X12.54780 Y95.73280
G1 Z-2.00000
G0 Z5.00000

G0 X12.54780 Y93.19280
G1 Z-2.00000
G0 Z5.00000

G0 X12.54780 Y90.65280
G1 Z-2.00000
G0 Z5.00000

G0 X12.54780 Y88.11280
G1 Z-2.00000
G0 Z5.00000

G0 X12.54780 Y85.57280
G1 Z-2.00000
G0 Z5.00000

G0 X12.54780 Y83.03280
G1 Z-2.00000
G0 Z5.00000

G0 X12.54780 Y80.49280
G1 Z-2.00000
G0 Z5.00000

G0 X12.54780 Y77.95280
G1 Z-2.00000
G0 Z5.00000

G0 X12.54780 Y75.41280
G1 Z-2.00000
G0 Z5.00000

G0 X12.54780 Y72.87280
G1 Z-2.00000
G0 Z5.00000

G0 X12.54780 Y70.33280
G1 Z-2.00000
G0 Z5.00000

G0 X12.54780 Y67.79280
G1 Z-2.00000
G0 Z5.00000

G0 X25.24780 Y71.60280
G1 Z-2.00000
G0 Z5.00000

G0 X25.24780 Y74.14280
G1 Z-2.00000
G0 Z5.00000

G0 X25.24780 Y76.68280
G1 Z-2.00000
G0 Z5.00000

G0 X25.24780 Y79.22280
G1 Z-2.00000
G0 Z5.00000

G0 X32.86780 Y79.22280
G1 Z-2.00000
G0 Z5.00000

G0 X32.86780 Y87.47780
G1 Z-2.00000
G0 Z5.00000

G0 X32.86780 Y90.01780
G1 Z-2.00000
G0 Z5.00000

G0 X25.24780 Y87.47780
G1 Z-2.00000
G0 Z5.00000

G0 X25.24780 Y90.01780
G1 Z-2.00000
G0 Z5.00000

G0 X25.24780 Y92.55780
G1 Z-2.00000
G0 Z5.00000

G0 X25.24780 Y95.09780
G1 Z-2.00000
G0 Z5.00000

G0 X25.24780 Y97.63780
G1 Z-2.00000
G0 Z5.00000

G0 X25.24780 Y100.17780
G1 Z-2.00000
G0 Z5.00000

G0 X25.24780 Y102.71780
G1 Z-2.00000
G0 Z5.00000

G0 X25.24780 Y105.25780
G1 Z-2.00000
G0 Z5.00000

G0 X32.86780 Y92.55780
G1 Z-2.00000
G0 Z5.00000

G0 X32.86780 Y95.09780
G1 Z-2.00000
G0 Z5.00000

G0 X32.86780 Y97.63780
G1 Z-2.00000
G0 Z5.00000

G0 X32.86780 Y100.17780
G1 Z-2.00000
G0 Z5.00000

G0 X32.86780 Y102.71780
G1 Z-2.00000
G0 Z5.00000

G0 X32.86780 Y105.25780
G1 Z-2.00000
G0 Z5.00000

G0 X32.86780 Y113.51280
G1 Z-2.00000
G0 Z5.00000

G0 X32.86780 Y116.05280
G1 Z-2.00000
G0 Z5.00000

G0 X25.24780 Y113.51280
G1 Z-2.00000
G0 Z5.00000

G0 X25.24780 Y116.05280
G1 Z-2.00000
G0 Z5.00000

G0 X25.24780 Y118.59280
G1 Z-2.00000
G0 Z5.00000

G0 X25.24780 Y121.13280
G1 Z-2.00000
G0 Z5.00000

G0 X25.24780 Y123.67280
G1 Z-2.00000
G0 Z5.00000

G0 X25.24780 Y126.21280
G1 Z-2.00000
G0 Z5.00000

G0 X32.86780 Y118.59280
G1 Z-2.00000
G0 Z5.00000

G0 X32.86780 Y121.13280
G1 Z-2.00000
G0 Z5.00000

G0 X32.86780 Y123.67280
G1 Z-2.00000
G0 Z5.00000

G0 X32.86780 Y126.21280
G1 Z-2.00000
G0 Z5.00000

G0 X32.86780 Y128.75280
G1 Z-2.00000
G0 Z5.00000

G0 X32.86780 Y131.29280
G1 Z-2.00000
G0 Z5.00000

G0 X25.24780 Y128.75280
G1 Z-2.00000
G0 Z5.00000

G0 X25.24780 Y131.29280
G1 Z-2.00000
G0 Z5.00000

G0 X31.59780 Y136.37280
G1 Z-2.00000
G0 Z5.00000

G0 X31.59780 Y143.99280
G1 Z-2.00000
G0 Z5.00000

G0 X17.72310 Y11.91280
G1 Z-2.00000
G2  X17.72310 Y11.91280 I-0.09530 J0.00000
G0 Z5.00000

G0 X17.72310 Y9.37280
G1 Z-2.00000
G2  X17.72310 Y9.37280 I-0.09530 J0.00000
G0 Z5.00000

G0 X17.72310 Y6.83280
G1 Z-2.00000
G2  X17.72310 Y6.83280 I-0.09530 J0.00000
G0 Z5.00000

G0 X20.26310 Y6.83280
G1 Z-2.00000
G2  X20.26310 Y6.83280 I-0.09530 J0.00000
G0 Z5.00000

G0 X20.26310 Y9.37280
G1 Z-2.00000
G2  X20.26310 Y9.37280 I-0.09530 J0.00000
G0 Z5.00000

G0 X20.26310 Y11.91280
G1 Z-2.00000
G2  X20.26310 Y11.91280 I-0.09530 J0.00000
G0 Z5.00000

G0 X20.26310 Y14.45280
G1 Z-2.00000
G2  X20.26310 Y14.45280 I-0.09530 J0.00000
G0 Z5.00000

G0 X17.72310 Y14.45280
G1 Z-2.00000
G2  X17.72310 Y14.45280 I-0.09530 J0.00000
G0 Z5.00000

G0 X17.72310 Y19.53280
G1 Z-2.00000
G2  X17.72310 Y19.53280 I-0.09530 J0.00000
G0 Z5.00000

G0 X20.26310 Y19.53280
G1 Z-2.00000
G2  X20.26310 Y19.53280 I-0.09530 J0.00000
G0 Z5.00000

G0 X20.26310 Y22.07280
G1 Z-2.00000
G2  X20.26310 Y22.07280 I-0.09530 J0.00000
G0 Z5.00000

G0 X17.72310 Y22.07280
G1 Z-2.00000
G2  X17.72310 Y22.07280 I-0.09530 J0.00000
G0 Z5.00000

G0 X17.72310 Y24.61280
G1 Z-2.00000
G2  X17.72310 Y24.61280 I-0.09530 J0.00000
G0 Z5.00000

G0 X20.26310 Y24.61280
G1 Z-2.00000
G2  X20.26310 Y24.61280 I-0.09530 J0.00000
G0 Z5.00000

G0 X20.26310 Y27.15280
G1 Z-2.00000
G2  X20.26310 Y27.15280 I-0.09530 J0.00000
G0 Z5.00000

G0 X17.72310 Y27.15280
G1 Z-2.00000
G2  X17.72310 Y27.15280 I-0.09530 J0.00000
G0 Z5.00000

G0 X17.72310 Y32.23280
G1 Z-2.00000
G2  X17.72310 Y32.23280 I-0.09530 J0.00000
G0 Z5.00000

G0 X20.26310 Y32.23280
G1 Z-2.00000
G2  X20.26310 Y32.23280 I-0.09530 J0.00000
G0 Z5.00000

G0 X20.26310 Y34.77280
G1 Z-2.00000
G2  X20.26310 Y34.77280 I-0.09530 J0.00000
G0 Z5.00000

G0 X17.72310 Y34.77280
G1 Z-2.00000
G2  X17.72310 Y34.77280 I-0.09530 J0.00000
G0 Z5.00000

G0 X17.72310 Y37.31280
G1 Z-2.00000
G2  X17.72310 Y37.31280 I-0.09530 J0.00000
G0 Z5.00000

G0 X20.26310 Y37.31280
G1 Z-2.00000
G2  X20.26310 Y37.31280 I-0.09530 J0.00000
G0 Z5.00000

G0 X20.26310 Y39.85280
G1 Z-2.00000
G2  X20.26310 Y39.85280 I-0.09530 J0.00000
G0 Z5.00000

G0 X17.72310 Y39.85280
G1 Z-2.00000
G2  X17.72310 Y39.85280 I-0.09530 J0.00000
G0 Z5.00000

G0 X17.72310 Y44.93280
G1 Z-2.00000
G2  X17.72310 Y44.93280 I-0.09530 J0.00000
G0 Z5.00000

G0 X20.26310 Y44.93280
G1 Z-2.00000
G2  X20.26310 Y44.93280 I-0.09530 J0.00000
G0 Z5.00000

G0 X20.26310 Y47.47280
G1 Z-2.00000
G2  X20.26310 Y47.47280 I-0.09530 J0.00000
G0 Z5.00000

G0 X17.72310 Y47.47280
G1 Z-2.00000
G2  X17.72310 Y47.47280 I-0.09530 J0.00000
G0 Z5.00000

G0 X17.72310 Y50.01280
G1 Z-2.00000
G2  X17.72310 Y50.01280 I-0.09530 J0.00000
G0 Z5.00000

G0 X20.26310 Y50.01280
G1 Z-2.00000
G2  X20.26310 Y50.01280 I-0.09530 J0.00000
G0 Z5.00000

G0 X20.26310 Y52.55280
G1 Z-2.00000
G2  X20.26310 Y52.55280 I-0.09530 J0.00000
G0 Z5.00000

G0 X17.72310 Y52.55280
G1 Z-2.00000
G2  X17.72310 Y52.55280 I-0.09530 J0.00000
G0 Z5.00000

G0 X17.72310 Y57.63280
G1 Z-2.00000
G2  X17.72310 Y57.63280 I-0.09530 J0.00000
G0 Z5.00000

G0 X17.72310 Y60.17280
G1 Z-2.00000
G2  X17.72310 Y60.17280 I-0.09530 J0.00000
G0 Z5.00000

G0 X17.72310 Y62.71280
G1 Z-2.00000
G2  X17.72310 Y62.71280 I-0.09530 J0.00000
G0 Z5.00000

G0 X17.72310 Y65.25280
G1 Z-2.00000
G2  X17.72310 Y65.25280 I-0.09530 J0.00000
G0 Z5.00000

G0 X20.26310 Y65.25280
G1 Z-2.00000
G2  X20.26310 Y65.25280 I-0.09530 J0.00000
G0 Z5.00000

G0 X20.26310 Y62.71280
G1 Z-2.00000
G2  X20.26310 Y62.71280 I-0.09530 J0.00000
G0 Z5.00000

G0 X20.26310 Y60.17280
G1 Z-2.00000
G2  X20.26310 Y60.17280 I-0.09530 J0.00000
G0 Z5.00000

G0 X20.26310 Y57.63280
G1 Z-2.00000
G2  X20.26310 Y57.63280 I-0.09530 J0.00000
G0 Z5.00000

G0 X25.97810 Y58.26780
G1 Z-2.00000
G2  X25.97810 Y58.26780 I-0.09530 J0.00000
G0 Z5.00000

G0 X30.97936 Y58.26780
G1 Z-2.00000
G2  X30.97936 Y58.26780 I-0.09530 J0.00000
G0 Z5.00000

G0 X20.26310 Y70.33280
G1 Z-2.00000
G2  X20.26310 Y70.33280 I-0.09530 J0.00000
G0 Z5.00000

G0 X17.72310 Y70.33280
G1 Z-2.00000
G2  X17.72310 Y70.33280 I-0.09530 J0.00000
G0 Z5.00000

G0 X17.72310 Y72.87280
G1 Z-2.00000
G2  X17.72310 Y72.87280 I-0.09530 J0.00000
G0 Z5.00000

G0 X20.26310 Y72.87280
G1 Z-2.00000
G2  X20.26310 Y72.87280 I-0.09530 J0.00000
G0 Z5.00000

G0 X20.26310 Y75.41280
G1 Z-2.00000
G2  X20.26310 Y75.41280 I-0.09530 J0.00000
G0 Z5.00000

G0 X17.72310 Y75.41280
G1 Z-2.00000
G2  X17.72310 Y75.41280 I-0.09530 J0.00000
G0 Z5.00000

G0 X17.72310 Y77.95280
G1 Z-2.00000
G2  X17.72310 Y77.95280 I-0.09530 J0.00000
G0 Z5.00000

G0 X20.26310 Y77.95280
G1 Z-2.00000
G2  X20.26310 Y77.95280 I-0.09530 J0.00000
G0 Z5.00000

G0 X17.72310 Y83.03280
G1 Z-2.00000
G2  X17.72310 Y83.03280 I-0.09530 J0.00000
G0 Z5.00000

G0 X17.72310 Y85.57280
G1 Z-2.00000
G2  X17.72310 Y85.57280 I-0.09530 J0.00000
G0 Z5.00000

G0 X17.72310 Y88.11280
G1 Z-2.00000
G2  X17.72310 Y88.11280 I-0.09530 J0.00000
G0 Z5.00000

G0 X17.72310 Y90.65280
G1 Z-2.00000
G2  X17.72310 Y90.65280 I-0.09530 J0.00000
G0 Z5.00000

G0 X20.26310 Y90.65280
G1 Z-2.00000
G2  X20.26310 Y90.65280 I-0.09530 J0.00000
G0 Z5.00000

G0 X20.26310 Y88.11280
G1 Z-2.00000
G2  X20.26310 Y88.11280 I-0.09530 J0.00000
G0 Z5.00000

G0 X20.26310 Y85.57280
G1 Z-2.00000
G2  X20.26310 Y85.57280 I-0.09530 J0.00000
G0 Z5.00000

G0 X20.26310 Y83.03280
G1 Z-2.00000
G2  X20.26310 Y83.03280 I-0.09530 J0.00000
G0 Z5.00000

G0 X26.05684 Y84.30280
G1 Z-2.00000
G2  X26.05684 Y84.30280 I-0.09530 J0.00000
G0 Z5.00000

G0 X31.05810 Y84.30280
G1 Z-2.00000
G2  X31.05810 Y84.30280 I-0.09530 J0.00000
G0 Z5.00000

G0 X20.26310 Y95.73280
G1 Z-2.00000
G2  X20.26310 Y95.73280 I-0.09530 J0.00000
G0 Z5.00000

G0 X17.72310 Y95.73280
G1 Z-2.00000
G2  X17.72310 Y95.73280 I-0.09530 J0.00000
G0 Z5.00000

G0 X17.72310 Y98.27280
G1 Z-2.00000
G2  X17.72310 Y98.27280 I-0.09530 J0.00000
G0 Z5.00000

G0 X20.26310 Y98.27280
G1 Z-2.00000
G2  X20.26310 Y98.27280 I-0.09530 J0.00000
G0 Z5.00000

G0 X20.26310 Y100.81280
G1 Z-2.00000
G2  X20.26310 Y100.81280 I-0.09530 J0.00000
G0 Z5.00000

G0 X17.72310 Y100.81280
G1 Z-2.00000
G2  X17.72310 Y100.81280 I-0.09530 J0.00000
G0 Z5.00000

G0 X17.72310 Y103.35280
G1 Z-2.00000
G2  X17.72310 Y103.35280 I-0.09530 J0.00000
G0 Z5.00000

G0 X20.26310 Y103.35280
G1 Z-2.00000
G2  X20.26310 Y103.35280 I-0.09530 J0.00000
G0 Z5.00000

G0 X17.72310 Y108.43280
G1 Z-2.00000
G2  X17.72310 Y108.43280 I-0.09530 J0.00000
G0 Z5.00000

G0 X17.72310 Y110.97280
G1 Z-2.00000
G2  X17.72310 Y110.97280 I-0.09530 J0.00000
G0 Z5.00000

G0 X17.72310 Y113.51280
G1 Z-2.00000
G2  X17.72310 Y113.51280 I-0.09530 J0.00000
G0 Z5.00000

G0 X17.72310 Y116.05280
G1 Z-2.00000
G2  X17.72310 Y116.05280 I-0.09530 J0.00000
G0 Z5.00000

G0 X20.26310 Y116.05280
G1 Z-2.00000
G2  X20.26310 Y116.05280 I-0.09530 J0.00000
G0 Z5.00000

G0 X20.26310 Y113.51280
G1 Z-2.00000
G2  X20.26310 Y113.51280 I-0.09530 J0.00000
G0 Z5.00000

G0 X20.26310 Y110.97280
G1 Z-2.00000
G2  X20.26310 Y110.97280 I-0.09530 J0.00000
G0 Z5.00000

G0 X20.26310 Y108.43280
G1 Z-2.00000
G2  X20.26310 Y108.43280 I-0.09530 J0.00000
G0 Z5.00000

G0 X25.97810 Y110.33780
G1 Z-2.00000
G2  X25.97810 Y110.33780 I-0.09530 J0.00000
G0 Z5.00000

G0 X30.97936 Y110.33780
G1 Z-2.00000
G2  X30.97936 Y110.33780 I-0.09530 J0.00000
G0 Z5.00000

G0 X20.26310 Y121.13280
G1 Z-2.00000
G2  X20.26310 Y121.13280 I-0.09530 J0.00000
G0 Z5.00000

G0 X17.72310 Y121.13280
G1 Z-2.00000
G2  X17.72310 Y121.13280 I-0.09530 J0.00000
G0 Z5.00000

G0 X17.72310 Y123.67280
G1 Z-2.00000
G2  X17.72310 Y123.67280 I-0.09530 J0.00000
G0 Z5.00000

G0 X20.26310 Y123.67280
G1 Z-2.00000
G2  X20.26310 Y123.67280 I-0.09530 J0.00000
G0 Z5.00000

G0 X20.26310 Y126.21280
G1 Z-2.00000
G2  X20.26310 Y126.21280 I-0.09530 J0.00000
G0 Z5.00000

G0 X17.72310 Y126.21280
G1 Z-2.00000
G2  X17.72310 Y126.21280 I-0.09530 J0.00000
G0 Z5.00000

G0 X17.72310 Y128.75280
G1 Z-2.00000
G2  X17.72310 Y128.75280 I-0.09530 J0.00000
G0 Z5.00000

G0 X20.26310 Y128.75280
G1 Z-2.00000
G2  X20.26310 Y128.75280 I-0.09530 J0.00000
G0 Z5.00000

G0 X16.45310 Y135.10280
G1 Z-2.00000
G2  X16.45310 Y135.10280 I-0.09530 J0.00000
G0 Z5.00000

G0 X16.45310 Y137.64280
G1 Z-2.00000
G2  X16.45310 Y137.64280 I-0.09530 J0.00000
G0 Z5.00000

G0 X18.99310 Y137.64280
G1 Z-2.00000
G2  X18.99310 Y137.64280 I-0.09530 J0.00000
G0 Z5.00000

G0 X21.45436 Y135.10280
G1 Z-2.00000
G2  X21.45436 Y135.10280 I-0.09530 J0.00000
G0 Z5.00000

G0 X21.53310 Y137.64280
G1 Z-2.00000
G2  X21.53310 Y137.64280 I-0.09530 J0.00000
G0 Z5.00000

G0 X21.53310 Y143.35780
G1 Z-2.00000
G2  X21.53310 Y143.35780 I-0.09530 J0.00000
G0 Z5.00000

G0 X24.07310 Y143.35780
G1 Z-2.00000
G2  X24.07310 Y143.35780 I-0.09530 J0.00000
G0 Z5.00000

G0 X26.61310 Y143.35780
G1 Z-2.00000
G2  X26.61310 Y143.35780 I-0.09530 J0.00000
G0 Z5.00000

G0 X36.77310 Y143.35780
G1 Z-2.00000
G2  X36.77310 Y143.35780 I-0.09530 J0.00000
G0 Z5.00000

G0 X39.31310 Y143.35780
G1 Z-2.00000
G2  X39.31310 Y143.35780 I-0.09530 J0.00000
G0 Z5.00000

G0 X41.85310 Y143.35780
G1 Z-2.00000
G2  X41.85310 Y143.35780 I-0.09530 J0.00000
G0 Z5.00000

G0 X40.58310 Y136.37280
G1 Z-2.00000
G2  X40.58310 Y136.37280 I-0.09530 J0.00000
G0 Z5.00000

G0 X37.40810 Y136.37280
G1 Z-2.00000
G2  X37.40810 Y136.37280 I-0.09530 J0.00000
G0 Z5.00000

G0 X37.40810 Y131.37154
G1 Z-2.00000
G2  X37.40810 Y131.37154 I-0.09530 J0.00000
G0 Z5.00000

G0 X40.58310 Y131.37154
G1 Z-2.00000
G2  X40.58310 Y131.37154 I-0.09530 J0.00000
G0 Z5.00000

G0 X45.02810 Y135.73780
G1 Z-2.00000
G2  X45.02810 Y135.73780 I-0.09530 J0.00000
G0 Z5.00000

G0 X45.02810 Y133.19780
G1 Z-2.00000
G2  X45.02810 Y133.19780 I-0.09530 J0.00000
G0 Z5.00000

G0 X45.02810 Y130.65780
G1 Z-2.00000
G2  X45.02810 Y130.65780 I-0.09530 J0.00000
G0 Z5.00000

G0 X45.02810 Y121.76780
G1 Z-2.00000
G2  X45.02810 Y121.76780 I-0.09530 J0.00000
G0 Z5.00000

G0 X45.02810 Y119.22780
G1 Z-2.00000
G2  X45.02810 Y119.22780 I-0.09530 J0.00000
G0 Z5.00000

G0 X47.18710 Y55.72780
G1 Z-2.00000
G2  X47.18710 Y55.72780 I-0.09530 J0.00000
G0 Z5.00000

G0 X47.18710 Y53.18780
G1 Z-2.00000
G2  X47.18710 Y53.18780 I-0.09530 J0.00000
G0 Z5.00000

G0 X44.64710 Y55.72780
G1 Z-2.00000
G2  X44.64710 Y55.72780 I-0.09530 J0.00000
G0 Z5.00000

G0 X44.64710 Y53.18780
G1 Z-2.00000
G2  X44.64710 Y53.18780 I-0.09530 J0.00000
G0 Z5.00000

G0 X44.64710 Y50.64780
G1 Z-2.00000
G2  X44.64710 Y50.64780 I-0.09530 J0.00000
G0 Z5.00000

G0 X47.18710 Y50.64780
G1 Z-2.00000
G2  X47.18710 Y50.64780 I-0.09530 J0.00000
G0 Z5.00000

G0 X47.18710 Y48.10780
G1 Z-2.00000
G2  X47.18710 Y48.10780 I-0.09530 J0.00000
G0 Z5.00000

G0 X47.18710 Y45.56780
G1 Z-2.00000
G2  X47.18710 Y45.56780 I-0.09530 J0.00000
G0 Z5.00000

G0 X44.64710 Y48.10780
G1 Z-2.00000
G2  X44.64710 Y48.10780 I-0.09530 J0.00000
G0 Z5.00000

G0 X44.64710 Y45.56780
G1 Z-2.00000
G2  X44.64710 Y45.56780 I-0.09530 J0.00000
G0 Z5.00000

G0 X47.18710 Y43.02780
G1 Z-2.00000
G2  X47.18710 Y43.02780 I-0.09530 J0.00000
G0 Z5.00000

G0 X44.64710 Y43.02780
G1 Z-2.00000
G2  X44.64710 Y43.02780 I-0.09530 J0.00000
G0 Z5.00000

G0 X30.97936 Y32.23280
G1 Z-2.00000
G2  X30.97936 Y32.23280 I-0.09530 J0.00000
G0 Z5.00000

G0 X25.97810 Y32.23280
G1 Z-2.00000
G2  X25.97810 Y32.23280 I-0.09530 J0.00000
G0 Z5.00000

G0 X36.77310 Y16.91406
G1 Z-2.00000
G2  X36.77310 Y16.91406 I-0.09530 J0.00000
G0 Z5.00000

G0 X36.77310 Y11.91280
G1 Z-2.00000
G2  X36.77310 Y11.91280 I-0.09530 J0.00000
G0 Z5.00000

G00 Z10.000 ( All done -- retract )

M5      (Spindle off.)
G04 P1.000000
M9      (Coolant off.)
M2      (Program end.)

