( pcb2gcode 1.3.2 )
( Software-independent Gcode )
( This file uses a mill head of 0.80000mm to drill the 5 bit sizes. )
( Bit sizes: [0.01600] [0.02800] [0.03100] [0.03900] [0.09800] )

G94       (Millimeters per minute feed rate.)
G21       (Units == Millimeters.)
G91.1     (Incremental arc distance mode.)
G90       (Absolute coordinates.)
S10000    (RPM spindle speed.)
F200.00000 (Feedrate)
M3        (Spindle on clockwise.)
G04 P1.00000
G00 Z5.00000

G0 X28.80380 Y22.58080
G1 Z-2.00000
G0 Z5.00000

G0 X21.18380 Y27.53380
G1 Z-2.00000
G0 Z5.00000

G0 X13.56380 Y31.47080
G1 Z-2.00000
G0 Z5.00000

G0 X21.18380 Y53.69580
G1 Z-2.00000
G0 Z5.00000

G0 X21.18380 Y79.73080
G1 Z-2.00000
G0 Z5.00000

G0 X13.56380 Y87.35080
G1 Z-2.00000
G0 Z5.00000

G0 X13.56380 Y89.89080
G1 Z-2.00000
G0 Z5.00000

G0 X21.18380 Y105.76580
G1 Z-2.00000
G0 Z5.00000

G0 X28.80380 Y111.48080
G1 Z-2.00000
G0 Z5.00000

G0 X33.88380 Y121.64080
G1 Z-2.00000
G0 Z5.00000

G0 X35.78880 Y124.18080
G1 Z-2.00000
G0 Z5.00000

G0 X28.80380 Y126.72080
G1 Z-2.00000
G0 Z5.00000

G0 X13.56380 Y141.32580
G1 Z-2.00000
G0 Z5.00000

G0 X24.99380 Y138.15080
G1 Z-2.00000
G0 Z5.00000

G0 X32.86780 Y134.34080
G1 Z-2.00000
G0 Z5.00000

G0 X45.31380 Y138.15080
G1 Z-2.00000
G0 Z5.00000

G0 X37.94780 Y116.17980
G1 Z-2.00000
G0 Z5.00000

G0 X31.97880 Y105.76580
G1 Z-2.00000
G0 Z5.00000

G0 X28.80380 Y100.68580
G1 Z-2.00000
G0 Z5.00000

G0 X33.88380 Y95.60580
G1 Z-2.00000
G0 Z5.00000

G0 X37.69380 Y98.14580
G1 Z-2.00000
G0 Z5.00000

G0 X40.99580 Y90.52580
G1 Z-2.00000
G0 Z5.00000

G0 X33.88380 Y90.52580
G1 Z-2.00000
G0 Z5.00000

G0 X28.80380 Y85.44580
G1 Z-2.00000
G0 Z5.00000

G0 X33.88380 Y79.73080
G1 Z-2.00000
G0 Z5.00000

G0 X28.80380 Y74.65080
G1 Z-2.00000
G0 Z5.00000

G0 X33.88380 Y72.11080
G1 Z-2.00000
G0 Z5.00000

G0 X37.69380 Y72.11080
G1 Z-2.00000
G0 Z5.00000

G0 X39.19494 Y64.36380
G1 Z-2.00000
G0 Z5.00000

G0 X33.88380 Y64.49080
G1 Z-2.00000
G0 Z5.00000

G0 X28.80380 Y59.41080
G1 Z-2.00000
G0 Z5.00000

G0 X33.88380 Y53.69580
G1 Z-2.00000
G0 Z5.00000

G0 X28.80380 Y48.61580
G1 Z-2.00000
G0 Z5.00000

G0 X33.88380 Y46.07580
G1 Z-2.00000
G0 Z5.00000

G0 X37.69380 Y46.07580
G1 Z-2.00000
G0 Z5.00000

G0 X39.72580 Y43.53580
G1 Z-2.00000
G0 Z5.00000

G0 X45.56780 Y38.45580
G1 Z-2.00000
G0 Z5.00000

G0 X35.78880 Y43.53580
G1 Z-2.00000
G0 Z5.00000

G0 X33.88380 Y38.45580
G1 Z-2.00000
G0 Z5.00000

G0 X28.80380 Y33.37580
G1 Z-2.00000
G0 Z5.00000

G0 X33.88380 Y27.66080
G1 Z-2.00000
G0 Z5.00000

G0 X37.67094 Y20.04080
G1 Z-2.00000
G0 Z5.00000

G0 X33.88380 Y20.04080
G1 Z-2.00000
G0 Z5.00000

G0 X28.80380 Y7.34080
G1 Z-2.00000
G0 Z5.00000

G0 X43.36816 Y123.54580
G1 Z-2.00000
G0 Z5.00000

G0 X40.86880 Y123.54580
G1 Z-2.00000
G0 Z5.00000

G0 X7.21380 Y7.34080
G1 Z-2.00000
G0 Z5.00000

G0 X7.21380 Y9.88080
G1 Z-2.00000
G0 Z5.00000

G0 X7.21380 Y12.42080
G1 Z-2.00000
G0 Z5.00000

G0 X7.21380 Y14.96080
G1 Z-2.00000
G0 Z5.00000

G0 X7.21380 Y17.50080
G1 Z-2.00000
G0 Z5.00000

G0 X7.21380 Y20.04080
G1 Z-2.00000
G0 Z5.00000

G0 X7.21380 Y22.58080
G1 Z-2.00000
G0 Z5.00000

G0 X7.21380 Y25.12080
G1 Z-2.00000
G0 Z5.00000

G0 X7.21380 Y27.66080
G1 Z-2.00000
G0 Z5.00000

G0 X7.21380 Y30.20080
G1 Z-2.00000
G0 Z5.00000

G0 X7.21380 Y32.74080
G1 Z-2.00000
G0 Z5.00000

G0 X7.21380 Y35.28080
G1 Z-2.00000
G0 Z5.00000

G0 X7.21380 Y37.82080
G1 Z-2.00000
G0 Z5.00000

G0 X7.21380 Y40.36080
G1 Z-2.00000
G0 Z5.00000

G0 X7.21380 Y42.90080
G1 Z-2.00000
G0 Z5.00000

G0 X7.21380 Y45.44080
G1 Z-2.00000
G0 Z5.00000

G0 X7.21380 Y47.98080
G1 Z-2.00000
G0 Z5.00000

G0 X7.21380 Y50.52080
G1 Z-2.00000
G0 Z5.00000

G0 X7.21380 Y53.06080
G1 Z-2.00000
G0 Z5.00000

G0 X7.21380 Y55.60080
G1 Z-2.00000
G0 Z5.00000

G0 X11.02380 Y55.60080
G1 Z-2.00000
G0 Z5.00000

G0 X11.02380 Y53.06080
G1 Z-2.00000
G0 Z5.00000

G0 X11.02380 Y50.52080
G1 Z-2.00000
G0 Z5.00000

G0 X11.02380 Y47.98080
G1 Z-2.00000
G0 Z5.00000

G0 X11.02380 Y45.44080
G1 Z-2.00000
G0 Z5.00000

G0 X11.02380 Y42.90080
G1 Z-2.00000
G0 Z5.00000

G0 X11.02380 Y40.36080
G1 Z-2.00000
G0 Z5.00000

G0 X11.02380 Y37.82080
G1 Z-2.00000
G0 Z5.00000

G0 X11.02380 Y35.28080
G1 Z-2.00000
G0 Z5.00000

G0 X11.02380 Y32.74080
G1 Z-2.00000
G0 Z5.00000

G0 X11.02380 Y30.20080
G1 Z-2.00000
G0 Z5.00000

G0 X11.02380 Y27.66080
G1 Z-2.00000
G0 Z5.00000

G0 X11.02380 Y25.12080
G1 Z-2.00000
G0 Z5.00000

G0 X11.02380 Y22.58080
G1 Z-2.00000
G0 Z5.00000

G0 X11.02380 Y20.04080
G1 Z-2.00000
G0 Z5.00000

G0 X11.02380 Y17.50080
G1 Z-2.00000
G0 Z5.00000

G0 X11.02380 Y14.96080
G1 Z-2.00000
G0 Z5.00000

G0 X11.02380 Y12.42080
G1 Z-2.00000
G0 Z5.00000

G0 X11.02380 Y9.88080
G1 Z-2.00000
G0 Z5.00000

G0 X11.02380 Y7.34080
G1 Z-2.00000
G0 Z5.00000

G0 X23.72380 Y20.04080
G1 Z-2.00000
G0 Z5.00000

G0 X23.72380 Y17.50080
G1 Z-2.00000
G0 Z5.00000

G0 X23.72380 Y14.96080
G1 Z-2.00000
G0 Z5.00000

G0 X23.72380 Y12.42080
G1 Z-2.00000
G0 Z5.00000

G0 X23.72380 Y9.88080
G1 Z-2.00000
G0 Z5.00000

G0 X23.72380 Y7.34080
G1 Z-2.00000
G0 Z5.00000

G0 X31.34380 Y7.34080
G1 Z-2.00000
G0 Z5.00000

G0 X31.34380 Y9.88080
G1 Z-2.00000
G0 Z5.00000

G0 X31.34380 Y12.42080
G1 Z-2.00000
G0 Z5.00000

G0 X31.34380 Y14.96080
G1 Z-2.00000
G0 Z5.00000

G0 X31.34380 Y17.50080
G1 Z-2.00000
G0 Z5.00000

G0 X31.34380 Y20.04080
G1 Z-2.00000
G0 Z5.00000

G0 X31.34380 Y22.58080
G1 Z-2.00000
G0 Z5.00000

G0 X31.34380 Y25.12080
G1 Z-2.00000
G0 Z5.00000

G0 X23.72380 Y22.58080
G1 Z-2.00000
G0 Z5.00000

G0 X23.72380 Y25.12080
G1 Z-2.00000
G0 Z5.00000

G0 X23.72380 Y33.37580
G1 Z-2.00000
G0 Z5.00000

G0 X23.72380 Y35.91580
G1 Z-2.00000
G0 Z5.00000

G0 X23.72380 Y38.45580
G1 Z-2.00000
G0 Z5.00000

G0 X23.72380 Y40.99580
G1 Z-2.00000
G0 Z5.00000

G0 X31.34380 Y33.37580
G1 Z-2.00000
G0 Z5.00000

G0 X31.34380 Y35.91580
G1 Z-2.00000
G0 Z5.00000

G0 X31.34380 Y38.45580
G1 Z-2.00000
G0 Z5.00000

G0 X31.34380 Y40.99580
G1 Z-2.00000
G0 Z5.00000

G0 X31.34380 Y43.53580
G1 Z-2.00000
G0 Z5.00000

G0 X31.34380 Y46.07580
G1 Z-2.00000
G0 Z5.00000

G0 X23.72380 Y43.53580
G1 Z-2.00000
G0 Z5.00000

G0 X23.72380 Y46.07580
G1 Z-2.00000
G0 Z5.00000

G0 X23.72380 Y48.61580
G1 Z-2.00000
G0 Z5.00000

G0 X23.72380 Y51.15580
G1 Z-2.00000
G0 Z5.00000

G0 X31.34380 Y48.61580
G1 Z-2.00000
G0 Z5.00000

G0 X31.34380 Y51.15580
G1 Z-2.00000
G0 Z5.00000

G0 X31.34380 Y59.41080
G1 Z-2.00000
G0 Z5.00000

G0 X31.34380 Y61.95080
G1 Z-2.00000
G0 Z5.00000

G0 X31.34380 Y64.49080
G1 Z-2.00000
G0 Z5.00000

G0 X31.34380 Y67.03080
G1 Z-2.00000
G0 Z5.00000

G0 X31.34380 Y69.57080
G1 Z-2.00000
G0 Z5.00000

G0 X31.34380 Y72.11080
G1 Z-2.00000
G0 Z5.00000

G0 X31.34380 Y74.65080
G1 Z-2.00000
G0 Z5.00000

G0 X31.34380 Y77.19080
G1 Z-2.00000
G0 Z5.00000

G0 X23.72380 Y77.19080
G1 Z-2.00000
G0 Z5.00000

G0 X23.72380 Y74.65080
G1 Z-2.00000
G0 Z5.00000

G0 X23.72380 Y72.11080
G1 Z-2.00000
G0 Z5.00000

G0 X23.72380 Y69.57080
G1 Z-2.00000
G0 Z5.00000

G0 X23.72380 Y67.03080
G1 Z-2.00000
G0 Z5.00000

G0 X23.72380 Y64.49080
G1 Z-2.00000
G0 Z5.00000

G0 X23.72380 Y61.95080
G1 Z-2.00000
G0 Z5.00000

G0 X23.72380 Y59.41080
G1 Z-2.00000
G0 Z5.00000

G0 X11.02380 Y63.22080
G1 Z-2.00000
G0 Z5.00000

G0 X7.21380 Y63.22080
G1 Z-2.00000
G0 Z5.00000

G0 X11.02380 Y65.76080
G1 Z-2.00000
G0 Z5.00000

G0 X11.02380 Y68.30080
G1 Z-2.00000
G0 Z5.00000

G0 X11.02380 Y70.84080
G1 Z-2.00000
G0 Z5.00000

G0 X7.21380 Y65.76080
G1 Z-2.00000
G0 Z5.00000

G0 X7.21380 Y68.30080
G1 Z-2.00000
G0 Z5.00000

G0 X7.21380 Y70.84080
G1 Z-2.00000
G0 Z5.00000

G0 X7.21380 Y73.38080
G1 Z-2.00000
G0 Z5.00000

G0 X7.21380 Y75.92080
G1 Z-2.00000
G0 Z5.00000

G0 X7.21380 Y78.46080
G1 Z-2.00000
G0 Z5.00000

G0 X7.21380 Y81.00080
G1 Z-2.00000
G0 Z5.00000

G0 X7.21380 Y83.54080
G1 Z-2.00000
G0 Z5.00000

G0 X7.21380 Y86.08080
G1 Z-2.00000
G0 Z5.00000

G0 X7.21380 Y88.62080
G1 Z-2.00000
G0 Z5.00000

G0 X7.21380 Y91.16080
G1 Z-2.00000
G0 Z5.00000

G0 X7.21380 Y93.70080
G1 Z-2.00000
G0 Z5.00000

G0 X7.21380 Y96.24080
G1 Z-2.00000
G0 Z5.00000

G0 X7.21380 Y98.78080
G1 Z-2.00000
G0 Z5.00000

G0 X7.21380 Y101.32080
G1 Z-2.00000
G0 Z5.00000

G0 X7.21380 Y103.86080
G1 Z-2.00000
G0 Z5.00000

G0 X7.21380 Y106.40080
G1 Z-2.00000
G0 Z5.00000

G0 X7.21380 Y108.94080
G1 Z-2.00000
G0 Z5.00000

G0 X7.21380 Y111.48080
G1 Z-2.00000
G0 Z5.00000

G0 X7.21380 Y114.02080
G1 Z-2.00000
G0 Z5.00000

G0 X7.21380 Y116.56080
G1 Z-2.00000
G0 Z5.00000

G0 X7.21380 Y119.10080
G1 Z-2.00000
G0 Z5.00000

G0 X7.21380 Y121.64080
G1 Z-2.00000
G0 Z5.00000

G0 X7.21380 Y124.18080
G1 Z-2.00000
G0 Z5.00000

G0 X7.21380 Y126.72080
G1 Z-2.00000
G0 Z5.00000

G0 X7.21380 Y129.26080
G1 Z-2.00000
G0 Z5.00000

G0 X7.21380 Y131.80080
G1 Z-2.00000
G0 Z5.00000

G0 X7.21380 Y134.34080
G1 Z-2.00000
G0 Z5.00000

G0 X7.21380 Y136.88080
G1 Z-2.00000
G0 Z5.00000

G0 X11.02380 Y136.88080
G1 Z-2.00000
G0 Z5.00000

G0 X11.02380 Y134.34080
G1 Z-2.00000
G0 Z5.00000

G0 X11.02380 Y131.80080
G1 Z-2.00000
G0 Z5.00000

G0 X11.02380 Y129.26080
G1 Z-2.00000
G0 Z5.00000

G0 X11.02380 Y126.72080
G1 Z-2.00000
G0 Z5.00000

G0 X11.02380 Y124.18080
G1 Z-2.00000
G0 Z5.00000

G0 X11.02380 Y121.64080
G1 Z-2.00000
G0 Z5.00000

G0 X11.02380 Y119.10080
G1 Z-2.00000
G0 Z5.00000

G0 X11.02380 Y116.56080
G1 Z-2.00000
G0 Z5.00000

G0 X11.02380 Y114.02080
G1 Z-2.00000
G0 Z5.00000

G0 X11.02380 Y111.48080
G1 Z-2.00000
G0 Z5.00000

G0 X11.02380 Y108.94080
G1 Z-2.00000
G0 Z5.00000

G0 X11.02380 Y106.40080
G1 Z-2.00000
G0 Z5.00000

G0 X11.02380 Y103.86080
G1 Z-2.00000
G0 Z5.00000

G0 X11.02380 Y101.32080
G1 Z-2.00000
G0 Z5.00000

G0 X11.02380 Y98.78080
G1 Z-2.00000
G0 Z5.00000

G0 X11.02380 Y96.24080
G1 Z-2.00000
G0 Z5.00000

G0 X11.02380 Y93.70080
G1 Z-2.00000
G0 Z5.00000

G0 X11.02380 Y91.16080
G1 Z-2.00000
G0 Z5.00000

G0 X11.02380 Y88.62080
G1 Z-2.00000
G0 Z5.00000

G0 X11.02380 Y86.08080
G1 Z-2.00000
G0 Z5.00000

G0 X11.02380 Y83.54080
G1 Z-2.00000
G0 Z5.00000

G0 X11.02380 Y81.00080
G1 Z-2.00000
G0 Z5.00000

G0 X11.02380 Y78.46080
G1 Z-2.00000
G0 Z5.00000

G0 X11.02380 Y75.92080
G1 Z-2.00000
G0 Z5.00000

G0 X11.02380 Y73.38080
G1 Z-2.00000
G0 Z5.00000

G0 X23.72380 Y85.44580
G1 Z-2.00000
G0 Z5.00000

G0 X23.72380 Y87.98580
G1 Z-2.00000
G0 Z5.00000

G0 X23.72380 Y90.52580
G1 Z-2.00000
G0 Z5.00000

G0 X23.72380 Y93.06580
G1 Z-2.00000
G0 Z5.00000

G0 X31.34380 Y85.44580
G1 Z-2.00000
G0 Z5.00000

G0 X31.34380 Y87.98580
G1 Z-2.00000
G0 Z5.00000

G0 X31.34380 Y90.52580
G1 Z-2.00000
G0 Z5.00000

G0 X31.34380 Y93.06580
G1 Z-2.00000
G0 Z5.00000

G0 X31.34380 Y95.60580
G1 Z-2.00000
G0 Z5.00000

G0 X31.34380 Y98.14580
G1 Z-2.00000
G0 Z5.00000

G0 X23.72380 Y95.60580
G1 Z-2.00000
G0 Z5.00000

G0 X23.72380 Y98.14580
G1 Z-2.00000
G0 Z5.00000

G0 X23.72380 Y100.68580
G1 Z-2.00000
G0 Z5.00000

G0 X23.72380 Y103.22580
G1 Z-2.00000
G0 Z5.00000

G0 X31.34380 Y100.68580
G1 Z-2.00000
G0 Z5.00000

G0 X31.34380 Y103.22580
G1 Z-2.00000
G0 Z5.00000

G0 X31.34380 Y111.48080
G1 Z-2.00000
G0 Z5.00000

G0 X31.34380 Y114.02080
G1 Z-2.00000
G0 Z5.00000

G0 X23.72380 Y111.48080
G1 Z-2.00000
G0 Z5.00000

G0 X23.72380 Y114.02080
G1 Z-2.00000
G0 Z5.00000

G0 X23.72380 Y116.56080
G1 Z-2.00000
G0 Z5.00000

G0 X23.72380 Y119.10080
G1 Z-2.00000
G0 Z5.00000

G0 X23.72380 Y121.64080
G1 Z-2.00000
G0 Z5.00000

G0 X23.72380 Y124.18080
G1 Z-2.00000
G0 Z5.00000

G0 X31.34380 Y116.56080
G1 Z-2.00000
G0 Z5.00000

G0 X31.34380 Y119.10080
G1 Z-2.00000
G0 Z5.00000

G0 X31.34380 Y121.64080
G1 Z-2.00000
G0 Z5.00000

G0 X31.34380 Y124.18080
G1 Z-2.00000
G0 Z5.00000

G0 X31.34380 Y126.72080
G1 Z-2.00000
G0 Z5.00000

G0 X31.34380 Y129.26080
G1 Z-2.00000
G0 Z5.00000

G0 X23.72380 Y126.72080
G1 Z-2.00000
G0 Z5.00000

G0 X23.72380 Y129.26080
G1 Z-2.00000
G0 Z5.00000

G0 X30.07380 Y134.34080
G1 Z-2.00000
G0 Z5.00000

G0 X30.07380 Y141.96080
G1 Z-2.00000
G0 Z5.00000

G0 X16.19910 Y12.42080
G1 Z-2.00000
G2  X16.19910 Y12.42080 I-0.09530 J0.00000
G0 Z5.00000

G0 X16.19910 Y9.88080
G1 Z-2.00000
G2  X16.19910 Y9.88080 I-0.09530 J0.00000
G0 Z5.00000

G0 X16.19910 Y7.34080
G1 Z-2.00000
G2  X16.19910 Y7.34080 I-0.09530 J0.00000
G0 Z5.00000

G0 X16.19910 Y4.80080
G1 Z-2.00000
G2  X16.19910 Y4.80080 I-0.09530 J0.00000
G0 Z5.00000

G0 X18.73910 Y4.80080
G1 Z-2.00000
G2  X18.73910 Y4.80080 I-0.09530 J0.00000
G0 Z5.00000

G0 X18.73910 Y7.34080
G1 Z-2.00000
G2  X18.73910 Y7.34080 I-0.09530 J0.00000
G0 Z5.00000

G0 X18.73910 Y9.88080
G1 Z-2.00000
G2  X18.73910 Y9.88080 I-0.09530 J0.00000
G0 Z5.00000

G0 X18.73910 Y12.42080
G1 Z-2.00000
G2  X18.73910 Y12.42080 I-0.09530 J0.00000
G0 Z5.00000

G0 X18.73910 Y17.50080
G1 Z-2.00000
G2  X18.73910 Y17.50080 I-0.09530 J0.00000
G0 Z5.00000

G0 X16.19910 Y17.50080
G1 Z-2.00000
G2  X16.19910 Y17.50080 I-0.09530 J0.00000
G0 Z5.00000

G0 X16.19910 Y20.04080
G1 Z-2.00000
G2  X16.19910 Y20.04080 I-0.09530 J0.00000
G0 Z5.00000

G0 X18.73910 Y20.04080
G1 Z-2.00000
G2  X18.73910 Y20.04080 I-0.09530 J0.00000
G0 Z5.00000

G0 X18.73910 Y22.58080
G1 Z-2.00000
G2  X18.73910 Y22.58080 I-0.09530 J0.00000
G0 Z5.00000

G0 X16.19910 Y22.58080
G1 Z-2.00000
G2  X16.19910 Y22.58080 I-0.09530 J0.00000
G0 Z5.00000

G0 X16.19910 Y25.12080
G1 Z-2.00000
G2  X16.19910 Y25.12080 I-0.09530 J0.00000
G0 Z5.00000

G0 X18.73910 Y25.12080
G1 Z-2.00000
G2  X18.73910 Y25.12080 I-0.09530 J0.00000
G0 Z5.00000

G0 X18.73910 Y30.20080
G1 Z-2.00000
G2  X18.73910 Y30.20080 I-0.09530 J0.00000
G0 Z5.00000

G0 X16.19910 Y30.20080
G1 Z-2.00000
G2  X16.19910 Y30.20080 I-0.09530 J0.00000
G0 Z5.00000

G0 X16.19910 Y32.74080
G1 Z-2.00000
G2  X16.19910 Y32.74080 I-0.09530 J0.00000
G0 Z5.00000

G0 X18.73910 Y32.74080
G1 Z-2.00000
G2  X18.73910 Y32.74080 I-0.09530 J0.00000
G0 Z5.00000

G0 X18.73910 Y35.28080
G1 Z-2.00000
G2  X18.73910 Y35.28080 I-0.09530 J0.00000
G0 Z5.00000

G0 X16.19910 Y35.28080
G1 Z-2.00000
G2  X16.19910 Y35.28080 I-0.09530 J0.00000
G0 Z5.00000

G0 X16.19910 Y37.82080
G1 Z-2.00000
G2  X16.19910 Y37.82080 I-0.09530 J0.00000
G0 Z5.00000

G0 X18.73910 Y37.82080
G1 Z-2.00000
G2  X18.73910 Y37.82080 I-0.09530 J0.00000
G0 Z5.00000

G0 X18.73910 Y42.90080
G1 Z-2.00000
G2  X18.73910 Y42.90080 I-0.09530 J0.00000
G0 Z5.00000

G0 X16.19910 Y42.90080
G1 Z-2.00000
G2  X16.19910 Y42.90080 I-0.09530 J0.00000
G0 Z5.00000

G0 X16.19910 Y45.44080
G1 Z-2.00000
G2  X16.19910 Y45.44080 I-0.09530 J0.00000
G0 Z5.00000

G0 X18.73910 Y45.44080
G1 Z-2.00000
G2  X18.73910 Y45.44080 I-0.09530 J0.00000
G0 Z5.00000

G0 X18.73910 Y47.98080
G1 Z-2.00000
G2  X18.73910 Y47.98080 I-0.09530 J0.00000
G0 Z5.00000

G0 X16.19910 Y47.98080
G1 Z-2.00000
G2  X16.19910 Y47.98080 I-0.09530 J0.00000
G0 Z5.00000

G0 X16.19910 Y50.52080
G1 Z-2.00000
G2  X16.19910 Y50.52080 I-0.09530 J0.00000
G0 Z5.00000

G0 X18.73910 Y50.52080
G1 Z-2.00000
G2  X18.73910 Y50.52080 I-0.09530 J0.00000
G0 Z5.00000

G0 X16.19910 Y55.60080
G1 Z-2.00000
G2  X16.19910 Y55.60080 I-0.09530 J0.00000
G0 Z5.00000

G0 X16.19910 Y58.14080
G1 Z-2.00000
G2  X16.19910 Y58.14080 I-0.09530 J0.00000
G0 Z5.00000

G0 X16.19910 Y60.68080
G1 Z-2.00000
G2  X16.19910 Y60.68080 I-0.09530 J0.00000
G0 Z5.00000

G0 X16.19910 Y63.22080
G1 Z-2.00000
G2  X16.19910 Y63.22080 I-0.09530 J0.00000
G0 Z5.00000

G0 X18.73910 Y63.22080
G1 Z-2.00000
G2  X18.73910 Y63.22080 I-0.09530 J0.00000
G0 Z5.00000

G0 X18.73910 Y60.68080
G1 Z-2.00000
G2  X18.73910 Y60.68080 I-0.09530 J0.00000
G0 Z5.00000

G0 X18.73910 Y58.14080
G1 Z-2.00000
G2  X18.73910 Y58.14080 I-0.09530 J0.00000
G0 Z5.00000

G0 X18.73910 Y55.60080
G1 Z-2.00000
G2  X18.73910 Y55.60080 I-0.09530 J0.00000
G0 Z5.00000

G0 X24.45410 Y56.23580
G1 Z-2.00000
G2  X24.45410 Y56.23580 I-0.09530 J0.00000
G0 Z5.00000

G0 X29.45536 Y56.23580
G1 Z-2.00000
G2  X29.45536 Y56.23580 I-0.09530 J0.00000
G0 Z5.00000

G0 X18.73910 Y68.30080
G1 Z-2.00000
G2  X18.73910 Y68.30080 I-0.09530 J0.00000
G0 Z5.00000

G0 X16.19910 Y68.30080
G1 Z-2.00000
G2  X16.19910 Y68.30080 I-0.09530 J0.00000
G0 Z5.00000

G0 X16.19910 Y70.84080
G1 Z-2.00000
G2  X16.19910 Y70.84080 I-0.09530 J0.00000
G0 Z5.00000

G0 X18.73910 Y70.84080
G1 Z-2.00000
G2  X18.73910 Y70.84080 I-0.09530 J0.00000
G0 Z5.00000

G0 X18.73910 Y73.38080
G1 Z-2.00000
G2  X18.73910 Y73.38080 I-0.09530 J0.00000
G0 Z5.00000

G0 X16.19910 Y73.38080
G1 Z-2.00000
G2  X16.19910 Y73.38080 I-0.09530 J0.00000
G0 Z5.00000

G0 X16.19910 Y75.92080
G1 Z-2.00000
G2  X16.19910 Y75.92080 I-0.09530 J0.00000
G0 Z5.00000

G0 X18.73910 Y75.92080
G1 Z-2.00000
G2  X18.73910 Y75.92080 I-0.09530 J0.00000
G0 Z5.00000

G0 X16.19910 Y81.00080
G1 Z-2.00000
G2  X16.19910 Y81.00080 I-0.09530 J0.00000
G0 Z5.00000

G0 X16.19910 Y83.54080
G1 Z-2.00000
G2  X16.19910 Y83.54080 I-0.09530 J0.00000
G0 Z5.00000

G0 X16.19910 Y86.08080
G1 Z-2.00000
G2  X16.19910 Y86.08080 I-0.09530 J0.00000
G0 Z5.00000

G0 X16.19910 Y88.62080
G1 Z-2.00000
G2  X16.19910 Y88.62080 I-0.09530 J0.00000
G0 Z5.00000

G0 X18.73910 Y88.62080
G1 Z-2.00000
G2  X18.73910 Y88.62080 I-0.09530 J0.00000
G0 Z5.00000

G0 X18.73910 Y86.08080
G1 Z-2.00000
G2  X18.73910 Y86.08080 I-0.09530 J0.00000
G0 Z5.00000

G0 X18.73910 Y83.54080
G1 Z-2.00000
G2  X18.73910 Y83.54080 I-0.09530 J0.00000
G0 Z5.00000

G0 X18.73910 Y81.00080
G1 Z-2.00000
G2  X18.73910 Y81.00080 I-0.09530 J0.00000
G0 Z5.00000

G0 X24.53284 Y82.27080
G1 Z-2.00000
G2  X24.53284 Y82.27080 I-0.09530 J0.00000
G0 Z5.00000

G0 X29.53410 Y82.27080
G1 Z-2.00000
G2  X29.53410 Y82.27080 I-0.09530 J0.00000
G0 Z5.00000

G0 X18.73910 Y93.70080
G1 Z-2.00000
G2  X18.73910 Y93.70080 I-0.09530 J0.00000
G0 Z5.00000

G0 X16.19910 Y93.70080
G1 Z-2.00000
G2  X16.19910 Y93.70080 I-0.09530 J0.00000
G0 Z5.00000

G0 X16.19910 Y96.24080
G1 Z-2.00000
G2  X16.19910 Y96.24080 I-0.09530 J0.00000
G0 Z5.00000

G0 X18.73910 Y96.24080
G1 Z-2.00000
G2  X18.73910 Y96.24080 I-0.09530 J0.00000
G0 Z5.00000

G0 X18.73910 Y98.78080
G1 Z-2.00000
G2  X18.73910 Y98.78080 I-0.09530 J0.00000
G0 Z5.00000

G0 X16.19910 Y98.78080
G1 Z-2.00000
G2  X16.19910 Y98.78080 I-0.09530 J0.00000
G0 Z5.00000

G0 X16.19910 Y101.32080
G1 Z-2.00000
G2  X16.19910 Y101.32080 I-0.09530 J0.00000
G0 Z5.00000

G0 X18.73910 Y101.32080
G1 Z-2.00000
G2  X18.73910 Y101.32080 I-0.09530 J0.00000
G0 Z5.00000

G0 X16.19910 Y106.40080
G1 Z-2.00000
G2  X16.19910 Y106.40080 I-0.09530 J0.00000
G0 Z5.00000

G0 X16.19910 Y108.94080
G1 Z-2.00000
G2  X16.19910 Y108.94080 I-0.09530 J0.00000
G0 Z5.00000

G0 X16.19910 Y111.48080
G1 Z-2.00000
G2  X16.19910 Y111.48080 I-0.09530 J0.00000
G0 Z5.00000

G0 X16.19910 Y114.02080
G1 Z-2.00000
G2  X16.19910 Y114.02080 I-0.09530 J0.00000
G0 Z5.00000

G0 X18.73910 Y114.02080
G1 Z-2.00000
G2  X18.73910 Y114.02080 I-0.09530 J0.00000
G0 Z5.00000

G0 X18.73910 Y111.48080
G1 Z-2.00000
G2  X18.73910 Y111.48080 I-0.09530 J0.00000
G0 Z5.00000

G0 X18.73910 Y108.94080
G1 Z-2.00000
G2  X18.73910 Y108.94080 I-0.09530 J0.00000
G0 Z5.00000

G0 X18.73910 Y106.40080
G1 Z-2.00000
G2  X18.73910 Y106.40080 I-0.09530 J0.00000
G0 Z5.00000

G0 X24.45410 Y108.30580
G1 Z-2.00000
G2  X24.45410 Y108.30580 I-0.09530 J0.00000
G0 Z5.00000

G0 X29.45536 Y108.30580
G1 Z-2.00000
G2  X29.45536 Y108.30580 I-0.09530 J0.00000
G0 Z5.00000

G0 X18.73910 Y119.10080
G1 Z-2.00000
G2  X18.73910 Y119.10080 I-0.09530 J0.00000
G0 Z5.00000

G0 X16.19910 Y119.10080
G1 Z-2.00000
G2  X16.19910 Y119.10080 I-0.09530 J0.00000
G0 Z5.00000

G0 X16.19910 Y121.64080
G1 Z-2.00000
G2  X16.19910 Y121.64080 I-0.09530 J0.00000
G0 Z5.00000

G0 X18.73910 Y121.64080
G1 Z-2.00000
G2  X18.73910 Y121.64080 I-0.09530 J0.00000
G0 Z5.00000

G0 X18.73910 Y124.18080
G1 Z-2.00000
G2  X18.73910 Y124.18080 I-0.09530 J0.00000
G0 Z5.00000

G0 X16.19910 Y124.18080
G1 Z-2.00000
G2  X16.19910 Y124.18080 I-0.09530 J0.00000
G0 Z5.00000

G0 X16.19910 Y126.72080
G1 Z-2.00000
G2  X16.19910 Y126.72080 I-0.09530 J0.00000
G0 Z5.00000

G0 X18.73910 Y126.72080
G1 Z-2.00000
G2  X18.73910 Y126.72080 I-0.09530 J0.00000
G0 Z5.00000

G0 X14.92910 Y133.07080
G1 Z-2.00000
G2  X14.92910 Y133.07080 I-0.09530 J0.00000
G0 Z5.00000

G0 X14.92910 Y135.61080
G1 Z-2.00000
G2  X14.92910 Y135.61080 I-0.09530 J0.00000
G0 Z5.00000

G0 X17.46910 Y135.61080
G1 Z-2.00000
G2  X17.46910 Y135.61080 I-0.09530 J0.00000
G0 Z5.00000

G0 X19.93036 Y133.07080
G1 Z-2.00000
G2  X19.93036 Y133.07080 I-0.09530 J0.00000
G0 Z5.00000

G0 X20.00910 Y135.61080
G1 Z-2.00000
G2  X20.00910 Y135.61080 I-0.09530 J0.00000
G0 Z5.00000

G0 X20.00910 Y141.32580
G1 Z-2.00000
G2  X20.00910 Y141.32580 I-0.09530 J0.00000
G0 Z5.00000

G0 X22.54910 Y141.32580
G1 Z-2.00000
G2  X22.54910 Y141.32580 I-0.09530 J0.00000
G0 Z5.00000

G0 X25.08910 Y141.32580
G1 Z-2.00000
G2  X25.08910 Y141.32580 I-0.09530 J0.00000
G0 Z5.00000

G0 X35.24910 Y141.32580
G1 Z-2.00000
G2  X35.24910 Y141.32580 I-0.09530 J0.00000
G0 Z5.00000

G0 X37.78910 Y141.32580
G1 Z-2.00000
G2  X37.78910 Y141.32580 I-0.09530 J0.00000
G0 Z5.00000

G0 X40.32910 Y141.32580
G1 Z-2.00000
G2  X40.32910 Y141.32580 I-0.09530 J0.00000
G0 Z5.00000

G0 X39.05910 Y134.34080
G1 Z-2.00000
G2  X39.05910 Y134.34080 I-0.09530 J0.00000
G0 Z5.00000

G0 X35.88410 Y134.34080
G1 Z-2.00000
G2  X35.88410 Y134.34080 I-0.09530 J0.00000
G0 Z5.00000

G0 X35.88410 Y129.33954
G1 Z-2.00000
G2  X35.88410 Y129.33954 I-0.09530 J0.00000
G0 Z5.00000

G0 X39.05910 Y129.33954
G1 Z-2.00000
G2  X39.05910 Y129.33954 I-0.09530 J0.00000
G0 Z5.00000

G0 X43.50410 Y133.70580
G1 Z-2.00000
G2  X43.50410 Y133.70580 I-0.09530 J0.00000
G0 Z5.00000

G0 X43.50410 Y131.16580
G1 Z-2.00000
G2  X43.50410 Y131.16580 I-0.09530 J0.00000
G0 Z5.00000

G0 X43.50410 Y128.62580
G1 Z-2.00000
G2  X43.50410 Y128.62580 I-0.09530 J0.00000
G0 Z5.00000

G0 X43.50410 Y119.73580
G1 Z-2.00000
G2  X43.50410 Y119.73580 I-0.09530 J0.00000
G0 Z5.00000

G0 X43.50410 Y117.19580
G1 Z-2.00000
G2  X43.50410 Y117.19580 I-0.09530 J0.00000
G0 Z5.00000

G0 X43.12310 Y53.69580
G1 Z-2.00000
G2  X43.12310 Y53.69580 I-0.09530 J0.00000
G0 Z5.00000

G0 X45.66310 Y53.69580
G1 Z-2.00000
G2  X45.66310 Y53.69580 I-0.09530 J0.00000
G0 Z5.00000

G0 X45.66310 Y51.15580
G1 Z-2.00000
G2  X45.66310 Y51.15580 I-0.09530 J0.00000
G0 Z5.00000

G0 X43.12310 Y51.15580
G1 Z-2.00000
G2  X43.12310 Y51.15580 I-0.09530 J0.00000
G0 Z5.00000

G0 X45.66310 Y48.61580
G1 Z-2.00000
G2  X45.66310 Y48.61580 I-0.09530 J0.00000
G0 Z5.00000

G0 X45.66310 Y46.07580
G1 Z-2.00000
G2  X45.66310 Y46.07580 I-0.09530 J0.00000
G0 Z5.00000

G0 X43.12310 Y48.61580
G1 Z-2.00000
G2  X43.12310 Y48.61580 I-0.09530 J0.00000
G0 Z5.00000

G0 X43.12310 Y46.07580
G1 Z-2.00000
G2  X43.12310 Y46.07580 I-0.09530 J0.00000
G0 Z5.00000

G0 X45.66310 Y43.53580
G1 Z-2.00000
G2  X45.66310 Y43.53580 I-0.09530 J0.00000
G0 Z5.00000

G0 X45.66310 Y40.99580
G1 Z-2.00000
G2  X45.66310 Y40.99580 I-0.09530 J0.00000
G0 Z5.00000

G0 X43.12310 Y43.53580
G1 Z-2.00000
G2  X43.12310 Y43.53580 I-0.09530 J0.00000
G0 Z5.00000

G0 X43.12310 Y40.99580
G1 Z-2.00000
G2  X43.12310 Y40.99580 I-0.09530 J0.00000
G0 Z5.00000

G0 X29.45536 Y30.20080
G1 Z-2.00000
G2  X29.45536 Y30.20080 I-0.09530 J0.00000
G0 Z5.00000

G0 X24.45410 Y30.20080
G1 Z-2.00000
G2  X24.45410 Y30.20080 I-0.09530 J0.00000
G0 Z5.00000

G0 X35.24910 Y14.88206
G1 Z-2.00000
G2  X35.24910 Y14.88206 I-0.09530 J0.00000
G0 Z5.00000

G0 X35.24910 Y9.88080
G1 Z-2.00000
G2  X35.24910 Y9.88080 I-0.09530 J0.00000
G0 Z5.00000

G0 X46.66640 Y6.70580
G1 Z-2.00000
G2  X46.66640 Y6.70580 I-0.84460 J0.00000
G0 Z5.00000

G0 X7.55040 Y144.88180
G1 Z-2.00000
G2  X7.55040 Y144.88180 I-0.84460 J0.00000
G0 Z5.00000

G00 Z10.000 ( All done -- retract )

M5      (Spindle off.)
G04 P1.000000
M9      (Coolant off.)
M2      (Program end.)

