( pcb2gcode 1.3.2 )
( Software-independent Gcode )

G94 ( Millimeters per minute feed rate. )
G21 ( Units == Millimeters. )

G90 ( Absolute coordinates. )
S10000 ( RPM spindle speed. )
G64 P0.01000 ( set maximum deviation from commanded toolpath )
F200.00000 ( Feedrate. )

F200.00000 ( Feedrate. )
M3 ( Spindle on clockwise. )
G04 P1.00000
G04 P0 ( dwell for no time -- G64 should not smooth over this point )
G00 Z5.00000 ( retract )

G00 X52.40180 Y1.62580 ( rapid move to begin. )
G01 Z-2.00000 F100.00000 ( plunge. )
G04 P0 ( dwell for no time -- G64 should not smooth over this point )
F200.00000
G01 X52.40180 Y1.62580
X52.40180 Y74.04380
Z-0.60000
X52.40180 Y77.54380
Z-2.00000 F100.00000
F200.00000
G01 X52.40180 Y149.96180
X52.37297 Y150.25443
X52.28760 Y150.53581
X52.14899 Y150.79515
X51.96245 Y151.02245
X51.73515 Y151.20899
X51.47581 Y151.34760
X51.19443 Y151.43297
X50.90180 Y151.46180
X28.01380 Y151.46180
Z-0.60000
X24.51380 Y151.46180
Z-2.00000 F100.00000
F200.00000
G01 X1.62580 Y151.46180
X1.33317 Y151.43297
X1.05179 Y151.34760
X0.79245 Y151.20899
X0.56515 Y151.02245
X0.37861 Y150.79515
X0.24000 Y150.53581
X0.15463 Y150.25443
X0.12580 Y149.96180
X0.12580 Y77.54380
Z-0.60000
X0.12580 Y74.04380
Z-2.00000 F100.00000
F200.00000
G01 X0.12580 Y1.62580
X0.15463 Y1.33317
X0.24000 Y1.05178
X0.37861 Y0.79245
X0.56515 Y0.56515
X0.79245 Y0.37861
X1.05179 Y0.24000
X1.33317 Y0.15463
X1.62580 Y0.12580
X24.51380 Y0.12580
Z-0.60000
X28.01380 Y0.12580
Z-2.00000 F100.00000
F200.00000
G01 X50.90180 Y0.12580
X51.19443 Y0.15463
X51.47581 Y0.24000
X51.73515 Y0.37861
X51.96245 Y0.56515
X52.14899 Y0.79245
X52.28760 Y1.05178
X52.37297 Y1.33317
X52.40180 Y1.62580

G04 P0 ( dwell for no time -- G64 should not smooth over this point )
G00 Z10.000 ( retract )

M5 ( Spindle off. )
G04 P1.000000
M9 ( Coolant off. )
M2 ( Program end. )

