( pcb2gcode 1.3.2 )
( Software-independent Gcode )

G94 ( Millimeters per minute feed rate. )
G21 ( Units == Millimeters. )

G90 ( Absolute coordinates. )
S10000 ( RPM spindle speed. )
G64 P0.01000 ( set maximum deviation from commanded toolpath )
F600.00000 ( Feedrate. )

F600.00000 ( Feedrate. )
M3 ( Spindle on clockwise. )
G04 P1.00000
G04 P0 ( dwell for no time -- G64 should not smooth over this point )
G00 Z5.00000 ( retract )

G00 X52.40180 Y1.62580 ( rapid move to begin. )
G01 Z-2.00000 F300.00000 ( plunge. )
G04 P0 ( dwell for no time -- G64 should not smooth over this point )
F600.00000
G01 X52.40180 Y1.62580
X52.40180 Y74.42480
Z-0.60000
X52.40180 Y77.92480
Z-2.00000 F300.00000
F600.00000
G01 X52.40180 Y150.72380
X52.37297 Y151.01644
X52.28760 Y151.29782
X52.14899 Y151.55715
X51.96245 Y151.78446
X51.73515 Y151.97100
X51.47581 Y152.10960
X51.19443 Y152.19497
X50.90180 Y152.22380
X28.01380 Y152.22380
Z-0.60000
X24.51380 Y152.22380
Z-2.00000 F300.00000
F600.00000
G01 X1.62580 Y152.22380
X1.33317 Y152.19497
X1.05179 Y152.10960
X0.79245 Y151.97100
X0.56515 Y151.78446
X0.37861 Y151.55715
X0.24000 Y151.29782
X0.15463 Y151.01644
X0.12580 Y150.72380
X0.12580 Y77.92480
Z-0.60000
X0.12580 Y74.42480
Z-2.00000 F300.00000
F600.00000
G01 X0.12580 Y1.62580
X0.15463 Y1.33317
X0.24000 Y1.05179
X0.37861 Y0.79246
X0.56515 Y0.56515
X0.79245 Y0.37861
X1.05179 Y0.24001
X1.33317 Y0.15464
X1.62580 Y0.12581
X24.51380 Y0.12581
Z-0.60000
X28.01380 Y0.12581
Z-2.00000 F300.00000
F600.00000
G01 X50.90180 Y0.12581
X51.19443 Y0.15464
X51.47581 Y0.24001
X51.73515 Y0.37861
X51.96245 Y0.56515
X52.14899 Y0.79246
X52.28760 Y1.05179
X52.37297 Y1.33317
X52.40180 Y1.62580

G04 P0 ( dwell for no time -- G64 should not smooth over this point )
G00 Z10.000 ( retract )

M5 ( Spindle off. )
G04 P1.000000
M9 ( Coolant off. )
M2 ( Program end. )

